test_lut.cube
TITLE "Color Transfer LUT - 图像"
LUT_3D_SIZE 5
0.196078 0.235294 0.341176
0.686275 0.000000 0.321569
1.000000 0.000000 0.270588
1.000000 0.000000 0.250980
1.000000 0.000000 0.231373
0.000000 0.529412 0.262745
0.458824 0.494118 0.262745
0.964706 0.360784 0.262745
1.000000 0.000000 0.270588
1.000000 0.000000 0.239216
0.000000 0.835294 0.250980
0.000000 0.827451 0.262745
0.709804 0.784314 0.258824
1.000000 0.686275 0.250980
1.000000 0.478431 0.250980
0.000000 1.000000 0.215686
0.000000 1.000000 0.196078
0.101961 1.000000 0.184314
0.949020 1.000000 0.172549
1.000000 0.905882 0.000000
0.000000 1.000000 0.000000
0.000000 1.000000 0.000000
0.000000 1.000000 0.000000
0.000000 1.000000 0.000000
0.886275 1.000000 0.000000
0.282353 0.117647 0.713726
0.686275 0.000000 0.670588
1.000000 0.000000 0.611765
1.000000 0.000000 0.564706
1.000000 0.000000 0.509804
0.000000 0.525490 0.627451
0.450980 0.486275 0.607843
0.956863 0.349020 0.580392
1.000000 0.000000 0.545098
1.000000 0.000000 0.509804
0.000000 0.831373 0.541176
0.000000 0.823529 0.529412
0.701961 0.780392 0.513726
1.000000 0.674510 0.501961
1.000000 0.466667 0.478431
0.000000 1.000000 0.454902
0.000000 1.000000 0.450980
0.000000 1.000000 0.450980
0.937255 1.000000 0.419608
1.000000 0.898039 0.352941
0.000000 1.000000 0.211765
0.000000 1.000000 0.172549
0.000000 1.000000 0.094118
0.094118 1.000000 0.000000
0.905882 1.000000 0.000000
0.545098 0.000000 1.000000
0.752941 0.000000 1.000000
1.000000 0.000000 1.000000
1.000000 0.000000 0.949020
1.000000 0.000000 0.882353
0.000000 0.470588 1.000000
0.537255 0.419608 1.000000
0.988235 0.254902 0.972549
1.000000 0.000000 0.925490
1.000000 0.000000 0.870588
0.000000 0.819608 0.913725
0.000000 0.807843 0.913725
0.725490 0.760784 0.894118
1.000000 0.647059 0.870588
1.000000 0.403922 0.839216
0.000000 1.000000 0.827451
0.000000 1.000000 0.831373
0.113725 1.000000 0.815686
0.945098 1.000000 0.784314
1.000000 0.874510 0.694118
0.000000 1.000000 0.596078
0.000000 1.000000 0.576471
0.000000 1.000000 0.552941
0.090196 1.000000 0.513726
0.913725 1.000000 0.447059
0.694118 0.000000 1.000000
0.741176 0.000000 1.000000
0.941176 0.000000 1.000000
1.000000 0.000000 1.000000
1.000000 0.000000 1.000000
0.466667 0.329412 1.000000
0.662745 0.282353 1.000000
1.000000 0.000000 1.000000
1.000000 0.000000 1.000000
1.000000 0.031373 1.000000
0.000000 0.784314 1.000000
0.000000 0.772549 1.000000
0.788235 0.717647 1.000000
1.000000 0.592157 1.000000
1.000000 0.305882 1.000000
0.000000 1.000000 1.000000
0.000000 1.000000 1.000000
0.239216 1.000000 1.000000
0.960784 0.996078 1.000000
1.000000 0.831373 1.000000
0.000000 1.000000 0.941176
0.000000 1.000000 0.941176
0.000000 1.000000 0.909804
0.223529 1.000000 0.866667
0.937255 1.000000 0.800000
0.823529 0.000000 1.000000
0.854902 0.000000 1.000000
0.941176 0.000000 1.000000
1.000000 0.074510 1.000000
1.000000 0.270588 1.000000
0.921569 0.000000 1.000000
0.941176 0.000000 1.000000
1.000000 0.000000 1.000000
1.000000 0.188235 1.000000
1.000000 0.313726 1.000000
0.000000 0.717647 1.000000
0.407843 0.698039 1.000000
0.870588 0.635294 1.000000
1.000000 0.478431 1.000000
1.000000 0.427451 1.000000
0.000000 1.000000 1.000000
0.000000 1.000000 1.000000
0.388235 1.000000 1.000000
0.980392 0.937255 1.000000
1.000000 0.760784 1.000000
0.000000 1.000000 1.000000
0.000000 1.000000 1.000000
0.000000 1.000000 1.000000
0.286275 1.000000 1.000000
0.960784 0.996078 1.000000
