test_lut.cube
TITLE "Color Transfer LUT - 图像"
LUT_3D_SIZE 33
0.196078 0.235294 0.341176
0.239216 0.227451 0.341176
0.278431 0.219608 0.333333
0.321569 0.215686 0.337255
0.396078 0.188235 0.329412
0.474510 0.141176 0.337255
0.564706 0.015686 0.333333
0.619608 0.000000 0.317647
0.686275 0.000000 0.321569
0.749020 0.000000 0.305882
0.792157 0.000000 0.301961
0.850980 0.000000 0.298039
0.886275 0.000000 0.286275
0.949020 0.000000 0.282353
1.000000 0.000000 0.278431
1.000000 0.000000 0.274510
1.000000 0.000000 0.270588
1.000000 0.000000 0.270588
1.000000 0.000000 0.270588
1.000000 0.000000 0.262745
1.000000 0.000000 0.266667
1.000000 0.000000 0.254902
1.000000 0.000000 0.254902
1.000000 0.000000 0.250980
1.000000 0.000000 0.250980
1.000000 0.000000 0.247059
1.000000 0.000000 0.247059
1.000000 0.000000 0.243137
1.000000 0.000000 0.235294
1.000000 0.000000 0.239216
1.000000 0.000000 0.231373
1.000000 0.000000 0.239216
1.000000 0.000000 0.231373
0.188235 0.250980 0.337255
0.196078 0.258824 0.341176
0.270588 0.243137 0.341176
0.333333 0.223529 0.341176
0.400000 0.203922 0.333333
0.454902 0.196078 0.333333
0.560784 0.101961 0.321569
0.611765 0.035294 0.317647
0.674510 0.000000 0.313726
0.721569 0.000000 0.305882
0.784314 0.000000 0.290196
0.839216 0.000000 0.290196
0.894118 0.000000 0.290196
0.933333 0.000000 0.282353
0.988235 0.000000 0.278431
1.000000 0.000000 0.266667
1.000000 0.000000 0.274510
1.000000 0.000000 0.258824
1.000000 0.000000 0.258824
1.000000 0.000000 0.266667
1.000000 0.000000 0.262745
1.000000 0.000000 0.254902
1.000000 0.000000 0.250980
1.000000 0.000000 0.250980
1.000000 0.000000 0.254902
1.000000 0.000000 0.247059
1.000000 0.000000 0.243137
1.000000 0.000000 0.243137
1.000000 0.000000 0.235294
1.000000 0.000000 0.235294
1.000000 0.000000 0.235294
1.000000 0.000000 0.223529
1.000000 0.000000 0.231373
0.141176 0.282353 0.329412
0.149020 0.286275 0.333333
0.235294 0.274510 0.333333
0.282353 0.274510 0.321569
0.376471 0.250980 0.333333
0.458824 0.223529 0.321569
0.529412 0.192157 0.317647
0.596078 0.176471 0.309804
0.647059 0.149020 0.301961
0.705882 0.109804 0.294118
0.768627 0.000000 0.294118
0.823529 0.000000 0.290196
0.866667 0.000000 0.286275
0.929412 0.000000 0.274510
0.976471 0.000000 0.270588
1.000000 0.000000 0.270588
1.000000 0.000000 0.274510
1.000000 0.000000 0.262745
1.000000 0.000000 0.262745
1.000000 0.000000 0.266667
1.000000 0.000000 0.262745
1.000000 0.000000 0.262745
1.000000 0.000000 0.254902
1.000000 0.000000 0.250980
1.000000 0.000000 0.258824
1.000000 0.000000 0.250980
1.000000 0.000000 0.254902
1.000000 0.000000 0.247059
1.000000 0.000000 0.239216
1.000000 0.000000 0.235294
1.000000 0.000000 0.239216
1.000000 0.000000 0.227451
1.000000 0.000000 0.235294
0.019608 0.321569 0.325490
0.078431 0.321569 0.329412
0.207843 0.309804 0.321569
0.262745 0.309804 0.317647
0.360784 0.290196 0.313726
0.423529 0.286275 0.309804
0.505882 0.254902 0.305882
0.564706 0.243137 0.298039
0.623529 0.223529 0.305882
0.678431 0.200000 0.290196
0.752941 0.129412 0.290196
0.807843 0.039216 0.282353
0.850980 0.000000 0.282353
0.917647 0.000000 0.278431
0.960784 0.000000 0.270588
1.000000 0.000000 0.270588
1.000000 0.000000 0.266667
1.000000 0.000000 0.266667
1.000000 0.000000 0.266667
1.000000 0.000000 0.254902
1.000000 0.000000 0.250980
1.000000 0.000000 0.266667
1.000000 0.000000 0.258824
1.000000 0.000000 0.254902
1.000000 0.000000 0.262745
1.000000 0.000000 0.254902
1.000000 0.000000 0.254902
1.000000 0.000000 0.250980
1.000000 0.000000 0.243137
1.000000 0.000000 0.239216
1.000000 0.000000 0.239216
1.000000 0.000000 0.227451
1.000000 0.000000 0.239216
0.000000 0.368627 0.313726
0.000000 0.372549 0.305882
0.113725 0.364706 0.309804
0.211765 0.364706 0.298039
0.301961 0.349020 0.301961
0.380392 0.341176 0.298039
0.470588 0.317647 0.301961
0.525490 0.313726 0.290196
0.596078 0.286275 0.290196
0.658824 0.262745 0.278431
0.721569 0.231373 0.282353
0.784314 0.188235 0.286275
0.839216 0.141176 0.270588
0.890196 0.078431 0.266667
0.945098 0.000000 0.262745
1.000000 0.000000 0.270588
1.000000 0.000000 0.266667
1.000000 0.000000 0.266667
1.000000 0.000000 0.262745
1.000000 0.000000 0.258824
1.000000 0.000000 0.254902
1.000000 0.000000 0.254902
1.000000 0.000000 0.266667
1.000000 0.000000 0.258824
1.000000 0.000000 0.250980
1.000000 0.000000 0.262745
1.000000 0.000000 0.254902
1.000000 0.000000 0.254902
1.000000 0.000000 0.243137
1.000000 0.000000 0.243137
1.000000 0.000000 0.235294
1.000000 0.000000 0.231373
1.000000 0.000000 0.223529
0.000000 0.415686 0.290196
0.000000 0.411765 0.294118
0.000000 0.407843 0.301961
0.156863 0.400000 0.298039
0.278431 0.392157 0.301961
0.345098 0.388235 0.290196
0.427451 0.372549 0.286275
0.494118 0.364706 0.290196
0.560784 0.352941 0.282353
0.635294 0.325490 0.278431
0.694118 0.301961 0.270588
0.760784 0.278431 0.266667
0.819608 0.239216 0.274510
0.870588 0.211765 0.258824
0.925490 0.168627 0.266667
0.988235 0.039216 0.266667
1.000000 0.000000 0.262745
1.000000 0.000000 0.258824
1.000000 0.000000 0.262745
1.000000 0.000000 0.266667
1.000000 0.000000 0.262745
1.000000 0.000000 0.258824
1.000000 0.000000 0.254902
1.000000 0.000000 0.266667
1.000000 0.000000 0.258824
1.000000 0.000000 0.250980
1.000000 0.000000 0.258824
1.000000 0.000000 0.250980
1.000000 0.000000 0.250980
1.000000 0.000000 0.250980
1.000000 0.000000 0.239216
1.000000 0.000000 0.239216
1.000000 0.000000 0.227451
0.000000 0.454902 0.290196
0.000000 0.447059 0.278431
0.000000 0.454902 0.286275
0.007843 0.447059 0.286275
0.203922 0.439216 0.282353
0.321569 0.427451 0.278431
0.384314 0.423529 0.266667
0.466667 0.415686 0.282353
0.529412 0.400000 0.278431
0.603922 0.384314 0.274510
0.670588 0.368627 0.270588
0.733333 0.345098 0.262745
0.792157 0.317647 0.254902
0.854902 0.290196 0.266667
0.901961 0.266667 0.258824
0.964706 0.215686 0.270588
1.000000 0.160784 0.266667
1.000000 0.039216 0.258824
1.000000 0.000000 0.254902
1.000000 0.000000 0.266667
1.000000 0.000000 0.262745
1.000000 0.000000 0.258824
1.000000 0.000000 0.262745
1.000000 0.000000 0.274510
1.000000 0.000000 0.262745
1.000000 0.000000 0.262745
1.000000 0.000000 0.250980
1.000000 0.000000 0.258824
1.000000 0.000000 0.250980
1.000000 0.000000 0.254902
1.000000 0.000000 0.243137
1.000000 0.000000 0.243137
1.000000 0.000000 0.231373
0.000000 0.494118 0.278431
0.000000 0.494118 0.282353
0.000000 0.494118 0.274510
0.000000 0.482353 0.274510
0.117647 0.486275 0.274510
0.270588 0.474510 0.274510
0.352941 0.466667 0.278431
0.427451 0.458824 0.274510
0.498039 0.447059 0.262745
0.564706 0.439216 0.266667
0.643137 0.423529 0.258824
0.701961 0.403922 0.254902
0.760784 0.384314 0.262745
0.823529 0.368627 0.258824
0.874510 0.349020 0.250980
0.933333 0.313726 0.258824
0.992157 0.286275 0.254902
1.000000 0.227451 0.262745
1.000000 0.184314 0.266667
1.000000 0.078431 0.258824
1.000000 0.000000 0.254902
1.000000 0.000000 0.262745
1.000000 0.000000 0.262745
1.000000 0.000000 0.270588
1.000000 0.000000 0.262745
1.000000 0.000000 0.262745
1.000000 0.000000 0.262745
1.000000 0.000000 0.250980
1.000000 0.000000 0.258824
1.000000 0.000000 0.262745
1.000000 0.000000 0.250980
1.000000 0.000000 0.243137
1.000000 0.000000 0.239216
0.000000 0.529412 0.262745
0.000000 0.533333 0.266667
0.000000 0.529412 0.270588
0.000000 0.529412 0.266667
0.000000 0.521569 0.270588
0.180392 0.517647 0.274510
0.305882 0.513726 0.262745
0.388235 0.501961 0.254902
0.458824 0.494118 0.262745
0.537255 0.490196 0.254902
0.607843 0.474510 0.262745
0.670588 0.458824 0.266667
0.729412 0.447059 0.258824
0.792157 0.431373 0.266667
0.854902 0.407843 0.258824
0.917647 0.380392 0.258824
0.964706 0.360784 0.262745
1.000000 0.317647 0.258824
1.000000 0.294118 0.266667
1.000000 0.231373 0.262745
1.000000 0.196078 0.262745
1.000000 0.000000 0.258824
1.000000 0.000000 0.266667
1.000000 0.000000 0.262745
1.000000 0.000000 0.270588
1.000000 0.000000 0.266667
1.000000 0.000000 0.270588
1.000000 0.000000 0.258824
1.000000 0.000000 0.266667
1.000000 0.000000 0.258824
1.000000 0.000000 0.247059
1.000000 0.000000 0.250980
1.000000 0.000000 0.239216
0.000000 0.572549 0.266667
0.000000 0.572549 0.266667
0.000000 0.568627 0.266667
0.000000 0.568627 0.258824
0.000000 0.564706 0.262745
0.066667 0.560784 0.266667
0.247059 0.552941 0.262745
0.337255 0.552941 0.258824
0.415686 0.541176 0.254902
0.486275 0.537255 0.258824
0.572549 0.521569 0.270588
0.631373 0.509804 0.262745
0.698039 0.501961 0.254902
0.756863 0.482353 0.258824
0.823529 0.466667 0.258824
0.886275 0.447059 0.262745
0.937255 0.431373 0.254902
1.000000 0.403922 0.262745
1.000000 0.372549 0.262745
1.000000 0.345098 0.254902
1.000000 0.309804 0.266667
1.000000 0.262745 0.258824
1.000000 0.188235 0.270588
1.000000 0.039216 0.262745
1.000000 0.000000 0.266667
1.000000 0.000000 0.274510
1.000000 0.000000 0.266667
1.000000 0.000000 0.266667
1.000000 0.000000 0.270588
1.000000 0.000000 0.258824
1.000000 0.000000 0.254902
1.000000 0.000000 0.243137
1.000000 0.000000 0.250980
0.000000 0.607843 0.270588
0.000000 0.611765 0.274510
0.000000 0.607843 0.258824
0.000000 0.607843 0.262745
0.000000 0.600000 0.262745
0.000000 0.600000 0.262745
0.117647 0.600000 0.270588
0.278431 0.592157 0.266667
0.376471 0.584314 0.258824
0.458824 0.576471 0.266667
0.529412 0.572549 0.254902
0.584314 0.564706 0.262745
0.662745 0.549020 0.266667
0.725490 0.537255 0.254902
0.792157 0.525490 0.258824
0.850980 0.505882 0.254902
0.913725 0.486275 0.262745
0.980392 0.462745 0.262745
1.000000 0.450980 0.250980
1.000000 0.419608 0.258824
1.000000 0.392157 0.258824
1.000000 0.360784 0.266667
1.000000 0.301961 0.258824
1.000000 0.266667 0.270588
1.000000 0.192157 0.262745
1.000000 0.043137 0.266667
1.000000 0.000000 0.258824
1.000000 0.000000 0.266667
1.000000 0.000000 0.262745
1.000000 0.000000 0.266667
1.000000 0.000000 0.258824
1.000000 0.000000 0.254902
1.000000 0.000000 0.258824
0.000000 0.647059 0.266667
0.000000 0.647059 0.266667
0.000000 0.647059 0.254902
0.000000 0.647059 0.270588
0.000000 0.647059 0.262745
0.000000 0.639216 0.262745
0.000000 0.635294 0.258824
0.192157 0.635294 0.266667
0.325490 0.627451 0.258824
0.415686 0.615686 0.262745
0.474510 0.615686 0.266667
0.552941 0.607843 0.258824
0.623529 0.596078 0.262745
0.690196 0.584314 0.262745
0.752941 0.572549 0.258824
0.819608 0.560784 0.266667
0.882353 0.541176 0.258824
0.949020 0.525490 0.250980
1.000000 0.509804 0.258824
1.000000 0.490196 0.258824
1.000000 0.462745 0.266667
1.000000 0.435294 0.250980
1.000000 0.400000 0.262745
1.000000 0.372549 0.262745
1.000000 0.329412 0.254902
1.000000 0.270588 0.262745
1.000000 0.207843 0.262745
1.000000 0.074510 0.266667
1.000000 0.000000 0.266667
1.000000 0.000000 0.262745
1.000000 0.000000 0.266667
1.000000 0.000000 0.254902
1.000000 0.000000 0.258824
0.000000 0.690196 0.254902
0.000000 0.686275 0.274510
0.000000 0.686275 0.274510
0.000000 0.682353 0.258824
0.000000 0.682353 0.262745
0.000000 0.682353 0.266667
0.000000 0.678431 0.262745
0.000000 0.674510 0.270588
0.227451 0.670588 0.258824
0.349020 0.662745 0.262745
0.435294 0.658824 0.266667
0.517647 0.647059 0.262745
0.592157 0.639216 0.258824
0.650980 0.635294 0.258824
0.717647 0.623529 0.250980
0.788235 0.611765 0.258824
0.850980 0.600000 0.254902
0.905882 0.584314 0.258824
0.972549 0.568627 0.254902
1.000000 0.549020 0.262745
1.000000 0.529412 0.250980
1.000000 0.501961 0.266667
1.000000 0.486275 0.254902
1.000000 0.450980 0.262745
1.000000 0.419608 0.254902
1.000000 0.384314 0.254902
1.000000 0.317647 0.262745
1.000000 0.262745 0.254902
1.000000 0.176471 0.266667
1.000000 0.000000 0.266667
1.000000 0.000000 0.258824
1.000000 0.000000 0.270588
1.000000 0.000000 0.254902
0.000000 0.721569 0.254902
0.000000 0.721569 0.254902
0.000000 0.721569 0.262745
0.000000 0.721569 0.262745
0.000000 0.725490 0.266667
0.000000 0.717647 0.258824
0.000000 0.717647 0.262745
0.000000 0.713726 0.270588
0.129412 0.709804 0.266667
0.274510 0.705882 0.270588
0.396078 0.698039 0.262745
0.458824 0.694118 0.262745
0.545098 0.686275 0.254902
0.623529 0.678431 0.258824
0.686275 0.666667 0.262745
0.760784 0.658824 0.262745
0.827451 0.647059 0.266667
0.890196 0.631373 0.258824
0.937255 0.619608 0.250980
1.000000 0.607843 0.270588
1.000000 0.584314 0.254902
1.000000 0.568627 0.254902
1.000000 0.545098 0.262745
1.000000 0.529412 0.258824
1.000000 0.498039 0.250980
1.000000 0.470588 0.258824
1.000000 0.439216 0.266667
1.000000 0.392157 0.258824
1.000000 0.341176 0.258824
1.000000 0.274510 0.266667
1.000000 0.196078 0.254902
1.000000 0.000000 0.266667
1.000000 0.000000 0.262745
0.000000 0.764706 0.270588
0.000000 0.764706 0.270588
0.000000 0.760784 0.270588
0.000000 0.756863 0.270588
0.000000 0.760784 0.258824
0.000000 0.752941 0.258824
0.000000 0.752941 0.262745
0.000000 0.749020 0.258824
0.000000 0.749020 0.266667
0.172549 0.745098 0.250980
0.290196 0.741176 0.258824
0.411765 0.737255 0.258824
0.501961 0.729412 0.266667
0.572549 0.725490 0.250980
0.647059 0.717647 0.262745
0.717647 0.701961 0.250980
0.784314 0.690196 0.254902
0.850980 0.686275 0.258824
0.913725 0.670588 0.254902
0.976471 0.654902 0.258824
1.000000 0.647059 0.254902
1.000000 0.623529 0.258824
1.000000 0.603922 0.258824
1.000000 0.588235 0.262745
1.000000 0.568627 0.250980
1.000000 0.541176 0.258824
1.000000 0.513726 0.258824
1.000000 0.470588 0.247059
1.000000 0.443137 0.254902
1.000000 0.400000 0.254902
1.000000 0.349020 0.262745
1.000000 0.294118 0.254902
1.000000 0.192157 0.262745
0.000000 0.800000 0.270588
0.000000 0.800000 0.250980
0.000000 0.796078 0.250980
0.000000 0.792157 0.250980
0.000000 0.796078 0.254902
0.000000 0.796078 0.262745
0.000000 0.792157 0.262745
0.000000 0.792157 0.258824
0.000000 0.788235 0.262745
0.000000 0.784314 0.250980
0.239216 0.780392 0.258824
0.341176 0.776471 0.254902
0.458824 0.772549 0.247059
0.525490 0.764706 0.250980
0.611765 0.756863 0.254902
0.686275 0.749020 0.258824
0.737255 0.741176 0.243137
0.807843 0.729412 0.247059
0.874510 0.717647 0.239216
0.945098 0.709804 0.247059
1.000000 0.694118 0.262745
1.000000 0.678431 0.243137
1.000000 0.662745 0.243137
1.000000 0.643137 0.247059
1.000000 0.631373 0.254902
1.000000 0.603922 0.254902
1.000000 0.580392 0.258824
1.000000 0.560784 0.247059
1.000000 0.525490 0.247059
1.000000 0.494118 0.254902
1.000000 0.454902 0.262745
1.000000 0.419608 0.250980
1.000000 0.368627 0.250980
0.000000 0.835294 0.250980
0.000000 0.835294 0.250980
0.000000 0.835294 0.250980
0.000000 0.835294 0.254902
0.000000 0.835294 0.254902
0.000000 0.835294 0.258824
0.000000 0.827451 0.250980
0.000000 0.831373 0.258824
0.000000 0.827451 0.262745
0.000000 0.827451 0.247059
0.011765 0.823529 0.254902
0.247059 0.819608 0.250980
0.388235 0.811765 0.258824
0.478431 0.807843 0.258824
0.552941 0.800000 0.247059
0.635294 0.796078 0.247059
0.709804 0.784314 0.258824
0.776471 0.776471 0.247059
0.847059 0.764706 0.250980
0.901961 0.756863 0.243137
0.968627 0.741176 0.247059
1.000000 0.729412 0.243137
1.000000 0.713726 0.247059
1.000000 0.701961 0.250980
1.000000 0.686275 0.250980
1.000000 0.666667 0.254902
1.000000 0.643137 0.243137
1.000000 0.623529 0.235294
1.000000 0.603922 0.243137
1.000000 0.568627 0.254902
1.000000 0.541176 0.250980
1.000000 0.513726 0.239216
1.000000 0.478431 0.250980
0.000000 0.874510 0.247059
0.000000 0.870588 0.247059
0.000000 0.870588 0.247059
0.000000 0.874510 0.250980
0.000000 0.870588 0.254902
0.000000 0.874510 0.258824
0.000000 0.866667 0.250980
0.000000 0.866667 0.254902
0.000000 0.866667 0.258824
0.000000 0.858824 0.250980
0.000000 0.858824 0.258824
0.164706 0.850980 0.243137
0.305882 0.854902 0.254902
0.411765 0.847059 0.250980
0.517647 0.839216 0.239216
0.592157 0.835294 0.250980
0.670588 0.823529 0.247059
0.749020 0.815686 0.239216
0.803922 0.811765 0.239216
0.874510 0.803922 0.231373
0.941176 0.792157 0.247059
0.996078 0.780392 0.239216
1.000000 0.764706 0.254902
1.000000 0.752941 0.235294
1.000000 0.741176 0.231373
1.000000 0.721569 0.235294
1.000000 0.709804 0.231373
1.000000 0.682353 0.239216
1.000000 0.670588 0.247059
1.000000 0.635294 0.243137
1.000000 0.611765 0.227451
1.000000 0.584314 0.239216
1.000000 0.564706 0.235294
0.000000 0.909804 0.254902
0.000000 0.909804 0.254902
0.000000 0.913725 0.258824
0.000000 0.909804 0.262745
0.000000 0.905882 0.262745
0.000000 0.905882 0.239216
0.000000 0.905882 0.247059
0.000000 0.905882 0.250980
0.000000 0.901961 0.243137
0.000000 0.898039 0.250980
0.000000 0.898039 0.254902
0.000000 0.894118 0.239216
0.192157 0.890196 0.247059
0.356863 0.882353 0.243137
0.458824 0.882353 0.254902
0.541176 0.878431 0.239216
0.635294 0.870588 0.243137
0.690196 0.862745 0.227451
0.768627 0.854902 0.231373
0.843137 0.847059 0.243137
0.901961 0.839216 0.247059
0.964706 0.823529 0.235294
1.000000 0.815686 0.243137
1.000000 0.807843 0.231373
1.000000 0.792157 0.235294
1.000000 0.772549 0.231373
1.000000 0.760784 0.239216
1.000000 0.737255 0.243137
1.000000 0.721569 0.235294
1.000000 0.705882 0.243137
1.000000 0.682353 0.243137
1.000000 0.654902 0.223529
1.000000 0.635294 0.231373
0.000000 0.945098 0.254902
0.000000 0.945098 0.254902
0.000000 0.945098 0.254902
0.000000 0.949020 0.235294
0.000000 0.945098 0.258824
0.000000 0.941176 0.235294
0.000000 0.945098 0.243137
0.000000 0.941176 0.243137
0.000000 0.941176 0.239216
0.000000 0.941176 0.243137
0.000000 0.937255 0.250980
0.000000 0.929412 0.231373
0.000000 0.929412 0.243137
0.270588 0.925490 0.239216
0.380392 0.921569 0.247059
0.478431 0.917647 0.231373
0.584314 0.909804 0.231373
0.650980 0.905882 0.239216
0.729412 0.898039 0.243137
0.788235 0.890196 0.227451
0.866667 0.882353 0.231373
0.937255 0.870588 0.219608
0.992157 0.862745 0.235294
1.000000 0.850980 0.239216
1.000000 0.839216 0.231373
1.000000 0.827451 0.231373
1.000000 0.811765 0.243137
1.000000 0.800000 0.235294
1.000000 0.780392 0.239216
1.000000 0.764706 0.223529
1.000000 0.745098 0.215686
1.000000 0.721569 0.227451
1.000000 0.701961 0.215686
0.000000 0.980392 0.227451
0.000000 0.980392 0.227451
0.000000 0.980392 0.250980
0.000000 0.984314 0.231373
0.000000 0.984314 0.231373
0.000000 0.980392 0.231373
0.000000 0.980392 0.239216
0.000000 0.980392 0.239216
0.000000 0.980392 0.235294
0.000000 0.972549 0.235294
0.000000 0.972549 0.243137
0.000000 0.972549 0.223529
0.000000 0.968627 0.231373
0.000000 0.964706 0.227451
0.325490 0.956863 0.235294
0.403922 0.960784 0.235294
0.525490 0.952941 0.219608
0.603922 0.945098 0.227451
0.694118 0.941176 0.231373
0.749020 0.933333 0.239216
0.831373 0.925490 0.227451
0.890196 0.921569 0.231373
0.964706 0.909804 0.219608
1.000000 0.898039 0.223529
1.000000 0.890196 0.227451
1.000000 0.878431 0.215686
1.000000 0.866667 0.219608
1.000000 0.847059 0.211765
1.000000 0.839216 0.215686
1.000000 0.815686 0.207843
1.000000 0.803922 0.215686
1.000000 0.776471 0.211765
1.000000 0.764706 0.219608
0.000000 1.000000 0.223529
0.000000 1.000000 0.223529
0.000000 1.000000 0.223529
0.000000 1.000000 0.223529
0.000000 1.000000 0.227451
0.000000 1.000000 0.227451
0.000000 1.000000 0.227451
0.000000 1.000000 0.235294
0.000000 1.000000 0.223529
0.000000 1.000000 0.231373
0.000000 1.000000 0.235294
0.000000 1.000000 0.231373
0.000000 1.000000 0.231373
0.000000 1.000000 0.215686
0.160784 0.996078 0.223529
0.333333 0.996078 0.223529
0.447059 0.992157 0.231373
0.545098 0.988235 0.215686
0.647059 0.980392 0.215686
0.705882 0.976471 0.223529
0.792157 0.968627 0.215686
0.850980 0.960784 0.211765
0.929412 0.949020 0.215686
1.000000 0.941176 0.203922
1.000000 0.933333 0.219608
1.000000 0.921569 0.223529
1.000000 0.913725 0.211765
1.000000 0.898039 0.215686
1.000000 0.886275 0.203922
1.000000 0.866667 0.211765
1.000000 0.858824 0.203922
1.000000 0.843137 0.211765
1.000000 0.807843 0.207843
0.000000 1.000000 0.231373
0.000000 1.000000 0.231373
0.000000 1.000000 0.231373
0.000000 1.000000 0.231373
0.000000 1.000000 0.231373
0.000000 1.000000 0.235294
0.000000 1.000000 0.235294
0.000000 1.000000 0.215686
0.000000 1.000000 0.215686
0.000000 1.000000 0.223529
0.000000 1.000000 0.227451
0.000000 1.000000 0.219608
0.000000 1.000000 0.227451
0.000000 1.000000 0.203922
0.000000 1.000000 0.215686
0.164706 1.000000 0.207843
0.352941 1.000000 0.219608
0.498039 1.000000 0.200000
0.588235 1.000000 0.215686
0.654902 1.000000 0.207843
0.749020 1.000000 0.211765
0.811765 1.000000 0.223529
0.894118 0.996078 0.211765
0.956863 0.988235 0.211765
1.000000 0.976471 0.196078
1.000000 0.968627 0.196078
1.000000 0.956863 0.184314
1.000000 0.949020 0.188235
1.000000 0.933333 0.211765
1.000000 0.921569 0.196078
1.000000 0.894118 0.192157
1.000000 0.874510 0.184314
1.000000 0.843137 0.160784
0.000000 1.000000 0.227451
0.000000 1.000000 0.227451
0.000000 1.000000 0.227451
0.000000 1.000000 0.227451
0.000000 1.000000 0.227451
0.000000 1.000000 0.227451
0.000000 1.000000 0.231373
0.000000 1.000000 0.203922
0.000000 1.000000 0.207843
0.000000 1.000000 0.207843
0.000000 1.000000 0.215686
0.000000 1.000000 0.211765
0.000000 1.000000 0.211765
0.000000 1.000000 0.219608
0.000000 1.000000 0.200000
0.000000 1.000000 0.192157
0.250980 1.000000 0.203922
0.411765 1.000000 0.203922
0.517647 1.000000 0.211765
0.596078 1.000000 0.192157
0.698039 1.000000 0.192157
0.768627 1.000000 0.203922
0.854902 1.000000 0.192157
0.913725 1.000000 0.188235
0.992157 1.000000 0.207843
1.000000 1.000000 0.192157
1.000000 1.000000 0.196078
1.000000 0.988235 0.168627
1.000000 0.964706 0.160784
1.000000 0.949020 0.149020
1.000000 0.921569 0.117647
1.000000 0.901961 0.105882
1.000000 0.878431 0.058824
0.000000 1.000000 0.215686
0.000000 1.000000 0.215686
0.000000 1.000000 0.215686
0.000000 1.000000 0.223529
0.000000 1.000000 0.223529
0.000000 1.000000 0.223529
0.000000 1.000000 0.188235
0.000000 1.000000 0.196078
0.000000 1.000000 0.196078
0.000000 1.000000 0.200000
0.000000 1.000000 0.200000
0.000000 1.000000 0.196078
0.000000 1.000000 0.203922
0.000000 1.000000 0.196078
0.000000 1.000000 0.200000
0.000000 1.000000 0.207843
0.101961 1.000000 0.184314
0.278431 1.000000 0.200000
0.458824 1.000000 0.196078
0.556863 1.000000 0.207843
0.635294 1.000000 0.184314
0.717647 1.000000 0.184314
0.807843 1.000000 0.160784
0.874510 1.000000 0.184314
0.949020 1.000000 0.172549
0.996078 1.000000 0.137255
1.000000 1.000000 0.125490
1.000000 1.000000 0.137255
1.000000 0.988235 0.125490
1.000000 0.972549 0.082353
1.000000 0.952941 0.062745
1.000000 0.929412 0.000000
1.000000 0.905882 0.000000
0.000000 1.000000 0.207843
0.000000 1.000000 0.207843
0.000000 1.000000 0.207843
0.000000 1.000000 0.207843
0.000000 1.000000 0.207843
0.000000 1.000000 0.215686
0.000000 1.000000 0.200000
0.000000 1.000000 0.200000
0.000000 1.000000 0.203922
0.000000 1.000000 0.203922
0.000000 1.000000 0.211765
0.000000 1.000000 0.176471
0.000000 1.000000 0.184314
0.000000 1.000000 0.176471
0.000000 1.000000 0.188235
0.000000 1.000000 0.196078
0.000000 1.000000 0.168627
0.149020 1.000000 0.184314
0.349020 1.000000 0.176471
0.474510 1.000000 0.188235
0.576471 1.000000 0.152941
0.666667 1.000000 0.137255
0.737255 1.000000 0.145098
0.803922 1.000000 0.101961
0.882353 1.000000 0.086275
0.929412 1.000000 0.098039
0.996078 1.000000 0.078431
1.000000 1.000000 0.000000
1.000000 1.000000 0.000000
1.000000 0.992157 0.000000
1.000000 0.976471 0.000000
1.000000 0.952941 0.000000
1.000000 0.933333 0.000000
0.000000 1.000000 0.196078
0.000000 1.000000 0.196078
0.000000 1.000000 0.200000
0.000000 1.000000 0.200000
0.000000 1.000000 0.200000
0.000000 1.000000 0.200000
0.000000 1.000000 0.184314
0.000000 1.000000 0.192157
0.000000 1.000000 0.192157
0.000000 1.000000 0.196078
0.000000 1.000000 0.196078
0.000000 1.000000 0.164706
0.000000 1.000000 0.164706
0.000000 1.000000 0.176471
0.000000 1.000000 0.156863
0.000000 1.000000 0.160784
0.000000 1.000000 0.117647
0.000000 1.000000 0.125490
0.207843 1.000000 0.105882
0.364706 1.000000 0.113725
0.490196 1.000000 0.043137
0.580392 1.000000 0.062745
0.650980 1.000000 0.019608
0.725490 1.000000 0.000000
0.807843 1.000000 0.007843
0.866667 1.000000 0.000000
0.933333 1.000000 0.000000
0.984314 1.000000 0.000000
1.000000 1.000000 0.000000
