test_lut.cube
TITLE "Color Transfer LUT - 图像"
LUT_3D_SIZE 9
0.196078 0.235294 0.341176
0.396078 0.188235 0.329412
0.686275 0.000000 0.321569
0.886275 0.000000 0.286275
1.000000 0.000000 0.270588
1.000000 0.000000 0.266667
1.000000 0.000000 0.250980
1.000000 0.000000 0.235294
1.000000 0.000000 0.231373
0.000000 0.368627 0.313726
0.301961 0.349020 0.301961
0.596078 0.286275 0.290196
0.839216 0.141176 0.270588
1.000000 0.000000 0.266667
1.000000 0.000000 0.254902
1.000000 0.000000 0.250980
1.000000 0.000000 0.243137
1.000000 0.000000 0.223529
0.000000 0.529412 0.262745
0.000000 0.521569 0.270588
0.458824 0.494118 0.262745
0.729412 0.447059 0.258824
0.964706 0.360784 0.262745
1.000000 0.196078 0.262745
1.000000 0.000000 0.270588
1.000000 0.000000 0.266667
1.000000 0.000000 0.239216
0.000000 0.690196 0.254902
0.000000 0.682353 0.262745
0.227451 0.670588 0.258824
0.592157 0.639216 0.258824
0.850980 0.600000 0.254902
1.000000 0.529412 0.250980
1.000000 0.419608 0.254902
1.000000 0.176471 0.266667
1.000000 0.000000 0.254902
0.000000 0.835294 0.250980
0.000000 0.835294 0.254902
0.000000 0.827451 0.262745
0.388235 0.811765 0.258824
0.709804 0.784314 0.258824
0.968627 0.741176 0.247059
1.000000 0.686275 0.250980
1.000000 0.603922 0.243137
1.000000 0.478431 0.250980
0.000000 0.980392 0.227451
0.000000 0.984314 0.231373
0.000000 0.980392 0.235294
0.000000 0.968627 0.231373
0.525490 0.952941 0.219608
0.831373 0.925490 0.227451
1.000000 0.890196 0.227451
1.000000 0.839216 0.215686
1.000000 0.764706 0.219608
0.000000 1.000000 0.215686
0.000000 1.000000 0.223529
0.000000 1.000000 0.196078
0.000000 1.000000 0.203922
0.101961 1.000000 0.184314
0.635294 1.000000 0.184314
0.949020 1.000000 0.172549
1.000000 0.988235 0.125490
1.000000 0.905882 0.000000
0.000000 1.000000 0.094118
0.000000 1.000000 0.094118
0.000000 1.000000 0.050980
0.000000 1.000000 0.000000
0.000000 1.000000 0.000000
0.121569 1.000000 0.000000
0.643137 1.000000 0.000000
0.921569 1.000000 0.000000
1.000000 1.000000 0.000000
0.000000 1.000000 0.000000
0.000000 1.000000 0.000000
0.000000 1.000000 0.000000
0.000000 1.000000 0.000000
0.000000 1.000000 0.000000
0.000000 1.000000 0.000000
0.000000 1.000000 0.000000
0.615686 1.000000 0.000000
0.886275 1.000000 0.000000
0.164706 0.219608 0.490196
0.403922 0.156863 0.490196
0.678431 0.000000 0.466667
0.878431 0.000000 0.443137
1.000000 0.000000 0.415686
1.000000 0.000000 0.396078
1.000000 0.000000 0.376471
1.000000 0.000000 0.349020
1.000000 0.000000 0.333333
0.000000 0.364706 0.474510
0.301961 0.341176 0.454902
0.592157 0.282353 0.443137
0.831373 0.141176 0.419608
1.000000 0.000000 0.403922
1.000000 0.000000 0.392157
1.000000 0.000000 0.372549
1.000000 0.000000 0.352941
1.000000 0.000000 0.345098
0.000000 0.529412 0.419608
0.000000 0.521569 0.419608
0.443137 0.494118 0.411765
0.725490 0.447059 0.403922
0.960784 0.352941 0.396078
1.000000 0.172549 0.376471
1.000000 0.000000 0.372549
1.000000 0.000000 0.360784
1.000000 0.000000 0.345098
0.000000 0.682353 0.396078
0.000000 0.682353 0.392157
0.239216 0.662745 0.384314
0.584314 0.643137 0.388235
0.847059 0.596078 0.372549
1.000000 0.525490 0.372549
1.000000 0.407843 0.360784
1.000000 0.184314 0.356863
1.000000 0.000000 0.337255
0.000000 0.835294 0.364706
0.000000 0.835294 0.368627
0.000000 0.823529 0.360784
0.384314 0.807843 0.368627
0.713726 0.784314 0.352941
0.976471 0.745098 0.345098
1.000000 0.686275 0.345098
1.000000 0.596078 0.341176
1.000000 0.462745 0.329412
0.000000 0.980392 0.333333
0.000000 0.980392 0.329412
0.000000 0.980392 0.341176
0.000000 0.968627 0.329412
0.525490 0.949020 0.321569
0.835294 0.921569 0.309804
1.000000 0.886275 0.317647
1.000000 0.827451 0.313726
1.000000 0.764706 0.301961
0.000000 1.000000 0.305882
0.000000 1.000000 0.313726
0.000000 1.000000 0.305882
0.000000 1.000000 0.301961
0.000000 1.000000 0.294118
0.658824 1.000000 0.282353
0.937255 1.000000 0.278431
1.000000 0.988235 0.219608
1.000000 0.901961 0.172549
0.000000 1.000000 0.227451
0.000000 1.000000 0.227451
0.000000 1.000000 0.211765
0.000000 1.000000 0.172549
0.000000 1.000000 0.156863
0.000000 1.000000 0.098039
0.654902 1.000000 0.000000
0.917647 1.000000 0.000000
1.000000 1.000000 0.000000
0.000000 1.000000 0.000000
0.000000 1.000000 0.000000
0.000000 1.000000 0.000000
0.000000 1.000000 0.000000
0.000000 1.000000 0.000000
0.000000 1.000000 0.000000
0.082353 1.000000 0.000000
0.631373 1.000000 0.000000
0.898039 1.000000 0.000000
0.282353 0.117647 0.713726
0.474510 0.000000 0.705882
0.686275 0.000000 0.670588
0.890196 0.000000 0.647059
1.000000 0.000000 0.611765
1.000000 0.000000 0.584314
1.000000 0.000000 0.564706
1.000000 0.000000 0.529412
1.000000 0.000000 0.509804
0.000000 0.333333 0.678431
0.345098 0.305882 0.674510
0.592157 0.254902 0.654902
0.835294 0.047059 0.627451
1.000000 0.000000 0.600000
1.000000 0.000000 0.576471
1.000000 0.000000 0.560784
1.000000 0.000000 0.537255
1.000000 0.000000 0.509804
0.000000 0.525490 0.627451
0.000000 0.513726 0.619608
0.450980 0.486275 0.607843
0.725490 0.427451 0.596078
0.956863 0.349020 0.580392
1.000000 0.133333 0.556863
1.000000 0.000000 0.545098
1.000000 0.000000 0.525490
1.000000 0.000000 0.509804
0.000000 0.678431 0.572549
0.000000 0.678431 0.572549
0.207843 0.662745 0.568627
0.592157 0.631373 0.560784
0.850980 0.588235 0.549020
1.000000 0.509804 0.541176
1.000000 0.400000 0.517647
1.000000 0.164706 0.509804
1.000000 0.000000 0.494118
0.000000 0.831373 0.541176
0.000000 0.827451 0.529412
0.000000 0.823529 0.529412
0.380392 0.803922 0.529412
0.701961 0.780392 0.513726
0.980392 0.733333 0.505882
1.000000 0.674510 0.501961
1.000000 0.588235 0.482353
1.000000 0.466667 0.478431
0.000000 0.980392 0.498039
0.000000 0.984314 0.501961
0.000000 0.976471 0.494118
0.000000 0.964706 0.486275
0.537255 0.949020 0.478431
0.835294 0.921569 0.478431
1.000000 0.882353 0.466667
1.000000 0.827451 0.466667
1.000000 0.756863 0.454902
0.000000 1.000000 0.454902
0.000000 1.000000 0.454902
0.000000 1.000000 0.450980
0.000000 1.000000 0.454902
0.000000 1.000000 0.450980
0.643137 1.000000 0.450980
0.937255 1.000000 0.419608
1.000000 0.984314 0.396078
1.000000 0.898039 0.352941
0.000000 1.000000 0.392157
0.000000 1.000000 0.380392
0.000000 1.000000 0.380392
0.000000 1.000000 0.356863
0.000000 1.000000 0.325490
0.192157 1.000000 0.301961
0.650980 1.000000 0.286275
0.917647 1.000000 0.235294
1.000000 1.000000 0.164706
0.000000 1.000000 0.211765
0.000000 1.000000 0.211765
0.000000 1.000000 0.172549
0.000000 1.000000 0.149020
0.000000 1.000000 0.094118
0.000000 1.000000 0.000000
0.094118 1.000000 0.000000
0.635294 1.000000 0.000000
0.905882 1.000000 0.000000
0.450980 0.000000 0.905882
0.541176 0.000000 0.898039
0.713726 0.000000 0.874510
0.901961 0.000000 0.854902
1.000000 0.000000 0.823529
1.000000 0.000000 0.788235
1.000000 0.000000 0.752941
1.000000 0.000000 0.729412
1.000000 0.000000 0.690196
0.278431 0.278431 0.874510
0.407843 0.262745 0.866667
0.639216 0.176471 0.847059
0.843137 0.000000 0.827451
1.000000 0.000000 0.803922
1.000000 0.000000 0.780392
1.000000 0.000000 0.749020
1.000000 0.000000 0.721569
1.000000 0.000000 0.698039
0.000000 0.501961 0.823529
0.000000 0.494118 0.823529
0.458824 0.462745 0.811765
0.741176 0.403922 0.792157
0.976471 0.298039 0.772549
1.000000 0.000000 0.749020
1.000000 0.000000 0.737255
1.000000 0.000000 0.709804
1.000000 0.000000 0.678431
0.000000 0.674510 0.772549
0.000000 0.666667 0.768627
0.203922 0.654902 0.768627
0.588235 0.623529 0.752941
0.854902 0.576471 0.741176
1.000000 0.501961 0.733333
1.000000 0.368627 0.705882
1.000000 0.039216 0.698039
1.000000 0.000000 0.674510
0.000000 0.827451 0.725490
0.000000 0.823529 0.721569
0.000000 0.815686 0.725490
0.388235 0.800000 0.713726
0.713726 0.776471 0.698039
0.980392 0.729412 0.698039
1.000000 0.670588 0.678431
1.000000 0.576471 0.674510
1.000000 0.435294 0.654902
0.000000 0.980392 0.682353
0.000000 0.976471 0.686275
0.000000 0.972549 0.678431
0.000000 0.960784 0.670588
0.517647 0.945098 0.666667
0.831373 0.917647 0.666667
1.000000 0.874510 0.647059
1.000000 0.823529 0.647059
1.000000 0.745098 0.623529
0.000000 1.000000 0.643137
0.000000 1.000000 0.643137
0.000000 1.000000 0.647059
0.000000 1.000000 0.631373
0.000000 1.000000 0.627451
0.662745 1.000000 0.619608
0.952941 1.000000 0.600000
1.000000 0.976471 0.556863
1.000000 0.894118 0.525490
0.000000 1.000000 0.568627
0.000000 1.000000 0.552941
0.000000 1.000000 0.552941
0.000000 1.000000 0.541176
0.000000 1.000000 0.521569
0.133333 1.000000 0.498039
0.662745 1.000000 0.466667
0.933333 1.000000 0.431373
1.000000 0.988235 0.396078
0.000000 1.000000 0.400000
0.000000 1.000000 0.400000
0.000000 1.000000 0.392157
0.000000 1.000000 0.392157
0.000000 1.000000 0.356863
0.000000 1.000000 0.325490
0.192157 1.000000 0.301961
0.654902 1.000000 0.258824
0.905882 1.000000 0.219608
0.545098 0.000000 1.000000
0.619608 0.000000 1.000000
0.752941 0.000000 1.000000
0.913725 0.000000 1.000000
1.000000 0.000000 1.000000
1.000000 0.000000 0.980392
1.000000 0.000000 0.949020
1.000000 0.000000 0.917647
1.000000 0.000000 0.882353
0.411765 0.184314 1.000000
0.501961 0.156863 1.000000
0.662745 0.019608 1.000000
0.882353 0.000000 1.000000
1.000000 0.000000 1.000000
1.000000 0.000000 0.968627
1.000000 0.000000 0.937255
1.000000 0.000000 0.917647
1.000000 0.000000 0.886275
0.000000 0.470588 1.000000
0.243137 0.458824 1.000000
0.537255 0.419608 1.000000
0.749020 0.372549 0.988235
0.988235 0.254902 0.972549
1.000000 0.000000 0.956863
1.000000 0.000000 0.925490
1.000000 0.000000 0.901961
1.000000 0.000000 0.870588
0.000000 0.654902 0.968627
0.000000 0.654902 0.972549
0.270588 0.635294 0.964706
0.619608 0.603922 0.949020
0.878431 0.552941 0.937255
1.000000 0.470588 0.917647
1.000000 0.341176 0.901961
1.000000 0.000000 0.882353
1.000000 0.000000 0.862745
0.000000 0.819608 0.913725
0.000000 0.815686 0.921569
0.000000 0.807843 0.913725
0.407843 0.788235 0.909804
0.725490 0.760784 0.894118
0.984314 0.713726 0.878431
1.000000 0.647059 0.870588
1.000000 0.556863 0.858824
1.000000 0.403922 0.839216
0.000000 0.976471 0.870588
0.000000 0.976471 0.874510
0.000000 0.964706 0.870588
0.000000 0.956863 0.870588
0.513726 0.937255 0.858824
0.854902 0.905882 0.843137
1.000000 0.866667 0.835294
1.000000 0.807843 0.827451
1.000000 0.733333 0.803922
0.000000 1.000000 0.827451
0.000000 1.000000 0.835294
0.000000 1.000000 0.831373
0.000000 1.000000 0.823529
0.113725 1.000000 0.815686
0.674510 1.000000 0.807843
0.945098 1.000000 0.784314
1.000000 0.964706 0.741176
1.000000 0.874510 0.694118
0.000000 1.000000 0.745098
0.000000 1.000000 0.733333
0.000000 1.000000 0.733333
0.000000 1.000000 0.713726
0.000000 1.000000 0.705882
0.227451 1.000000 0.670588
0.674510 1.000000 0.643137
0.925490 1.000000 0.615686
1.000000 0.984314 0.572549
0.000000 1.000000 0.596078
0.000000 1.000000 0.596078
0.000000 1.000000 0.576471
0.000000 1.000000 0.568627
0.000000 1.000000 0.552941
0.000000 1.000000 0.529412
0.090196 1.000000 0.513726
0.658824 1.000000 0.478431
0.913725 1.000000 0.447059
0.627451 0.000000 1.000000
0.666667 0.000000 1.000000
0.776471 0.000000 1.000000
0.890196 0.000000 1.000000
1.000000 0.000000 1.000000
1.000000 0.000000 1.000000
1.000000 0.000000 1.000000
1.000000 0.000000 1.000000
1.000000 0.000000 1.000000
0.541176 0.000000 1.000000
0.611765 0.000000 1.000000
0.741176 0.000000 1.000000
0.909804 0.000000 1.000000
1.000000 0.000000 1.000000
1.000000 0.000000 1.000000
1.000000 0.000000 1.000000
1.000000 0.000000 1.000000
1.000000 0.000000 1.000000
0.290196 0.411765 1.000000
0.403922 0.400000 1.000000
0.588235 0.372549 1.000000
0.803922 0.294118 1.000000
1.000000 0.133333 1.000000
1.000000 0.000000 1.000000
1.000000 0.000000 1.000000
1.000000 0.000000 1.000000
1.000000 0.000000 1.000000
0.000000 0.635294 1.000000
0.000000 0.623529 1.000000
0.376471 0.603922 1.000000
0.650980 0.568627 1.000000
0.890196 0.521569 1.000000
1.000000 0.431373 1.000000
1.000000 0.286275 1.000000
1.000000 0.000000 1.000000
1.000000 0.043137 1.000000
0.000000 0.807843 1.000000
0.000000 0.803922 1.000000
0.000000 0.796078 1.000000
0.431373 0.776471 1.000000
0.749020 0.741176 1.000000
1.000000 0.698039 1.000000
1.000000 0.631373 1.000000
1.000000 0.521569 1.000000
1.000000 0.349020 1.000000
0.000000 0.964706 1.000000
0.000000 0.964706 1.000000
0.000000 0.960784 1.000000
0.000000 0.949020 1.000000
0.552941 0.925490 1.000000
0.858824 0.894118 1.000000
1.000000 0.850980 1.000000
1.000000 0.792157 1.000000
1.000000 0.698039 0.992157
0.000000 1.000000 1.000000
0.000000 1.000000 1.000000
0.000000 1.000000 1.000000
0.000000 1.000000 1.000000
0.180392 1.000000 1.000000
0.686275 1.000000 0.996078
0.960784 1.000000 0.960784
1.000000 0.945098 0.925490
1.000000 0.854902 0.870588
0.000000 1.000000 0.917647
0.000000 1.000000 0.917647
0.000000 1.000000 0.909804
0.000000 1.000000 0.894118
0.000000 1.000000 0.874510
0.176471 1.000000 0.850980
0.678431 1.000000 0.823529
0.937255 1.000000 0.800000
1.000000 0.968627 0.756863
0.000000 1.000000 0.768627
0.000000 1.000000 0.768627
0.000000 1.000000 0.760784
0.000000 1.000000 0.745098
0.000000 1.000000 0.737255
0.000000 1.000000 0.713726
0.192157 1.000000 0.686275
0.690196 1.000000 0.650980
0.921569 1.000000 0.623529
0.694118 0.000000 1.000000
0.709804 0.000000 1.000000
0.741176 0.000000 1.000000
0.807843 0.000000 1.000000
0.941176 0.000000 1.000000
1.000000 0.000000 1.000000
1.000000 0.000000 1.000000
1.000000 0.000000 1.000000
1.000000 0.000000 1.000000
0.721569 0.000000 1.000000
0.752941 0.000000 1.000000
0.780392 0.000000 1.000000
0.874510 0.000000 1.000000
0.988235 0.000000 1.000000
1.000000 0.000000 1.000000
1.000000 0.000000 1.000000
1.000000 0.000000 1.000000
1.000000 0.000000 1.000000
0.466667 0.329412 1.000000
0.533333 0.321569 1.000000
0.662745 0.282353 1.000000
0.847059 0.164706 1.000000
1.000000 0.000000 1.000000
1.000000 0.000000 1.000000
1.000000 0.000000 1.000000
1.000000 0.000000 1.000000
1.000000 0.031373 1.000000
0.000000 0.592157 1.000000
0.172549 0.588235 1.000000
0.466667 0.568627 1.000000
0.690196 0.533333 1.000000
0.925490 0.470588 1.000000
1.000000 0.364706 1.000000
1.000000 0.149020 1.000000
1.000000 0.000000 1.000000
1.000000 0.192157 1.000000
0.000000 0.784314 1.000000
0.000000 0.780392 1.000000
0.000000 0.772549 1.000000
0.501961 0.745098 1.000000
0.788235 0.717647 1.000000
1.000000 0.662745 1.000000
1.000000 0.592157 1.000000
1.000000 0.470588 1.000000
1.000000 0.305882 1.000000
0.000000 0.952941 1.000000
0.000000 0.952941 1.000000
0.000000 0.941176 1.000000
0.000000 0.929412 1.000000
0.600000 0.905882 1.000000
0.898039 0.874510 1.000000
1.000000 0.839216 1.000000
1.000000 0.764706 1.000000
1.000000 0.666667 1.000000
0.000000 1.000000 1.000000
0.000000 1.000000 1.000000
0.000000 1.000000 1.000000
0.000000 1.000000 1.000000
0.239216 1.000000 1.000000
0.682353 1.000000 1.000000
0.960784 0.996078 1.000000
1.000000 0.925490 1.000000
1.000000 0.831373 1.000000
0.000000 1.000000 1.000000
0.000000 1.000000 1.000000
0.000000 1.000000 1.000000
0.000000 1.000000 1.000000
0.000000 1.000000 1.000000
0.207843 1.000000 1.000000
0.682353 1.000000 1.000000
0.960784 1.000000 0.960784
1.000000 0.949020 0.925490
0.000000 1.000000 0.941176
0.000000 1.000000 0.941176
0.000000 1.000000 0.941176
0.000000 1.000000 0.925490
0.000000 1.000000 0.909804
0.000000 1.000000 0.890196
0.223529 1.000000 0.866667
0.694118 1.000000 0.831373
0.937255 1.000000 0.800000
0.764706 0.000000 1.000000
0.776471 0.000000 1.000000
0.796078 0.000000 1.000000
0.839216 0.000000 1.000000
0.898039 0.000000 1.000000
0.996078 0.000000 1.000000
1.000000 0.000000 1.000000
1.000000 0.000000 1.000000
1.000000 0.152941 1.000000
0.796078 0.000000 1.000000
0.807843 0.000000 1.000000
0.827451 0.000000 1.000000
0.866667 0.000000 1.000000
0.921569 0.000000 1.000000
1.000000 0.000000 1.000000
1.000000 0.000000 1.000000
1.000000 0.000000 1.000000
1.000000 0.168627 1.000000
0.729412 0.098039 1.000000
0.760784 0.054902 1.000000
0.823529 0.000000 1.000000
0.929412 0.000000 1.000000
1.000000 0.000000 1.000000
1.000000 0.000000 1.000000
1.000000 0.000000 1.000000
1.000000 0.090196 1.000000
1.000000 0.219608 1.000000
0.352941 0.533333 1.000000
0.403922 0.529412 1.000000
0.584314 0.505882 1.000000
0.784314 0.462745 1.000000
0.984314 0.392157 1.000000
1.000000 0.270588 1.000000
1.000000 0.090196 1.000000
1.000000 0.203922 1.000000
1.000000 0.282353 1.000000
0.000000 0.756863 1.000000
0.000000 0.756863 1.000000
0.239216 0.737255 1.000000
0.580392 0.713726 1.000000
0.831373 0.682353 1.000000
1.000000 0.631373 1.000000
1.000000 0.537255 1.000000
1.000000 0.411765 1.000000
1.000000 0.360784 1.000000
0.000000 0.937255 1.000000
0.000000 0.929412 1.000000
0.000000 0.925490 1.000000
0.098039 0.913725 1.000000
0.654902 0.882353 1.000000
0.925490 0.854902 1.000000
1.000000 0.803922 1.000000
1.000000 0.741176 1.000000
1.000000 0.627451 1.000000
0.000000 1.000000 1.000000
0.000000 1.000000 1.000000
0.000000 1.000000 1.000000
0.000000 1.000000 1.000000
0.337255 1.000000 1.000000
0.733333 1.000000 1.000000
0.972549 0.968627 1.000000
1.000000 0.894118 1.000000
1.000000 0.796078 1.000000
0.000000 1.000000 1.000000
0.000000 1.000000 1.000000
0.000000 1.000000 1.000000
0.000000 1.000000 1.000000
0.000000 1.000000 1.000000
0.262745 1.000000 1.000000
0.705882 1.000000 1.000000
0.960784 0.996078 1.000000
1.000000 0.925490 1.000000
0.000000 1.000000 1.000000
0.000000 1.000000 1.000000
0.000000 1.000000 1.000000
0.000000 1.000000 1.000000
0.000000 1.000000 1.000000
0.000000 1.000000 1.000000
0.309804 1.000000 1.000000
0.705882 1.000000 1.000000
0.952941 1.000000 0.976471
0.823529 0.000000 1.000000
0.835294 0.000000 1.000000
0.854902 0.000000 1.000000
0.894118 0.000000 1.000000
0.941176 0.000000 1.000000
1.000000 0.000000 1.000000
1.000000 0.074510 1.000000
1.000000 0.192157 1.000000
1.000000 0.270588 1.000000
0.854902 0.000000 1.000000
0.862745 0.000000 1.000000
0.882353 0.000000 1.000000
0.913725 0.000000 1.000000
0.960784 0.000000 1.000000
1.000000 0.000000 1.000000
1.000000 0.125490 1.000000
1.000000 0.207843 1.000000
1.000000 0.278431 1.000000
0.921569 0.000000 1.000000
0.925490 0.000000 1.000000
0.941176 0.000000 1.000000
0.972549 0.000000 1.000000
1.000000 0.000000 1.000000
1.000000 0.074510 1.000000
1.000000 0.188235 1.000000
1.000000 0.247059 1.000000
1.000000 0.313726 1.000000
0.690196 0.443137 1.000000
0.729412 0.427451 1.000000
0.784314 0.407843 1.000000
0.901961 0.360784 1.000000
1.000000 0.278431 1.000000
1.000000 0.192157 1.000000
1.000000 0.247059 1.000000
1.000000 0.305882 1.000000
1.000000 0.360784 1.000000
0.000000 0.717647 1.000000
0.113725 0.709804 1.000000
0.407843 0.698039 1.000000
0.635294 0.678431 1.000000
0.870588 0.635294 1.000000
1.000000 0.568627 1.000000
1.000000 0.478431 1.000000
1.000000 0.376471 1.000000
1.000000 0.427451 1.000000
0.000000 0.913725 1.000000
0.000000 0.905882 1.000000
0.000000 0.901961 1.000000
0.305882 0.890196 1.000000
0.705882 0.858824 1.000000
0.941176 0.827451 1.000000
1.000000 0.776471 1.000000
1.000000 0.705882 1.000000
1.000000 0.545098 1.000000
0.000000 1.000000 1.000000
0.000000 1.000000 1.000000
0.000000 1.000000 1.000000
0.000000 1.000000 1.000000
0.388235 1.000000 1.000000
0.752941 0.988235 1.000000
0.980392 0.937255 1.000000
1.000000 0.858824 1.000000
1.000000 0.760784 1.000000
0.000000 1.000000 1.000000
0.000000 1.000000 1.000000
0.000000 1.000000 1.000000
0.000000 1.000000 1.000000
0.000000 1.000000 1.000000
0.337255 1.000000 1.000000
0.709804 1.000000 1.000000
0.976471 0.968627 1.000000
1.000000 0.901961 1.000000
0.000000 1.000000 1.000000
0.000000 1.000000 1.000000
0.000000 1.000000 1.000000
0.000000 1.000000 1.000000
0.000000 1.000000 1.000000
0.000000 1.000000 1.000000
0.286275 1.000000 1.000000
0.713726 1.000000 1.000000
0.960784 0.996078 1.000000
