test_output_lut/#風景 スタンド・バイ・ユー - Ag+のイラスト - pixiv_ct.cube
TITLE "Color Transfer LUT - #風景 スタンド・バイ・ユー - Ag+のイラスト - pixiv"
LUT_3D_SIZE 5
0.000000 0.003922 0.000000
0.239216 0.007843 0.019608
0.486275 0.043137 0.015686
0.725490 0.090196 0.023529
0.980392 0.121569 0.043137
0.019608 0.243137 0.011765
0.243137 0.247059 0.019608
0.486275 0.254902 0.023529
0.733333 0.262745 0.043137
0.980392 0.274510 0.039216
0.078431 0.494118 0.031373
0.258824 0.498039 0.047059
0.494118 0.498039 0.062745
0.745098 0.501961 0.070588
0.984314 0.513726 0.070588
0.141176 0.745098 0.086275
0.278431 0.745098 0.086275
0.505882 0.745098 0.086275
0.745098 0.749020 0.090196
0.992157 0.752941 0.117647
0.164706 0.996078 0.141176
0.290196 0.996078 0.133333
0.525490 0.996078 0.133333
0.760784 1.000000 0.149020
0.996078 1.000000 0.133333
0.000000 0.003922 0.239216
0.239216 0.015686 0.247059
0.486275 0.039216 0.243137
0.729412 0.090196 0.254902
0.980392 0.121569 0.262745
0.000000 0.247059 0.247059
0.239216 0.250980 0.247059
0.486275 0.254902 0.250980
0.729412 0.262745 0.254902
0.980392 0.278431 0.262745
0.074510 0.494118 0.254902
0.258824 0.498039 0.258824
0.490196 0.498039 0.254902
0.745098 0.501961 0.262745
0.976471 0.509804 0.266667
0.125490 0.745098 0.270588
0.274510 0.749020 0.270588
0.501961 0.749020 0.274510
0.741176 0.749020 0.270588
0.992157 0.749020 0.282353
0.156863 0.996078 0.286275
0.294118 1.000000 0.286275
0.529412 0.996078 0.286275
0.760784 0.996078 0.294118
0.996078 1.000000 0.301961
0.000000 0.023529 0.486275
0.239216 0.027451 0.486275
0.486275 0.039216 0.490196
0.729412 0.098039 0.501961
0.972549 0.145098 0.501961
0.000000 0.250980 0.494118
0.250980 0.247059 0.490196
0.490196 0.258824 0.490196
0.733333 0.262745 0.498039
0.976471 0.282353 0.501961
0.050980 0.498039 0.494118
0.254902 0.498039 0.498039
0.494118 0.501961 0.498039
0.733333 0.501961 0.505882
0.988235 0.509804 0.505882
0.125490 0.745098 0.505882
0.266667 0.749020 0.509804
0.505882 0.745098 0.505882
0.745098 0.749020 0.517647
0.992157 0.752941 0.513726
0.168627 1.000000 0.517647
0.298039 0.996078 0.513726
0.517647 0.996078 0.517647
0.749020 1.000000 0.529412
0.988235 1.000000 0.525490
0.000000 0.039216 0.729412
0.239216 0.050980 0.729412
0.482353 0.074510 0.733333
0.733333 0.098039 0.737255
0.976471 0.149020 0.745098
0.007843 0.250980 0.737255
0.243137 0.254902 0.737255
0.486275 0.254902 0.737255
0.729412 0.274510 0.745098
0.980392 0.278431 0.745098
0.062745 0.498039 0.745098
0.231373 0.498039 0.745098
0.498039 0.501961 0.741176
0.737255 0.501961 0.737255
0.984314 0.509804 0.752941
0.082353 0.749020 0.745098
0.270588 0.749020 0.749020
0.498039 0.749020 0.752941
0.741176 0.749020 0.749020
0.984314 0.756863 0.756863
0.125490 0.996078 0.752941
0.286275 1.000000 0.760784
0.521569 1.000000 0.756863
0.752941 1.000000 0.760784
0.996078 1.000000 0.764706
0.023529 0.058824 0.972549
0.254902 0.062745 0.972549
0.474510 0.101961 0.980392
0.733333 0.105882 0.976471
0.976471 0.152941 0.988235
0.023529 0.258824 0.976471
0.254902 0.254902 0.972549
0.486275 0.262745 0.976471
0.737255 0.274510 0.992157
0.976471 0.294118 0.988235
0.082353 0.501961 0.984314
0.235294 0.505882 0.992157
0.490196 0.501961 0.984314
0.741176 0.509804 0.988235
0.976471 0.517647 0.992157
0.007843 0.749020 0.996078
0.274510 0.749020 0.992157
0.509804 0.749020 0.996078
0.745098 0.752941 0.992157
0.988235 0.756863 1.000000
0.188235 1.000000 1.000000
0.313726 1.000000 1.000000
0.521569 1.000000 1.000000
0.749020 1.000000 1.000000
0.992157 1.000000 1.000000
