test_output_lut/#風景 スタンド・バイ・ユー - Ag+のイラスト - pixiv_ct.cube
TITLE "Color Transfer LUT - #風景 スタンド・バイ・ユー - Ag+のイラスト - pixiv"
LUT_3D_SIZE 9
0.000000 0.003922 0.000000
0.113725 0.007843 0.003922
0.239216 0.007843 0.019608
0.360784 0.027451 0.019608
0.486275 0.043137 0.015686
0.607843 0.058824 0.023529
0.725490 0.090196 0.023529
0.854902 0.109804 0.027451
0.980392 0.121569 0.043137
0.007843 0.121569 0.007843
0.117647 0.121569 0.011765
0.243137 0.125490 0.011765
0.364706 0.129412 0.015686
0.490196 0.133333 0.023529
0.603922 0.145098 0.011765
0.733333 0.149020 0.023529
0.854902 0.164706 0.039216
0.984314 0.180392 0.039216
0.019608 0.243137 0.011765
0.121569 0.247059 0.019608
0.243137 0.247059 0.019608
0.368627 0.250980 0.019608
0.486275 0.254902 0.023529
0.611765 0.258824 0.023529
0.733333 0.262745 0.043137
0.858824 0.266667 0.050980
0.980392 0.274510 0.039216
0.019608 0.372549 0.019608
0.121569 0.372549 0.023529
0.247059 0.372549 0.023529
0.372549 0.372549 0.023529
0.490196 0.376471 0.023529
0.607843 0.376471 0.035294
0.737255 0.380392 0.043137
0.862745 0.384314 0.058824
0.984314 0.388235 0.050980
0.078431 0.494118 0.031373
0.145098 0.498039 0.039216
0.258824 0.498039 0.047059
0.376471 0.498039 0.062745
0.494118 0.498039 0.062745
0.615686 0.501961 0.058824
0.745098 0.501961 0.070588
0.858824 0.505882 0.062745
0.984314 0.513726 0.070588
0.058824 0.623529 0.058824
0.156863 0.623529 0.070588
0.262745 0.623529 0.070588
0.372549 0.623529 0.078431
0.505882 0.623529 0.066667
0.623529 0.623529 0.082353
0.741176 0.627451 0.078431
0.862745 0.627451 0.074510
0.988235 0.631373 0.105882
0.141176 0.745098 0.086275
0.196078 0.745098 0.094118
0.278431 0.745098 0.086275
0.392157 0.749020 0.094118
0.505882 0.745098 0.086275
0.627451 0.745098 0.090196
0.745098 0.749020 0.090196
0.874510 0.749020 0.121569
0.992157 0.752941 0.117647
0.141176 0.870588 0.101961
0.207843 0.870588 0.113725
0.301961 0.870588 0.101961
0.396078 0.870588 0.121569
0.513726 0.870588 0.133333
0.635294 0.870588 0.129412
0.749020 0.874510 0.117647
0.874510 0.874510 0.137255
0.996078 0.874510 0.121569
0.164706 0.996078 0.141176
0.200000 0.996078 0.145098
0.290196 0.996078 0.133333
0.407843 0.996078 0.133333
0.525490 0.996078 0.133333
0.639216 1.000000 0.149020
0.760784 1.000000 0.149020
0.874510 1.000000 0.137255
0.996078 1.000000 0.133333
0.000000 0.003922 0.117647
0.113725 0.007843 0.117647
0.239216 0.019608 0.121569
0.356863 0.031373 0.129412
0.486275 0.039216 0.121569
0.611765 0.058824 0.133333
0.733333 0.090196 0.133333
0.854902 0.098039 0.129412
0.976471 0.121569 0.141176
0.000000 0.121569 0.125490
0.117647 0.125490 0.121569
0.243137 0.129412 0.129412
0.360784 0.129412 0.125490
0.482353 0.137255 0.125490
0.607843 0.145098 0.133333
0.733333 0.156863 0.129412
0.854902 0.168627 0.129412
0.980392 0.184314 0.149020
0.019608 0.243137 0.125490
0.117647 0.247059 0.129412
0.243137 0.247059 0.125490
0.364706 0.250980 0.129412
0.482353 0.250980 0.137255
0.611765 0.254902 0.133333
0.733333 0.258824 0.133333
0.854902 0.266667 0.145098
0.976471 0.278431 0.149020
0.015686 0.372549 0.137255
0.121569 0.372549 0.137255
0.247059 0.368627 0.133333
0.372549 0.372549 0.141176
0.490196 0.376471 0.133333
0.611765 0.380392 0.141176
0.737255 0.376471 0.137255
0.858824 0.384314 0.149020
0.980392 0.388235 0.145098
0.043137 0.494118 0.141176
0.156863 0.498039 0.141176
0.254902 0.498039 0.141176
0.376471 0.494118 0.145098
0.498039 0.501961 0.141176
0.619608 0.501961 0.152941
0.741176 0.501961 0.156863
0.858824 0.501961 0.156863
0.984314 0.509804 0.156863
0.078431 0.619608 0.156863
0.149020 0.619608 0.152941
0.258824 0.623529 0.164706
0.372549 0.623529 0.156863
0.505882 0.623529 0.152941
0.623529 0.623529 0.152941
0.745098 0.627451 0.164706
0.866667 0.627451 0.164706
0.984314 0.631373 0.160784
0.137255 0.745098 0.164706
0.196078 0.745098 0.168627
0.262745 0.745098 0.164706
0.384314 0.749020 0.168627
0.501961 0.749020 0.168627
0.631373 0.749020 0.164706
0.745098 0.752941 0.176471
0.874510 0.749020 0.168627
0.992157 0.752941 0.180392
0.152941 0.874510 0.176471
0.211765 0.870588 0.180392
0.286275 0.870588 0.172549
0.388235 0.870588 0.172549
0.509804 0.870588 0.180392
0.631373 0.870588 0.180392
0.752941 0.870588 0.188235
0.870588 0.874510 0.184314
0.996078 0.874510 0.192157
0.137255 0.996078 0.196078
0.211765 0.996078 0.196078
0.298039 0.996078 0.188235
0.411765 0.996078 0.203922
0.529412 0.992157 0.188235
0.635294 1.000000 0.200000
0.764706 0.996078 0.203922
0.878431 1.000000 0.192157
0.996078 1.000000 0.207843
0.000000 0.003922 0.239216
0.113725 0.007843 0.243137
0.239216 0.015686 0.247059
0.356863 0.035294 0.247059
0.486275 0.039216 0.243137
0.607843 0.062745 0.250980
0.729412 0.090196 0.254902
0.854902 0.098039 0.258824
0.980392 0.121569 0.262745
0.000000 0.121569 0.243137
0.117647 0.121569 0.250980
0.235294 0.129412 0.250980
0.364706 0.129412 0.243137
0.482353 0.141176 0.250980
0.603922 0.149020 0.247059
0.733333 0.160784 0.254902
0.854902 0.168627 0.262745
0.976471 0.176471 0.258824
0.000000 0.247059 0.247059
0.117647 0.247059 0.247059
0.239216 0.250980 0.247059
0.364706 0.250980 0.250980
0.486275 0.254902 0.250980
0.611765 0.254902 0.250980
0.729412 0.262745 0.254902
0.854902 0.270588 0.258824
0.980392 0.278431 0.262745
0.019608 0.368627 0.250980
0.125490 0.372549 0.250980
0.247059 0.372549 0.250980
0.376471 0.372549 0.254902
0.490196 0.372549 0.254902
0.607843 0.376471 0.258824
0.737255 0.380392 0.258824
0.858824 0.388235 0.258824
0.984314 0.392157 0.258824
0.074510 0.494118 0.254902
0.129412 0.498039 0.258824
0.258824 0.498039 0.258824
0.368627 0.498039 0.258824
0.490196 0.498039 0.254902
0.615686 0.498039 0.258824
0.745098 0.501961 0.262745
0.862745 0.505882 0.258824
0.976471 0.509804 0.266667
0.086275 0.619608 0.258824
0.149020 0.623529 0.262745
0.262745 0.623529 0.266667
0.380392 0.623529 0.262745
0.505882 0.623529 0.262745
0.619608 0.627451 0.262745
0.737255 0.627451 0.270588
0.866667 0.627451 0.278431
0.984314 0.631373 0.274510
0.125490 0.745098 0.270588
0.156863 0.745098 0.270588
0.274510 0.749020 0.270588
0.380392 0.745098 0.270588
0.501961 0.749020 0.274510
0.623529 0.749020 0.278431
0.741176 0.749020 0.270588
0.862745 0.752941 0.278431
0.992157 0.749020 0.282353
0.149020 0.870588 0.282353
0.215686 0.870588 0.270588
0.282353 0.870588 0.278431
0.396078 0.874510 0.282353
0.517647 0.874510 0.278431
0.631373 0.874510 0.278431
0.756863 0.874510 0.286275
0.874510 0.878431 0.286275
0.992157 0.874510 0.290196
0.156863 0.996078 0.286275
0.200000 1.000000 0.290196
0.294118 1.000000 0.286275
0.407843 0.996078 0.278431
0.529412 0.996078 0.286275
0.631373 1.000000 0.294118
0.760784 0.996078 0.294118
0.878431 0.996078 0.301961
0.996078 1.000000 0.301961
0.007843 0.007843 0.356863
0.121569 0.015686 0.360784
0.235294 0.023529 0.368627
0.360784 0.035294 0.368627
0.486275 0.054902 0.376471
0.611765 0.062745 0.376471
0.729412 0.094118 0.376471
0.854902 0.113725 0.380392
0.976471 0.125490 0.376471
0.003922 0.121569 0.368627
0.109804 0.129412 0.364706
0.247059 0.125490 0.364706
0.364706 0.129412 0.364706
0.482353 0.141176 0.372549
0.611765 0.145098 0.372549
0.733333 0.160784 0.380392
0.858824 0.168627 0.376471
0.980392 0.188235 0.380392
0.007843 0.247059 0.364706
0.105882 0.250980 0.368627
0.235294 0.250980 0.372549
0.360784 0.250980 0.368627
0.490196 0.250980 0.368627
0.607843 0.258824 0.376471
0.729412 0.266667 0.380392
0.850980 0.274510 0.376471
0.976471 0.282353 0.380392
0.007843 0.372549 0.372549
0.117647 0.372549 0.372549
0.243137 0.372549 0.376471
0.364706 0.376471 0.372549
0.490196 0.376471 0.380392
0.611765 0.380392 0.380392
0.737255 0.376471 0.376471
0.858824 0.388235 0.380392
0.984314 0.388235 0.384314
0.035294 0.498039 0.380392
0.145098 0.498039 0.376471
0.247059 0.498039 0.380392
0.372549 0.498039 0.380392
0.494118 0.501961 0.376471
0.619608 0.501961 0.380392
0.737255 0.505882 0.384314
0.858824 0.505882 0.388235
0.980392 0.509804 0.384314
0.078431 0.619608 0.376471
0.168627 0.619608 0.380392
0.254902 0.623529 0.384314
0.376471 0.623529 0.388235
0.494118 0.627451 0.388235
0.619608 0.627451 0.392157
0.741176 0.627451 0.384314
0.866667 0.627451 0.392157
0.988235 0.631373 0.384314
0.074510 0.749020 0.392157
0.152941 0.745098 0.392157
0.274510 0.749020 0.392157
0.388235 0.745098 0.384314
0.501961 0.749020 0.388235
0.631373 0.749020 0.384314
0.749020 0.749020 0.388235
0.866667 0.752941 0.396078
0.988235 0.752941 0.400000
0.137255 0.874510 0.396078
0.211765 0.870588 0.388235
0.282353 0.870588 0.392157
0.392157 0.870588 0.392157
0.505882 0.870588 0.400000
0.623529 0.874510 0.400000
0.749020 0.874510 0.400000
0.870588 0.874510 0.400000
1.000000 0.874510 0.400000
0.164706 0.996078 0.400000
0.200000 0.996078 0.400000
0.294118 0.996078 0.396078
0.411765 0.996078 0.407843
0.509804 0.996078 0.396078
0.643137 1.000000 0.400000
0.756863 1.000000 0.400000
0.882353 1.000000 0.400000
0.996078 1.000000 0.400000
0.000000 0.023529 0.486275
0.117647 0.019608 0.482353
0.239216 0.027451 0.486275
0.356863 0.047059 0.490196
0.486275 0.039216 0.490196
0.600000 0.086275 0.490196
0.729412 0.098039 0.501961
0.858824 0.101961 0.494118
0.972549 0.145098 0.501961
0.000000 0.129412 0.486275
0.117647 0.129412 0.486275
0.239216 0.133333 0.490196
0.360784 0.137255 0.490196
0.482353 0.141176 0.494118
0.607843 0.149020 0.490196
0.729412 0.160784 0.494118
0.854902 0.172549 0.501961
0.984314 0.180392 0.505882
0.000000 0.250980 0.494118
0.109804 0.250980 0.494118
0.250980 0.247059 0.490196
0.360784 0.254902 0.490196
0.490196 0.258824 0.490196
0.603922 0.262745 0.501961
0.733333 0.262745 0.498039
0.858824 0.274510 0.498039
0.976471 0.282353 0.501961
0.039216 0.372549 0.494118
0.129412 0.376471 0.494118
0.235294 0.376471 0.501961
0.368627 0.376471 0.498039
0.494118 0.376471 0.501961
0.611765 0.376471 0.498039
0.733333 0.384314 0.501961
0.858824 0.388235 0.501961
0.976471 0.392157 0.505882
0.050980 0.498039 0.494118
0.149020 0.494118 0.498039
0.254902 0.498039 0.498039
0.376471 0.498039 0.501961
0.494118 0.501961 0.498039
0.611765 0.501961 0.501961
0.733333 0.501961 0.505882
0.862745 0.505882 0.509804
0.988235 0.509804 0.505882
0.050980 0.623529 0.505882
0.137255 0.623529 0.509804
0.250980 0.619608 0.505882
0.380392 0.623529 0.509804
0.490196 0.623529 0.505882
0.623529 0.623529 0.501961
0.737255 0.623529 0.505882
0.862745 0.631373 0.505882
0.984314 0.631373 0.509804
0.125490 0.745098 0.505882
0.164706 0.749020 0.509804
0.266667 0.749020 0.509804
0.380392 0.749020 0.505882
0.505882 0.745098 0.505882
0.619608 0.749020 0.513726
0.745098 0.749020 0.517647
0.866667 0.752941 0.517647
0.992157 0.752941 0.513726
0.133333 0.874510 0.521569
0.180392 0.870588 0.513726
0.262745 0.870588 0.517647
0.388235 0.870588 0.509804
0.505882 0.870588 0.517647
0.631373 0.870588 0.509804
0.752941 0.874510 0.509804
0.866667 0.878431 0.513726
0.992157 0.878431 0.513726
0.168627 1.000000 0.517647
0.203922 0.996078 0.517647
0.298039 0.996078 0.513726
0.407843 1.000000 0.513726
0.517647 0.996078 0.517647
0.635294 0.996078 0.521569
0.749020 1.000000 0.529412
0.878431 1.000000 0.525490
0.988235 1.000000 0.525490
0.031373 0.023529 0.607843
0.121569 0.027451 0.607843
0.243137 0.039216 0.607843
0.364706 0.043137 0.611765
0.482353 0.066667 0.607843
0.603922 0.086275 0.619608
0.729412 0.090196 0.615686
0.858824 0.105882 0.619608
0.976471 0.145098 0.623529
0.000000 0.133333 0.611765
0.113725 0.133333 0.603922
0.243137 0.133333 0.611765
0.360784 0.141176 0.611765
0.490196 0.141176 0.611765
0.603922 0.156863 0.615686
0.733333 0.160784 0.619608
0.854902 0.180392 0.623529
0.972549 0.196078 0.619608
0.000000 0.250980 0.611765
0.125490 0.250980 0.607843
0.243137 0.254902 0.607843
0.364706 0.250980 0.611765
0.482353 0.258824 0.615686
0.607843 0.266667 0.619608
0.737255 0.266667 0.615686
0.850980 0.274510 0.623529
0.976471 0.282353 0.623529
0.000000 0.376471 0.615686
0.133333 0.372549 0.615686
0.250980 0.372549 0.615686
0.368627 0.372549 0.615686
0.486275 0.376471 0.615686
0.611765 0.376471 0.615686
0.729412 0.384314 0.623529
0.854902 0.388235 0.623529
0.980392 0.396078 0.627451
0.035294 0.498039 0.611765
0.125490 0.498039 0.615686
0.254902 0.501961 0.615686
0.372549 0.501961 0.627451
0.490196 0.498039 0.623529
0.619608 0.501961 0.623529
0.737255 0.509804 0.627451
0.858824 0.509804 0.627451
0.980392 0.509804 0.627451
0.054902 0.623529 0.623529
0.164706 0.623529 0.619608
0.262745 0.623529 0.623529
0.364706 0.627451 0.627451
0.494118 0.623529 0.623529
0.615686 0.627451 0.623529
0.737255 0.623529 0.631373
0.862745 0.631373 0.627451
0.988235 0.631373 0.631373
0.101961 0.749020 0.631373
0.176471 0.745098 0.631373
0.247059 0.749020 0.631373
0.384314 0.749020 0.627451
0.509804 0.749020 0.631373
0.623529 0.752941 0.631373
0.749020 0.749020 0.631373
0.866667 0.749020 0.631373
0.992157 0.752941 0.631373
0.133333 0.870588 0.631373
0.180392 0.874510 0.635294
0.278431 0.874510 0.631373
0.400000 0.874510 0.631373
0.509804 0.874510 0.631373
0.623529 0.870588 0.631373
0.741176 0.874510 0.639216
0.866667 0.874510 0.643137
0.988235 0.878431 0.643137
0.180392 0.996078 0.639216
0.215686 0.996078 0.639216
0.313726 0.996078 0.639216
0.403922 0.996078 0.639216
0.505882 0.996078 0.639216
0.639216 1.000000 0.643137
0.752941 1.000000 0.639216
0.886275 1.000000 0.639216
0.992157 1.000000 0.635294
0.000000 0.039216 0.729412
0.113725 0.047059 0.729412
0.239216 0.050980 0.729412
0.360784 0.058824 0.729412
0.482353 0.074510 0.733333
0.607843 0.090196 0.737255
0.733333 0.098039 0.737255
0.850980 0.137255 0.741176
0.976471 0.149020 0.745098
0.000000 0.133333 0.729412
0.141176 0.137255 0.729412
0.247059 0.137255 0.733333
0.360784 0.141176 0.733333
0.478431 0.156863 0.737255
0.603922 0.164706 0.737255
0.725490 0.168627 0.741176
0.854902 0.180392 0.745098
0.972549 0.200000 0.741176
0.007843 0.250980 0.737255
0.117647 0.254902 0.741176
0.243137 0.254902 0.737255
0.352941 0.258824 0.737255
0.486275 0.254902 0.737255
0.611765 0.258824 0.737255
0.729412 0.274510 0.745098
0.854902 0.282353 0.741176
0.980392 0.278431 0.745098
0.066667 0.372549 0.737255
0.137255 0.372549 0.737255
0.243137 0.376471 0.737255
0.360784 0.376471 0.737255
0.486275 0.376471 0.741176
0.607843 0.380392 0.741176
0.737255 0.388235 0.745098
0.862745 0.388235 0.741176
0.976471 0.392157 0.749020
0.062745 0.498039 0.745098
0.141176 0.498039 0.741176
0.231373 0.498039 0.745098
0.372549 0.498039 0.741176
0.498039 0.501961 0.741176
0.615686 0.505882 0.745098
0.737255 0.501961 0.737255
0.858824 0.505882 0.745098
0.984314 0.509804 0.752941
0.086275 0.623529 0.741176
0.133333 0.623529 0.745098
0.250980 0.623529 0.741176
0.372549 0.623529 0.741176
0.501961 0.623529 0.749020
0.623529 0.627451 0.749020
0.741176 0.631373 0.749020
0.866667 0.631373 0.749020
0.992157 0.631373 0.749020
0.082353 0.749020 0.745098
0.176471 0.749020 0.749020
0.270588 0.749020 0.749020
0.384314 0.745098 0.749020
0.498039 0.749020 0.752941
0.619608 0.752941 0.752941
0.741176 0.749020 0.749020
0.862745 0.752941 0.756863
0.984314 0.756863 0.756863
0.145098 0.870588 0.756863
0.184314 0.870588 0.756863
0.282353 0.870588 0.752941
0.376471 0.870588 0.756863
0.501961 0.874510 0.752941
0.627451 0.874510 0.756863
0.741176 0.878431 0.756863
0.878431 0.874510 0.756863
0.988235 0.878431 0.752941
0.125490 0.996078 0.752941
0.184314 1.000000 0.756863
0.286275 1.000000 0.760784
0.403922 0.996078 0.760784
0.521569 1.000000 0.756863
0.627451 1.000000 0.756863
0.752941 1.000000 0.760784
0.870588 1.000000 0.768627
0.996078 1.000000 0.764706
0.000000 0.062745 0.854902
0.125490 0.058824 0.854902
0.239216 0.050980 0.854902
0.356863 0.066667 0.854902
0.482353 0.090196 0.854902
0.611765 0.086275 0.854902
0.725490 0.117647 0.858824
0.850980 0.125490 0.858824
0.976471 0.149020 0.870588
0.003922 0.141176 0.850980
0.101961 0.149020 0.854902
0.239216 0.141176 0.850980
0.360784 0.149020 0.850980
0.482353 0.156863 0.854902
0.607843 0.168627 0.858824
0.729412 0.168627 0.858824
0.854902 0.184314 0.858824
0.972549 0.203922 0.866667
0.039216 0.254902 0.854902
0.145098 0.254902 0.854902
0.243137 0.254902 0.854902
0.368627 0.254902 0.854902
0.494118 0.258824 0.862745
0.603922 0.270588 0.866667
0.733333 0.266667 0.858824
0.858824 0.278431 0.862745
0.976471 0.290196 0.870588
0.062745 0.376471 0.858824
0.117647 0.376471 0.862745
0.247059 0.376471 0.862745
0.372549 0.376471 0.866667
0.486275 0.380392 0.858824
0.611765 0.384314 0.862745
0.741176 0.388235 0.858824
0.854902 0.396078 0.866667
0.976471 0.396078 0.866667
0.062745 0.501961 0.862745
0.152941 0.501961 0.858824
0.266667 0.498039 0.862745
0.384314 0.498039 0.854902
0.494118 0.505882 0.862745
0.611765 0.505882 0.870588
0.737255 0.505882 0.866667
0.858824 0.509804 0.862745
0.980392 0.509804 0.866667
0.066667 0.627451 0.870588
0.156863 0.623529 0.870588
0.262745 0.623529 0.870588
0.364706 0.627451 0.870588
0.501961 0.623529 0.866667
0.623529 0.627451 0.866667
0.737255 0.627451 0.866667
0.862745 0.627451 0.866667
0.976471 0.635294 0.870588
0.117647 0.749020 0.866667
0.192157 0.745098 0.866667
0.294118 0.749020 0.870588
0.380392 0.749020 0.870588
0.505882 0.752941 0.874510
0.631373 0.749020 0.870588
0.741176 0.752941 0.878431
0.866667 0.749020 0.874510
0.988235 0.752941 0.874510
0.121569 0.870588 0.874510
0.176471 0.874510 0.882353
0.262745 0.874510 0.878431
0.388235 0.874510 0.878431
0.513726 0.870588 0.874510
0.619608 0.874510 0.878431
0.752941 0.874510 0.878431
0.870588 0.878431 0.878431
0.988235 0.878431 0.882353
0.152941 0.996078 0.874510
0.207843 1.000000 0.878431
0.301961 1.000000 0.886275
0.403922 0.996078 0.882353
0.505882 1.000000 0.886275
0.635294 1.000000 0.886275
0.760784 1.000000 0.882353
0.874510 1.000000 0.882353
0.996078 1.000000 0.882353
0.023529 0.058824 0.972549
0.152941 0.050980 0.972549
0.254902 0.062745 0.972549
0.368627 0.074510 0.976471
0.474510 0.101961 0.980392
0.607843 0.105882 0.976471
0.733333 0.105882 0.976471
0.850980 0.125490 0.988235
0.976471 0.152941 0.988235
0.098039 0.145098 0.972549
0.149020 0.145098 0.968627
0.250980 0.149020 0.972549
0.356863 0.152941 0.980392
0.482353 0.164706 0.980392
0.615686 0.164706 0.980392
0.733333 0.176471 0.976471
0.854902 0.188235 0.984314
0.980392 0.192157 0.980392
0.023529 0.258824 0.976471
0.141176 0.258824 0.972549
0.254902 0.254902 0.972549
0.360784 0.262745 0.980392
0.486275 0.262745 0.976471
0.607843 0.274510 0.980392
0.737255 0.274510 0.992157
0.847059 0.286275 0.984314
0.976471 0.294118 0.988235
0.101961 0.376471 0.980392
0.152941 0.380392 0.980392
0.258824 0.376471 0.972549
0.372549 0.380392 0.984314
0.494118 0.380392 0.980392
0.615686 0.384314 0.984314
0.733333 0.388235 0.984314
0.858824 0.392157 0.992157
0.984314 0.396078 0.984314
0.082353 0.501961 0.984314
0.137255 0.501961 0.988235
0.235294 0.505882 0.992157
0.364706 0.501961 0.984314
0.490196 0.501961 0.984314
0.611765 0.505882 0.988235
0.741176 0.509804 0.988235
0.862745 0.509804 0.988235
0.976471 0.517647 0.992157
0.082353 0.627451 0.988235
0.133333 0.623529 0.988235
0.258824 0.627451 0.988235
0.376471 0.627451 0.988235
0.509804 0.627451 0.984314
0.611765 0.627451 0.988235
0.741176 0.631373 0.992157
0.858824 0.631373 0.996078
0.984314 0.635294 0.992157
0.007843 0.749020 0.996078
0.156863 0.752941 0.992157
0.274510 0.749020 0.992157
0.376471 0.749020 0.992157
0.509804 0.749020 0.996078
0.623529 0.749020 0.992157
0.745098 0.752941 0.992157
0.862745 0.752941 0.992157
0.988235 0.756863 1.000000
0.137255 0.874510 0.992157
0.184314 0.874510 0.992157
0.301961 0.870588 0.992157
0.403922 0.870588 0.992157
0.509804 0.874510 0.992157
0.631373 0.874510 1.000000
0.745098 0.874510 1.000000
0.866667 0.878431 0.996078
0.988235 0.878431 0.996078
0.188235 1.000000 1.000000
0.227451 0.996078 1.000000
0.313726 1.000000 1.000000
0.396078 0.996078 0.996078
0.521569 1.000000 1.000000
0.639216 1.000000 1.000000
0.749020 1.000000 1.000000
0.882353 1.000000 1.000000
0.992157 1.000000 1.000000
