test_output_lut/#風景 スタンド・バイ・ユー - Ag+のイラスト - pixiv_ct.cube
TITLE "Color Transfer LUT - #風景 スタンド・バイ・ユー - Ag+のイラスト - pixiv"
LUT_3D_SIZE 33
0.000000 0.003922 0.000000
0.019608 0.003922 0.000000
0.047059 0.000000 0.003922
0.074510 0.011765 0.007843
0.113725 0.007843 0.003922
0.145098 0.007843 0.007843
0.176471 0.007843 0.015686
0.203922 0.015686 0.007843
0.239216 0.007843 0.019608
0.270588 0.003922 0.007843
0.301961 0.019608 0.011765
0.333333 0.015686 0.011765
0.360784 0.027451 0.019608
0.392157 0.035294 0.019608
0.423529 0.031373 0.015686
0.450980 0.050980 0.019608
0.486275 0.043137 0.015686
0.513726 0.043137 0.015686
0.549020 0.050980 0.019608
0.580392 0.058824 0.011765
0.607843 0.058824 0.023529
0.639216 0.070588 0.011765
0.674510 0.050980 0.019608
0.701961 0.078431 0.027451
0.725490 0.090196 0.023529
0.760784 0.101961 0.023529
0.792157 0.101961 0.031373
0.823529 0.109804 0.031373
0.854902 0.109804 0.027451
0.886275 0.109804 0.039216
0.913725 0.113725 0.031373
0.949020 0.121569 0.047059
0.980392 0.121569 0.043137
0.000000 0.023529 0.007843
0.000000 0.039216 0.019608
0.050980 0.031373 0.011765
0.086275 0.023529 0.011765
0.117647 0.023529 0.007843
0.141176 0.039216 0.011765
0.180392 0.027451 0.003922
0.207843 0.027451 0.007843
0.239216 0.035294 0.011765
0.270588 0.039216 0.011765
0.301961 0.039216 0.003922
0.337255 0.039216 0.011765
0.364706 0.035294 0.023529
0.396078 0.054902 0.015686
0.423529 0.058824 0.019608
0.454902 0.062745 0.015686
0.482353 0.074510 0.019608
0.517647 0.062745 0.007843
0.549020 0.070588 0.011765
0.580392 0.078431 0.015686
0.607843 0.078431 0.011765
0.639216 0.070588 0.011765
0.674510 0.074510 0.011765
0.698039 0.090196 0.027451
0.733333 0.098039 0.027451
0.760784 0.101961 0.023529
0.796078 0.105882 0.023529
0.823529 0.109804 0.031373
0.854902 0.109804 0.027451
0.890196 0.117647 0.027451
0.921569 0.121569 0.039216
0.949020 0.121569 0.031373
0.980392 0.121569 0.043137
0.000000 0.058824 0.007843
0.007843 0.062745 0.007843
0.047059 0.058824 0.007843
0.078431 0.062745 0.000000
0.117647 0.062745 0.019608
0.149020 0.062745 0.007843
0.180392 0.058824 0.007843
0.215686 0.066667 0.011765
0.239216 0.070588 0.007843
0.270588 0.074510 0.007843
0.301961 0.070588 0.007843
0.333333 0.070588 0.011765
0.360784 0.078431 0.019608
0.396078 0.078431 0.015686
0.427451 0.078431 0.015686
0.454902 0.090196 0.023529
0.486275 0.086275 0.023529
0.517647 0.094118 0.015686
0.549020 0.090196 0.015686
0.580392 0.094118 0.019608
0.607843 0.098039 0.015686
0.643137 0.105882 0.015686
0.670588 0.105882 0.011765
0.709804 0.105882 0.023529
0.733333 0.117647 0.031373
0.760784 0.121569 0.027451
0.796078 0.129412 0.039216
0.827451 0.129412 0.039216
0.854902 0.133333 0.031373
0.886275 0.133333 0.023529
0.921569 0.141176 0.039216
0.952941 0.141176 0.035294
0.980392 0.145098 0.047059
0.000000 0.090196 0.007843
0.011765 0.090196 0.015686
0.058824 0.090196 0.011765
0.086275 0.090196 0.003922
0.117647 0.086275 0.007843
0.145098 0.094118 0.011765
0.180392 0.090196 0.007843
0.211765 0.094118 0.003922
0.243137 0.094118 0.015686
0.266667 0.101961 0.007843
0.301961 0.098039 0.011765
0.333333 0.098039 0.015686
0.360784 0.105882 0.023529
0.396078 0.098039 0.023529
0.423529 0.101961 0.015686
0.458824 0.105882 0.019608
0.486275 0.109804 0.019608
0.517647 0.105882 0.019608
0.549020 0.113725 0.023529
0.576471 0.117647 0.007843
0.607843 0.113725 0.007843
0.643137 0.121569 0.019608
0.670588 0.121569 0.015686
0.705882 0.133333 0.023529
0.733333 0.133333 0.035294
0.760784 0.137255 0.027451
0.792157 0.141176 0.039216
0.827451 0.149020 0.039216
0.854902 0.149020 0.035294
0.886275 0.152941 0.027451
0.917647 0.152941 0.039216
0.945098 0.156863 0.035294
0.980392 0.164706 0.050980
0.007843 0.121569 0.007843
0.019608 0.125490 0.007843
0.058824 0.121569 0.011765
0.090196 0.125490 0.007843
0.117647 0.121569 0.011765
0.145098 0.125490 0.007843
0.180392 0.121569 0.011765
0.207843 0.125490 0.003922
0.243137 0.125490 0.011765
0.270588 0.121569 0.000000
0.298039 0.125490 0.023529
0.333333 0.125490 0.023529
0.364706 0.129412 0.015686
0.392157 0.129412 0.015686
0.423529 0.133333 0.015686
0.458824 0.133333 0.023529
0.490196 0.133333 0.023529
0.517647 0.141176 0.019608
0.545098 0.145098 0.015686
0.576471 0.141176 0.015686
0.603922 0.145098 0.011765
0.643137 0.145098 0.011765
0.670588 0.149020 0.019608
0.705882 0.145098 0.027451
0.733333 0.149020 0.023529
0.764706 0.164706 0.035294
0.792157 0.168627 0.031373
0.823529 0.172549 0.039216
0.854902 0.164706 0.039216
0.886275 0.168627 0.031373
0.917647 0.168627 0.023529
0.949020 0.172549 0.039216
0.984314 0.180392 0.039216
0.000000 0.152941 0.003922
0.023529 0.152941 0.007843
0.058824 0.152941 0.015686
0.090196 0.152941 0.011765
0.125490 0.152941 0.015686
0.149020 0.152941 0.007843
0.180392 0.152941 0.007843
0.207843 0.156863 0.015686
0.239216 0.156863 0.007843
0.274510 0.156863 0.019608
0.301961 0.156863 0.015686
0.333333 0.160784 0.015686
0.364706 0.156863 0.023529
0.396078 0.160784 0.011765
0.423529 0.164706 0.023529
0.458824 0.160784 0.023529
0.490196 0.160784 0.023529
0.521569 0.160784 0.019608
0.545098 0.172549 0.015686
0.576471 0.172549 0.023529
0.611765 0.172549 0.019608
0.639216 0.176471 0.015686
0.670588 0.172549 0.023529
0.701961 0.180392 0.031373
0.733333 0.176471 0.031373
0.764706 0.180392 0.023529
0.792157 0.184314 0.035294
0.823529 0.188235 0.027451
0.858824 0.196078 0.043137
0.886275 0.200000 0.039216
0.917647 0.200000 0.035294
0.949020 0.203922 0.043137
0.984314 0.200000 0.039216
0.019608 0.184314 0.011765
0.039216 0.180392 0.003922
0.054902 0.188235 0.011765
0.082353 0.184314 0.011765
0.117647 0.180392 0.007843
0.156863 0.180392 0.007843
0.180392 0.184314 0.007843
0.211765 0.188235 0.023529
0.239216 0.188235 0.015686
0.274510 0.188235 0.023529
0.305882 0.188235 0.019608
0.337255 0.188235 0.015686
0.368627 0.188235 0.011765
0.400000 0.192157 0.019608
0.423529 0.192157 0.015686
0.458824 0.192157 0.023529
0.490196 0.192157 0.023529
0.521569 0.192157 0.015686
0.552941 0.192157 0.011765
0.580392 0.200000 0.019608
0.611765 0.200000 0.015686
0.643137 0.200000 0.011765
0.674510 0.203922 0.035294
0.705882 0.203922 0.043137
0.737255 0.207843 0.023529
0.768627 0.207843 0.039216
0.792157 0.207843 0.027451
0.823529 0.211765 0.039216
0.858824 0.219608 0.035294
0.882353 0.219608 0.039216
0.917647 0.215686 0.039216
0.949020 0.219608 0.050980
0.980392 0.223529 0.039216
0.000000 0.215686 0.007843
0.023529 0.215686 0.011765
0.070588 0.215686 0.019608
0.090196 0.215686 0.019608
0.113725 0.219608 0.019608
0.156863 0.215686 0.015686
0.180392 0.215686 0.023529
0.211765 0.215686 0.023529
0.243137 0.215686 0.011765
0.270588 0.219608 0.019608
0.305882 0.219608 0.011765
0.333333 0.215686 0.011765
0.364706 0.215686 0.019608
0.400000 0.219608 0.019608
0.423529 0.223529 0.011765
0.454902 0.223529 0.015686
0.486275 0.227451 0.011765
0.521569 0.223529 0.015686
0.552941 0.227451 0.023529
0.580392 0.223529 0.015686
0.607843 0.231373 0.011765
0.639216 0.231373 0.023529
0.674510 0.235294 0.031373
0.701961 0.231373 0.035294
0.733333 0.235294 0.031373
0.764706 0.235294 0.027451
0.800000 0.235294 0.039216
0.827451 0.239216 0.035294
0.854902 0.250980 0.039216
0.882353 0.243137 0.050980
0.913725 0.250980 0.043137
0.949020 0.247059 0.039216
0.980392 0.250980 0.050980
0.019608 0.243137 0.011765
0.039216 0.247059 0.019608
0.070588 0.243137 0.019608
0.086275 0.247059 0.011765
0.121569 0.247059 0.019608
0.145098 0.247059 0.023529
0.184314 0.247059 0.015686
0.211765 0.247059 0.007843
0.243137 0.247059 0.019608
0.278431 0.250980 0.011765
0.305882 0.250980 0.023529
0.333333 0.247059 0.023529
0.368627 0.250980 0.019608
0.400000 0.250980 0.023529
0.431373 0.250980 0.015686
0.458824 0.250980 0.019608
0.486275 0.254902 0.023529
0.521569 0.250980 0.015686
0.552941 0.254902 0.023529
0.584314 0.250980 0.019608
0.611765 0.258824 0.023529
0.639216 0.258824 0.031373
0.674510 0.258824 0.039216
0.701961 0.266667 0.039216
0.733333 0.262745 0.043137
0.764706 0.266667 0.039216
0.800000 0.266667 0.050980
0.823529 0.266667 0.039216
0.858824 0.266667 0.050980
0.886275 0.278431 0.043137
0.921569 0.278431 0.039216
0.945098 0.278431 0.043137
0.980392 0.274510 0.039216
0.019608 0.278431 0.019608
0.039216 0.278431 0.019608
0.070588 0.274510 0.023529
0.094118 0.278431 0.015686
0.129412 0.278431 0.019608
0.156863 0.278431 0.023529
0.184314 0.278431 0.019608
0.211765 0.282353 0.019608
0.243137 0.278431 0.015686
0.274510 0.278431 0.011765
0.309804 0.278431 0.023529
0.333333 0.278431 0.023529
0.368627 0.282353 0.015686
0.396078 0.278431 0.015686
0.431373 0.282353 0.019608
0.462745 0.282353 0.023529
0.490196 0.282353 0.015686
0.517647 0.286275 0.023529
0.552941 0.282353 0.023529
0.580392 0.286275 0.019608
0.611765 0.290196 0.027451
0.643137 0.290196 0.031373
0.678431 0.290196 0.043137
0.705882 0.290196 0.035294
0.737255 0.294118 0.043137
0.764706 0.294118 0.050980
0.796078 0.298039 0.043137
0.827451 0.294118 0.050980
0.858824 0.298039 0.047059
0.894118 0.298039 0.043137
0.917647 0.305882 0.047059
0.952941 0.301961 0.039216
0.980392 0.309804 0.050980
0.003922 0.309804 0.023529
0.035294 0.309804 0.027451
0.074510 0.309804 0.019608
0.105882 0.309804 0.023529
0.129412 0.305882 0.023529
0.152941 0.309804 0.019608
0.188235 0.313726 0.027451
0.215686 0.309804 0.023529
0.247059 0.309804 0.019608
0.278431 0.309804 0.027451
0.309804 0.309804 0.015686
0.337255 0.313726 0.023529
0.364706 0.313726 0.023529
0.396078 0.309804 0.011765
0.431373 0.313726 0.019608
0.458824 0.309804 0.019608
0.494118 0.313726 0.023529
0.525490 0.313726 0.027451
0.549020 0.317647 0.019608
0.584314 0.317647 0.023529
0.611765 0.317647 0.043137
0.639216 0.317647 0.047059
0.674510 0.317647 0.039216
0.709804 0.317647 0.050980
0.733333 0.321569 0.039216
0.768627 0.325490 0.050980
0.796078 0.325490 0.039216
0.827451 0.321569 0.047059
0.862745 0.325490 0.043137
0.886275 0.325490 0.047059
0.921569 0.329412 0.043137
0.952941 0.333333 0.054902
0.976471 0.337255 0.058824
0.023529 0.341176 0.023529
0.050980 0.337255 0.023529
0.078431 0.341176 0.015686
0.090196 0.341176 0.027451
0.125490 0.341176 0.023529
0.156863 0.337255 0.023529
0.188235 0.337255 0.015686
0.219608 0.341176 0.027451
0.247059 0.341176 0.023529
0.278431 0.337255 0.027451
0.305882 0.341176 0.023529
0.337255 0.341176 0.023529
0.368627 0.341176 0.023529
0.396078 0.341176 0.023529
0.427451 0.341176 0.023529
0.458824 0.345098 0.027451
0.490196 0.341176 0.027451
0.525490 0.345098 0.019608
0.556863 0.345098 0.023529
0.580392 0.349020 0.043137
0.615686 0.349020 0.050980
0.639216 0.345098 0.035294
0.678431 0.349020 0.047059
0.709804 0.349020 0.050980
0.737255 0.349020 0.039216
0.760784 0.352941 0.047059
0.792157 0.352941 0.050980
0.827451 0.356863 0.050980
0.854902 0.356863 0.054902
0.890196 0.356863 0.050980
0.921569 0.356863 0.058824
0.952941 0.352941 0.043137
0.984314 0.360784 0.058824
0.019608 0.372549 0.019608
0.039216 0.372549 0.031373
0.066667 0.372549 0.031373
0.090196 0.368627 0.019608
0.121569 0.372549 0.023529
0.152941 0.372549 0.031373
0.188235 0.372549 0.023529
0.219608 0.372549 0.031373
0.247059 0.372549 0.023529
0.274510 0.372549 0.031373
0.309804 0.372549 0.031373
0.341176 0.368627 0.023529
0.372549 0.372549 0.023529
0.400000 0.372549 0.023529
0.431373 0.372549 0.023529
0.458824 0.376471 0.023529
0.490196 0.376471 0.023529
0.521569 0.372549 0.023529
0.552941 0.376471 0.047059
0.588235 0.376471 0.050980
0.607843 0.376471 0.035294
0.643137 0.376471 0.058824
0.674510 0.380392 0.047059
0.705882 0.380392 0.054902
0.737255 0.380392 0.043137
0.768627 0.380392 0.050980
0.796078 0.380392 0.054902
0.827451 0.380392 0.043137
0.862745 0.384314 0.058824
0.890196 0.384314 0.062745
0.921569 0.384314 0.050980
0.952941 0.392157 0.062745
0.984314 0.388235 0.050980
0.027451 0.403922 0.023529
0.027451 0.403922 0.023529
0.090196 0.403922 0.031373
0.105882 0.403922 0.031373
0.125490 0.403922 0.039216
0.156863 0.403922 0.023529
0.192157 0.403922 0.031373
0.223529 0.403922 0.039216
0.254902 0.403922 0.027451
0.282353 0.403922 0.039216
0.309804 0.403922 0.035294
0.337255 0.403922 0.027451
0.372549 0.403922 0.023529
0.403922 0.407843 0.023529
0.431373 0.403922 0.035294
0.470588 0.403922 0.039216
0.494118 0.407843 0.039216
0.525490 0.403922 0.054902
0.552941 0.407843 0.039216
0.584314 0.407843 0.058824
0.615686 0.403922 0.047059
0.647059 0.407843 0.050980
0.674510 0.411765 0.054902
0.705882 0.411765 0.062745
0.741176 0.411765 0.050980
0.772549 0.415686 0.058824
0.800000 0.415686 0.062745
0.835294 0.411765 0.054902
0.862745 0.415686 0.058824
0.890196 0.415686 0.062745
0.921569 0.415686 0.050980
0.952941 0.415686 0.058824
0.980392 0.419608 0.062745
0.050980 0.435294 0.035294
0.078431 0.435294 0.035294
0.098039 0.435294 0.039216
0.098039 0.435294 0.039216
0.125490 0.435294 0.023529
0.168627 0.431373 0.027451
0.192157 0.435294 0.035294
0.227451 0.435294 0.027451
0.250980 0.435294 0.035294
0.282353 0.435294 0.023529
0.309804 0.435294 0.035294
0.341176 0.439216 0.031373
0.372549 0.435294 0.043137
0.400000 0.439216 0.023529
0.435294 0.439216 0.039216
0.462745 0.435294 0.050980
0.494118 0.435294 0.050980
0.525490 0.439216 0.054902
0.556863 0.439216 0.054902
0.588235 0.435294 0.054902
0.615686 0.439216 0.058824
0.647059 0.439216 0.058824
0.682353 0.439216 0.066667
0.705882 0.439216 0.062745
0.733333 0.443137 0.050980
0.768627 0.443137 0.058824
0.800000 0.443137 0.062745
0.835294 0.443137 0.054902
0.866667 0.443137 0.058824
0.890196 0.447059 0.066667
0.921569 0.450980 0.070588
0.952941 0.450980 0.058824
0.984314 0.450980 0.066667
0.062745 0.466667 0.043137
0.070588 0.466667 0.023529
0.090196 0.462745 0.023529
0.129412 0.462745 0.027451
0.149020 0.466667 0.035294
0.156863 0.466667 0.039216
0.196078 0.466667 0.039216
0.223529 0.466667 0.031373
0.254902 0.466667 0.039216
0.290196 0.466667 0.031373
0.317647 0.466667 0.039216
0.345098 0.466667 0.031373
0.372549 0.466667 0.050980
0.400000 0.466667 0.058824
0.435294 0.466667 0.054902
0.466667 0.466667 0.054902
0.490196 0.466667 0.047059
0.525490 0.466667 0.047059
0.552941 0.466667 0.043137
0.588235 0.470588 0.050980
0.619608 0.470588 0.070588
0.647059 0.470588 0.050980
0.682353 0.470588 0.058824
0.713726 0.466667 0.058824
0.737255 0.474510 0.058824
0.772549 0.474510 0.066667
0.800000 0.474510 0.066667
0.831373 0.474510 0.054902
0.866667 0.474510 0.062745
0.898039 0.474510 0.070588
0.921569 0.478431 0.074510
0.952941 0.482353 0.062745
0.984314 0.482353 0.066667
0.078431 0.494118 0.031373
0.078431 0.494118 0.031373
0.105882 0.494118 0.031373
0.129412 0.498039 0.039216
0.145098 0.498039 0.039216
0.180392 0.498039 0.050980
0.196078 0.498039 0.031373
0.223529 0.498039 0.039216
0.258824 0.498039 0.047059
0.282353 0.498039 0.054902
0.313726 0.498039 0.062745
0.345098 0.498039 0.058824
0.376471 0.498039 0.062745
0.407843 0.498039 0.062745
0.427451 0.498039 0.054902
0.462745 0.501961 0.050980
0.494118 0.498039 0.062745
0.525490 0.498039 0.062745
0.560784 0.498039 0.062745
0.580392 0.501961 0.058824
0.615686 0.501961 0.058824
0.650980 0.501961 0.062745
0.682353 0.501961 0.062745
0.709804 0.501961 0.062745
0.745098 0.501961 0.070588
0.764706 0.505882 0.070588
0.803922 0.505882 0.058824
0.827451 0.501961 0.058824
0.858824 0.505882 0.062745
0.894118 0.505882 0.070588
0.925490 0.505882 0.078431
0.956863 0.509804 0.062745
0.984314 0.513726 0.070588
0.050980 0.525490 0.058824
0.086275 0.525490 0.058824
0.086275 0.525490 0.058824
0.117647 0.529412 0.062745
0.156863 0.525490 0.062745
0.176471 0.529412 0.070588
0.207843 0.525490 0.058824
0.235294 0.529412 0.062745
0.250980 0.529412 0.070588
0.282353 0.525490 0.058824
0.313726 0.525490 0.062745
0.345098 0.525490 0.058824
0.380392 0.529412 0.070588
0.407843 0.529412 0.062745
0.439216 0.525490 0.054902
0.462745 0.529412 0.070588
0.494118 0.529412 0.062745
0.529412 0.529412 0.062745
0.556863 0.529412 0.058824
0.592157 0.529412 0.058824
0.619608 0.533333 0.074510
0.647059 0.533333 0.054902
0.678431 0.533333 0.074510
0.709804 0.529412 0.054902
0.741176 0.533333 0.058824
0.772549 0.533333 0.062745
0.803922 0.537255 0.066667
0.831373 0.533333 0.066667
0.862745 0.537255 0.074510
0.894118 0.533333 0.074510
0.925490 0.537255 0.058824
0.956863 0.537255 0.066667
0.988235 0.541176 0.074510
0.062745 0.556863 0.062745
0.062745 0.556863 0.062745
0.105882 0.560784 0.070588
0.129412 0.560784 0.070588
0.149020 0.556863 0.070588
0.168627 0.556863 0.054902
0.203922 0.560784 0.062745
0.235294 0.560784 0.070588
0.262745 0.556863 0.054902
0.286275 0.560784 0.062745
0.309804 0.560784 0.070588
0.345098 0.560784 0.062745
0.376471 0.560784 0.070588
0.411765 0.556863 0.062745
0.443137 0.560784 0.078431
0.470588 0.560784 0.070588
0.498039 0.564706 0.070588
0.525490 0.560784 0.058824
0.560784 0.560784 0.058824
0.592157 0.560784 0.074510
0.619608 0.564706 0.074510
0.650980 0.560784 0.066667
0.682353 0.564706 0.074510
0.709804 0.564706 0.070588
0.741176 0.564706 0.070588
0.776471 0.560784 0.070588
0.807843 0.564706 0.078431
0.839216 0.564706 0.078431
0.858824 0.564706 0.074510
0.890196 0.568627 0.082353
0.929412 0.568627 0.090196
0.956863 0.568627 0.066667
0.988235 0.568627 0.074510
0.078431 0.588235 0.070588
0.078431 0.588235 0.070588
0.109804 0.588235 0.074510
0.121569 0.592157 0.062745
0.160784 0.588235 0.078431
0.180392 0.588235 0.062745
0.203922 0.592157 0.070588
0.231373 0.588235 0.070588
0.262745 0.592157 0.062745
0.290196 0.592157 0.070588
0.313726 0.592157 0.078431
0.345098 0.588235 0.062745
0.380392 0.592157 0.078431
0.411765 0.592157 0.070588
0.439216 0.592157 0.078431
0.466667 0.592157 0.070588
0.505882 0.592157 0.070588
0.525490 0.592157 0.078431
0.560784 0.592157 0.074510
0.584314 0.592157 0.066667
0.619608 0.592157 0.066667
0.654902 0.592157 0.062745
0.682353 0.592157 0.082353
0.709804 0.596078 0.082353
0.741176 0.592157 0.082353
0.768627 0.596078 0.078431
0.807843 0.596078 0.086275
0.835294 0.596078 0.086275
0.866667 0.596078 0.086275
0.894118 0.600000 0.070588
0.921569 0.600000 0.070588
0.956863 0.600000 0.078431
0.984314 0.600000 0.094118
0.058824 0.623529 0.058824
0.098039 0.619608 0.062745
0.090196 0.619608 0.078431
0.133333 0.623529 0.070588
0.156863 0.623529 0.070588
0.176471 0.619608 0.070588
0.215686 0.623529 0.078431
0.231373 0.619608 0.078431
0.262745 0.623529 0.070588
0.298039 0.619608 0.070588
0.325490 0.619608 0.078431
0.352941 0.623529 0.070588
0.372549 0.623529 0.078431
0.407843 0.623529 0.070588
0.443137 0.619608 0.078431
0.470588 0.627451 0.074510
0.505882 0.623529 0.066667
0.529412 0.623529 0.078431
0.560784 0.623529 0.074510
0.584314 0.623529 0.086275
0.623529 0.623529 0.082353
0.650980 0.627451 0.082353
0.686275 0.627451 0.082353
0.721569 0.627451 0.082353
0.741176 0.627451 0.078431
0.776471 0.627451 0.078431
0.803922 0.627451 0.074510
0.835294 0.627451 0.074510
0.862745 0.627451 0.074510
0.898039 0.623529 0.074510
0.925490 0.631373 0.078431
0.956863 0.627451 0.098039
0.988235 0.631373 0.105882
0.074510 0.654902 0.070588
0.109804 0.650980 0.070588
0.109804 0.650980 0.070588
0.137255 0.650980 0.070588
0.168627 0.654902 0.078431
0.188235 0.654902 0.078431
0.203922 0.650980 0.078431
0.243137 0.654902 0.086275
0.258824 0.650980 0.070588
0.301961 0.650980 0.078431
0.329412 0.654902 0.086275
0.356863 0.654902 0.078431
0.384314 0.650980 0.078431
0.407843 0.650980 0.070588
0.439216 0.650980 0.078431
0.474510 0.654902 0.074510
0.501961 0.654902 0.086275
0.529412 0.654902 0.074510
0.568627 0.654902 0.074510
0.588235 0.654902 0.082353
0.623529 0.654902 0.082353
0.647059 0.654902 0.074510
0.686275 0.654902 0.070588
0.717647 0.654902 0.070588
0.749020 0.654902 0.090196
0.776471 0.658824 0.090196
0.803922 0.658824 0.086275
0.839216 0.658824 0.086275
0.866667 0.658824 0.086275
0.898039 0.654902 0.086275
0.929412 0.658824 0.109804
0.956863 0.658824 0.105882
0.984314 0.658824 0.105882
0.090196 0.686275 0.078431
0.090196 0.686275 0.078431
0.121569 0.686275 0.078431
0.149020 0.682353 0.078431
0.149020 0.682353 0.078431
0.180392 0.686275 0.086275
0.200000 0.686275 0.086275
0.243137 0.686275 0.074510
0.270588 0.682353 0.078431
0.301961 0.686275 0.086275
0.325490 0.682353 0.086275
0.352941 0.686275 0.078431
0.388235 0.686275 0.086275
0.415686 0.686275 0.074510
0.439216 0.686275 0.086275
0.470588 0.686275 0.074510
0.498039 0.686275 0.086275
0.533333 0.682353 0.074510
0.564706 0.686275 0.090196
0.592157 0.686275 0.082353
0.623529 0.686275 0.082353
0.650980 0.686275 0.090196
0.686275 0.686275 0.090196
0.713726 0.690196 0.090196
0.745098 0.686275 0.078431
0.776471 0.686275 0.078431
0.803922 0.690196 0.074510
0.831373 0.690196 0.074510
0.866667 0.690196 0.094118
0.894118 0.690196 0.113725
0.933333 0.690196 0.117647
0.960784 0.690196 0.117647
0.992157 0.690196 0.117647
0.133333 0.717647 0.086275
0.133333 0.717647 0.086275
0.160784 0.713726 0.086275
0.160784 0.713726 0.086275
0.160784 0.713726 0.086275
0.184314 0.713726 0.086275
0.211765 0.717647 0.094118
0.250980 0.713726 0.074510
0.270588 0.717647 0.086275
0.298039 0.713726 0.086275
0.325490 0.717647 0.094118
0.356863 0.717647 0.086275
0.388235 0.713726 0.086275
0.415686 0.713726 0.094118
0.447059 0.713726 0.086275
0.470588 0.717647 0.074510
0.501961 0.713726 0.086275
0.537255 0.717647 0.082353
0.564706 0.717647 0.090196
0.592157 0.717647 0.082353
0.631373 0.717647 0.082353
0.658824 0.717647 0.090196
0.686275 0.721569 0.090196
0.713726 0.717647 0.078431
0.749020 0.717647 0.098039
0.776471 0.721569 0.098039
0.811765 0.721569 0.098039
0.835294 0.717647 0.105882
0.866667 0.717647 0.105882
0.894118 0.721569 0.101961
0.933333 0.721569 0.109804
0.960784 0.721569 0.109804
0.988235 0.721569 0.105882
0.141176 0.745098 0.086275
0.141176 0.745098 0.086275
0.141176 0.745098 0.086275
0.172549 0.749020 0.094118
0.196078 0.745098 0.094118
0.215686 0.745098 0.094118
0.219608 0.745098 0.074510
0.243137 0.749020 0.082353
0.278431 0.745098 0.086275
0.298039 0.749020 0.094118
0.321569 0.745098 0.094118
0.356863 0.749020 0.082353
0.392157 0.749020 0.094118
0.419608 0.749020 0.082353
0.450980 0.745098 0.086275
0.482353 0.745098 0.094118
0.505882 0.745098 0.086275
0.533333 0.749020 0.098039
0.568627 0.749020 0.090196
0.596078 0.749020 0.101961
0.627451 0.745098 0.090196
0.658824 0.749020 0.090196
0.690196 0.745098 0.082353
0.713726 0.749020 0.098039
0.745098 0.749020 0.090196
0.776471 0.749020 0.105882
0.811765 0.749020 0.105882
0.839216 0.752941 0.121569
0.874510 0.749020 0.121569
0.898039 0.752941 0.121569
0.925490 0.756863 0.117647
0.960784 0.752941 0.117647
0.992157 0.752941 0.117647
0.117647 0.780392 0.094118
0.152941 0.776471 0.094118
0.152941 0.776471 0.094118
0.176471 0.776471 0.094118
0.176471 0.776471 0.094118
0.207843 0.780392 0.101961
0.231373 0.776471 0.082353
0.266667 0.776471 0.086275
0.274510 0.780392 0.090196
0.301961 0.776471 0.094118
0.337255 0.780392 0.101961
0.352941 0.776471 0.082353
0.392157 0.776471 0.094118
0.419608 0.780392 0.082353
0.454902 0.780392 0.090196
0.478431 0.780392 0.101961
0.513726 0.780392 0.090196
0.537255 0.780392 0.098039
0.564706 0.780392 0.090196
0.596078 0.780392 0.098039
0.623529 0.780392 0.090196
0.662745 0.780392 0.090196
0.690196 0.780392 0.098039
0.721569 0.780392 0.117647
0.749020 0.780392 0.105882
0.776471 0.784314 0.125490
0.811765 0.780392 0.117647
0.839216 0.780392 0.117647
0.870588 0.784314 0.113725
0.905882 0.780392 0.113725
0.929412 0.784314 0.109804
0.960784 0.784314 0.129412
0.992157 0.784314 0.129412
0.121569 0.807843 0.094118
0.156863 0.807843 0.094118
0.164706 0.811765 0.101961
0.164706 0.811765 0.101961
0.192157 0.807843 0.101961
0.215686 0.807843 0.105882
0.239216 0.807843 0.082353
0.262745 0.811765 0.094118
0.298039 0.807843 0.094118
0.317647 0.811765 0.101961
0.329412 0.807843 0.101961
0.364706 0.811765 0.090196
0.388235 0.807843 0.094118
0.419608 0.807843 0.101961
0.454902 0.807843 0.090196
0.482353 0.811765 0.101961
0.513726 0.811765 0.090196
0.549020 0.811765 0.101961
0.568627 0.811765 0.090196
0.600000 0.811765 0.101961
0.627451 0.807843 0.109804
0.662745 0.811765 0.125490
0.690196 0.811765 0.117647
0.717647 0.811765 0.109804
0.756863 0.811765 0.125490
0.776471 0.811765 0.117647
0.811765 0.811765 0.117647
0.843137 0.815686 0.133333
