test_output_lut/011_ct.cube
TITLE "Color Transfer LUT - 011"
LUT_3D_SIZE 33
0.000000 0.000000 0.000000
0.023529 0.000000 0.000000
0.054902 0.000000 0.000000
0.082353 0.003922 0.000000
0.117647 0.000000 0.000000
0.149020 0.000000 0.007843
0.180392 0.000000 0.007843
0.207843 0.003922 0.000000
0.243137 0.000000 0.011765
0.274510 0.000000 0.003922
0.305882 0.000000 0.007843
0.337255 0.000000 0.007843
0.364706 0.007843 0.007843
0.400000 0.000000 0.003922
0.435294 0.000000 0.003922
0.458824 0.003922 0.007843
0.498039 0.000000 0.007843
0.521569 0.000000 0.007843
0.556863 0.000000 0.007843
0.588235 0.000000 0.003922
0.615686 0.000000 0.007843
0.650980 0.000000 0.003922
0.682353 0.000000 0.007843
0.713726 0.000000 0.011765
0.741176 0.000000 0.007843
0.776471 0.007843 0.003922
0.803922 0.000000 0.007843
0.839216 0.007843 0.007843
0.870588 0.003922 0.007843
0.898039 0.000000 0.011765
0.929412 0.000000 0.007843
0.964706 0.000000 0.019608
0.996078 0.000000 0.015686
0.000000 0.015686 0.000000
0.011765 0.027451 0.003922
0.058824 0.023529 0.000000
0.090196 0.015686 0.007843
0.121569 0.019608 0.003922
0.145098 0.027451 0.007843
0.184314 0.015686 0.000000
0.207843 0.019608 0.003922
0.243137 0.019608 0.007843
0.274510 0.023529 0.007843
0.305882 0.023529 0.000000
0.341176 0.019608 0.007843
0.368627 0.007843 0.007843
0.400000 0.027451 0.003922
0.431373 0.019608 0.007843
0.462745 0.023529 0.003922
0.494118 0.031373 0.007843
0.525490 0.011765 0.000000
0.556863 0.019608 0.003922
0.588235 0.023529 0.007843
0.615686 0.023529 0.003922
0.650980 0.000000 0.003922
0.682353 0.007843 0.003922
0.709804 0.003922 0.007843
0.745098 0.007843 0.007843
0.776471 0.007843 0.003922
0.807843 0.011765 0.003922
0.839216 0.007843 0.007843
0.870588 0.003922 0.007843
0.905882 0.011765 0.003922
0.933333 0.007843 0.011765
0.964706 0.000000 0.007843
0.996078 0.000000 0.015686
0.000000 0.054902 0.000000
0.000000 0.058824 0.007843
0.050980 0.050980 0.003922
0.082353 0.058824 0.000000
0.117647 0.058824 0.011765
0.149020 0.054902 0.000000
0.180392 0.050980 0.000000
0.215686 0.058824 0.007843
0.243137 0.058824 0.000000
0.274510 0.062745 0.000000
0.305882 0.058824 0.003922
0.337255 0.050980 0.007843
0.364706 0.058824 0.003922
0.400000 0.058824 0.003922
0.431373 0.050980 0.007843
0.462745 0.058824 0.007843
0.494118 0.050980 0.011765
0.525490 0.058824 0.007843
0.556863 0.043137 0.007843
0.588235 0.050980 0.007843
0.615686 0.050980 0.007843
0.650980 0.058824 0.007843
0.678431 0.058824 0.003922
0.717647 0.050980 0.003922
0.745098 0.047059 0.007843
0.776471 0.047059 0.007843
0.807843 0.054902 0.015686
0.839216 0.050980 0.011765
0.870588 0.050980 0.007843
0.898039 0.047059 0.003922
0.933333 0.058824 0.011765
0.964706 0.054902 0.007843
0.996078 0.050980 0.015686
0.000000 0.086275 0.003922
0.007843 0.090196 0.007843
0.054902 0.086275 0.007843
0.086275 0.086275 0.000000
0.121569 0.082353 0.000000
0.149020 0.090196 0.007843
0.184314 0.086275 0.003922
0.211765 0.090196 0.000000
0.243137 0.090196 0.007843
0.270588 0.090196 0.003922
0.305882 0.082353 0.007843
0.337255 0.082353 0.003922
0.368627 0.090196 0.007843
0.400000 0.086275 0.011765
0.427451 0.086275 0.003922
0.462745 0.090196 0.007843
0.494118 0.082353 0.007843
0.525490 0.074510 0.007843
0.556863 0.082353 0.011765
0.584314 0.086275 0.000000
0.619608 0.074510 0.000000
0.650980 0.082353 0.007843
0.678431 0.082353 0.007843
0.713726 0.090196 0.007843
0.745098 0.078431 0.011765
0.776471 0.078431 0.007843
0.803922 0.078431 0.015686
0.839216 0.086275 0.015686
0.870588 0.086275 0.007843
0.898039 0.082353 0.003922
0.929412 0.082353 0.011765
0.960784 0.082353 0.007843
0.996078 0.090196 0.019608
0.003922 0.117647 0.007843
0.011765 0.121569 0.000000
0.058824 0.117647 0.007843
0.090196 0.121569 0.000000
0.117647 0.117647 0.007843
0.149020 0.121569 0.003922
0.180392 0.117647 0.007843
0.207843 0.121569 0.000000
0.243137 0.117647 0.007843
0.270588 0.117647 0.000000
0.305882 0.117647 0.007843
0.337255 0.117647 0.007843
0.368627 0.117647 0.003922
0.400000 0.117647 0.003922
0.427451 0.117647 0.003922
0.462745 0.121569 0.007843
0.494118 0.117647 0.007843
0.525490 0.117647 0.007843
0.552941 0.117647 0.007843
0.588235 0.113725 0.007843
0.615686 0.117647 0.003922
0.650980 0.117647 0.003922
0.678431 0.121569 0.007843
0.713726 0.109804 0.007843
0.741176 0.113725 0.003922
0.776471 0.121569 0.011765
0.807843 0.121569 0.007843
0.835294 0.125490 0.015686
0.870588 0.109804 0.011765
0.901961 0.109804 0.007843
0.929412 0.109804 0.000000
0.960784 0.109804 0.007843
0.996078 0.117647 0.007843
0.000000 0.149020 0.000000
0.019608 0.149020 0.007843
0.058824 0.149020 0.007843
0.086275 0.149020 0.007843
0.121569 0.149020 0.007843
0.149020 0.149020 0.000000
0.180392 0.149020 0.003922
0.211765 0.149020 0.007843
0.239216 0.152941 0.007843
0.274510 0.149020 0.003922
0.305882 0.149020 0.000000
0.337255 0.149020 0.003922
0.368627 0.145098 0.007843
0.400000 0.149020 0.000000
0.431373 0.149020 0.007843
0.466667 0.149020 0.007843
0.498039 0.149020 0.007843
0.529412 0.145098 0.007843
0.556863 0.152941 0.007843
0.588235 0.149020 0.011765
0.619608 0.149020 0.007843
0.647059 0.152941 0.007843
0.682353 0.149020 0.003922
0.709804 0.149020 0.007843
0.745098 0.145098 0.007843
0.772549 0.149020 0.000000
0.807843 0.141176 0.007843
0.835294 0.141176 0.003922
0.870588 0.149020 0.015686
0.901961 0.152941 0.011765
0.933333 0.152941 0.007843
0.960784 0.156863 0.011765
0.996078 0.145098 0.007843
0.007843 0.180392 0.007843
0.035294 0.176471 0.000000
0.050980 0.184314 0.007843
0.082353 0.180392 0.007843
0.113725 0.180392 0.003922
0.152941 0.180392 0.007843
0.176471 0.180392 0.000000
0.211765 0.180392 0.011765
0.239216 0.180392 0.003922
0.274510 0.180392 0.007843
0.305882 0.180392 0.007843
0.337255 0.180392 0.003922
0.368627 0.180392 0.000000
0.403922 0.180392 0.007843
0.431373 0.180392 0.003922
0.466667 0.180392 0.011765
0.498039 0.180392 0.007843
0.525490 0.180392 0.007843
0.556863 0.180392 0.003922
0.588235 0.180392 0.007843
0.619608 0.180392 0.007843
0.654902 0.176471 0.003922
0.682353 0.184314 0.007843
0.717647 0.180392 0.019608
0.745098 0.184314 0.000000
0.780392 0.180392 0.007843
0.803922 0.180392 0.000000
0.839216 0.172549 0.007843
0.870588 0.180392 0.007843
0.898039 0.180392 0.011765
0.933333 0.172549 0.007843
0.960784 0.172549 0.015686
0.992157 0.176471 0.007843
0.000000 0.211765 0.003922
0.007843 0.215686 0.007843
0.058824 0.215686 0.007843
0.090196 0.211765 0.007843
0.113725 0.215686 0.007843
0.152941 0.211765 0.003922
0.180392 0.211765 0.007843
0.211765 0.211765 0.007843
0.239216 0.211765 0.000000
0.270588 0.211765 0.007843
0.309804 0.211765 0.000000
0.337255 0.211765 0.000000
0.368627 0.211765 0.007843
0.403922 0.215686 0.007843
0.431373 0.215686 0.000000
0.462745 0.211765 0.003922
0.494118 0.215686 0.000000
0.525490 0.211765 0.007843
0.556863 0.215686 0.011765
0.584314 0.211765 0.007843
0.615686 0.211765 0.003922
0.650980 0.215686 0.007843
0.682353 0.215686 0.007843
0.713726 0.207843 0.007843
0.741176 0.215686 0.003922
0.776471 0.211765 0.000000
0.807843 0.211765 0.007843
0.839216 0.215686 0.003922
0.866667 0.219608 0.011765
0.898039 0.207843 0.019608
0.929412 0.211765 0.011765
0.964706 0.207843 0.007843
0.996078 0.211765 0.015686
0.003922 0.239216 0.000000
0.023529 0.243137 0.007843
0.054902 0.243137 0.007843
0.074510 0.243137 0.000000
0.117647 0.243137 0.007843
0.145098 0.243137 0.011765
0.180392 0.243137 0.000000
0.211765 0.243137 0.000000
0.239216 0.243137 0.007843
0.274510 0.247059 0.000000
0.309804 0.243137 0.011765
0.337255 0.243137 0.011765
0.368627 0.243137 0.007843
0.400000 0.243137 0.007843
0.431373 0.243137 0.003922
0.466667 0.243137 0.007843
0.490196 0.243137 0.007843
0.525490 0.239216 0.003922
0.556863 0.243137 0.011765
0.588235 0.239216 0.007843
0.619608 0.247059 0.011765
0.650980 0.239216 0.007843
0.682353 0.243137 0.011765
0.713726 0.247059 0.007843
0.741176 0.243137 0.011765
0.776471 0.243137 0.007843
0.811765 0.243137 0.019608
0.835294 0.243137 0.007843
0.870588 0.243137 0.019608
0.898039 0.247059 0.011765
0.933333 0.243137 0.007843
0.960784 0.243137 0.007843
0.996078 0.239216 0.007843
0.000000 0.278431 0.007843
0.019608 0.274510 0.007843
0.054902 0.274510 0.007843
0.078431 0.274510 0.003922
0.117647 0.274510 0.007843
0.145098 0.274510 0.011765
0.180392 0.274510 0.007843
0.211765 0.278431 0.007843
0.239216 0.274510 0.003922
0.270588 0.274510 0.000000
0.305882 0.274510 0.011765
0.337255 0.274510 0.007843
0.368627 0.274510 0.003922
0.400000 0.274510 0.003922
0.431373 0.274510 0.007843
0.462745 0.274510 0.007843
0.490196 0.278431 0.003922
0.525490 0.274510 0.007843
0.556863 0.274510 0.011765
0.584314 0.274510 0.003922
0.619608 0.278431 0.011765
0.647059 0.278431 0.003922
0.686275 0.274510 0.011765
0.713726 0.274510 0.003922
0.749020 0.274510 0.011765
0.776471 0.274510 0.019608
0.807843 0.278431 0.011765
0.835294 0.274510 0.019608
0.870588 0.274510 0.011765
0.905882 0.274510 0.007843
0.929412 0.274510 0.011765
0.964706 0.274510 0.007843
0.996078 0.278431 0.015686
0.000000 0.305882 0.007843
0.007843 0.309804 0.011765
0.054902 0.305882 0.007843
0.094118 0.305882 0.007843
0.117647 0.305882 0.007843
0.141176 0.305882 0.003922
0.176471 0.309804 0.011765
0.211765 0.309804 0.007843
0.243137 0.305882 0.003922
0.274510 0.305882 0.011765
0.309804 0.305882 0.000000
0.333333 0.309804 0.007843
0.368627 0.305882 0.007843
0.400000 0.305882 0.000000
0.431373 0.305882 0.003922
0.462745 0.305882 0.003922
0.494118 0.305882 0.007843
0.525490 0.305882 0.011765
0.556863 0.305882 0.003922
0.588235 0.305882 0.007843
0.619608 0.305882 0.011765
0.647059 0.305882 0.015686
0.678431 0.305882 0.007843
0.713726 0.305882 0.015686
0.745098 0.305882 0.007843
0.776471 0.309804 0.015686
0.807843 0.305882 0.007843
0.835294 0.301961 0.011765
0.870588 0.305882 0.007843
0.898039 0.305882 0.007843
0.933333 0.305882 0.003922
0.968627 0.305882 0.019608
0.992157 0.305882 0.023529
0.000000 0.337255 0.007843
0.023529 0.337255 0.007843
0.058824 0.337255 0.000000
0.074510 0.337255 0.011765
0.109804 0.337255 0.007843
0.145098 0.337255 0.007843
0.180392 0.337255 0.000000
0.211765 0.337255 0.007843
0.243137 0.337255 0.007843
0.274510 0.333333 0.011765
0.301961 0.337255 0.007843
0.333333 0.337255 0.007843
0.368627 0.337255 0.007843
0.396078 0.337255 0.007843
0.427451 0.337255 0.007843
0.462745 0.337255 0.007843
0.490196 0.337255 0.007843
0.525490 0.337255 0.003922
0.560784 0.337255 0.007843
0.588235 0.341176 0.007843
0.623529 0.337255 0.015686
0.647059 0.337255 0.000000
0.686275 0.337255 0.011765
0.713726 0.337255 0.015686
0.745098 0.337255 0.007843
0.772549 0.337255 0.007843
0.803922 0.337255 0.015686
0.839216 0.341176 0.007843
0.866667 0.337255 0.015686
0.901961 0.341176 0.007843
0.933333 0.337255 0.015686
0.964706 0.333333 0.003922
0.992157 0.337255 0.015686
0.000000 0.368627 0.000000
0.007843 0.368627 0.015686
0.039216 0.368627 0.015686
0.070588 0.368627 0.003922
0.105882 0.368627 0.007843
0.137255 0.368627 0.011765
0.176471 0.368627 0.007843
0.207843 0.368627 0.011765
0.235294 0.368627 0.007843
0.270588 0.368627 0.011765
0.305882 0.368627 0.011765
0.337255 0.368627 0.007843
0.368627 0.368627 0.007843
0.396078 0.368627 0.003922
0.427451 0.368627 0.003922
0.462745 0.372549 0.007843
0.490196 0.368627 0.007843
0.521569 0.368627 0.007843
0.556863 0.368627 0.007843
0.592157 0.368627 0.015686
0.615686 0.368627 0.000000
0.650980 0.368627 0.023529
0.678431 0.368627 0.007843
0.713726 0.368627 0.015686
0.745098 0.368627 0.003922
0.772549 0.368627 0.007843
0.807843 0.364706 0.019608
0.839216 0.364706 0.007843
0.870588 0.368627 0.019608
0.901961 0.364706 0.023529
0.933333 0.364706 0.007843
0.964706 0.372549 0.023529
0.996078 0.368627 0.007843
0.000000 0.400000 0.003922
0.000000 0.400000 0.003922
0.062745 0.400000 0.007843
0.086275 0.400000 0.011765
0.109804 0.403922 0.015686
0.141176 0.400000 0.003922
0.180392 0.400000 0.007843
0.211765 0.400000 0.015686
0.243137 0.400000 0.007843
0.270588 0.400000 0.015686
0.309804 0.400000 0.015686
0.333333 0.400000 0.007843
0.368627 0.400000 0.007843
0.400000 0.403922 0.007843
0.431373 0.400000 0.011765
0.466667 0.403922 0.019608
0.498039 0.400000 0.019608
0.529412 0.400000 0.019608
0.552941 0.400000 0.000000
0.588235 0.400000 0.023529
0.619608 0.400000 0.007843
0.647059 0.400000 0.007843
0.682353 0.400000 0.015686
0.713726 0.403922 0.023529
0.749020 0.403922 0.007843
0.776471 0.403922 0.015686
0.807843 0.403922 0.023529
0.843137 0.400000 0.007843
0.874510 0.400000 0.015686
0.901961 0.400000 0.023529
0.933333 0.400000 0.007843
0.964706 0.400000 0.015686
0.988235 0.400000 0.019608
0.000000 0.435294 0.011765
0.000000 0.435294 0.011765
0.047059 0.431373 0.011765
0.074510 0.431373 0.011765
0.105882 0.431373 0.007843
0.152941 0.431373 0.007843
0.180392 0.431373 0.011765
0.219608 0.431373 0.007843
0.239216 0.431373 0.011765
0.270588 0.431373 0.003922
0.298039 0.431373 0.011765
0.337255 0.435294 0.007843
0.368627 0.431373 0.019608
0.396078 0.435294 0.000000
0.431373 0.435294 0.015686
0.458824 0.431373 0.007843
0.490196 0.431373 0.007843
0.525490 0.431373 0.011765
0.556863 0.431373 0.011765
0.588235 0.431373 0.011765
0.619608 0.435294 0.015686
0.650980 0.431373 0.015686
0.686275 0.431373 0.023529
0.709804 0.431373 0.023529
0.741176 0.431373 0.007843
0.776471 0.431373 0.015686
0.807843 0.435294 0.023529
0.843137 0.431373 0.007843
0.874510 0.431373 0.015686
0.901961 0.431373 0.023529
0.933333 0.431373 0.027451
0.964706 0.431373 0.011765
0.996078 0.431373 0.023529
0.000000 0.466667 0.015686
0.000000 0.466667 0.000000
0.000000 0.462745 0.000000
0.062745 0.462745 0.000000
0.117647 0.462745 0.007843
0.137255 0.466667 0.015686
0.180392 0.462745 0.019608
0.211765 0.462745 0.007843
0.243137 0.462745 0.015686
0.278431 0.462745 0.007843
0.305882 0.462745 0.015686
0.333333 0.462745 0.007843
0.372549 0.462745 0.007843
0.396078 0.462745 0.011765
0.431373 0.462745 0.011765
0.466667 0.462745 0.011765
0.490196 0.462745 0.003922
0.521569 0.462745 0.000000
0.552941 0.462745 0.000000
0.588235 0.462745 0.007843
0.619608 0.462745 0.023529
0.647059 0.462745 0.003922
0.682353 0.462745 0.007843
0.713726 0.462745 0.007843
0.745098 0.462745 0.015686
0.780392 0.462745 0.023529
0.803922 0.462745 0.023529
0.835294 0.462745 0.007843
0.870588 0.462745 0.015686
0.901961 0.462745 0.023529
0.933333 0.466667 0.027451
0.964706 0.466667 0.011765
0.996078 0.466667 0.019608
0.000000 0.494118 0.003922
0.000000 0.494118 0.003922
0.000000 0.494118 0.007843
0.050980 0.498039 0.011765
0.086275 0.494118 0.011765
0.133333 0.498039 0.023529
0.180392 0.494118 0.003922
0.211765 0.494118 0.011765
0.247059 0.494118 0.023529
0.274510 0.498039 0.007843
0.305882 0.498039 0.019608
0.333333 0.494118 0.007843
0.368627 0.494118 0.023529
0.400000 0.498039 0.019608
0.423529 0.494118 0.007843
0.462745 0.498039 0.007843
0.490196 0.494118 0.019608
0.525490 0.494118 0.015686
0.556863 0.494118 0.015686
0.584314 0.494118 0.011765
0.615686 0.494118 0.011765
0.650980 0.498039 0.019608
0.686275 0.494118 0.019608
0.709804 0.494118 0.015686
0.745098 0.494118 0.023529
0.772549 0.494118 0.023529
0.807843 0.494118 0.007843
0.835294 0.494118 0.003922
0.866667 0.494118 0.011765
0.901961 0.494118 0.023529
0.933333 0.494118 0.027451
0.964706 0.498039 0.007843
0.996078 0.498039 0.019608
0.000000 0.525490 0.007843
0.000000 0.525490 0.007843
0.000000 0.525490 0.007843
0.023529 0.529412 0.015686
0.098039 0.525490 0.019608
0.125490 0.529412 0.023529
0.164706 0.525490 0.007843
0.211765 0.525490 0.015686
0.239216 0.529412 0.023529
0.274510 0.525490 0.007843
0.305882 0.525490 0.019608
0.337255 0.525490 0.007843
0.368627 0.525490 0.023529
0.396078 0.525490 0.011765
0.431373 0.525490 0.007843
0.458824 0.525490 0.023529
0.490196 0.525490 0.011765
0.525490 0.525490 0.011765
0.552941 0.525490 0.007843
0.588235 0.525490 0.007843
0.619608 0.525490 0.027451
0.647059 0.525490 0.003922
0.678431 0.525490 0.023529
0.713726 0.525490 0.003922
0.745098 0.529412 0.007843
0.776471 0.525490 0.007843
0.807843 0.529412 0.011765
0.839216 0.525490 0.011765
0.870588 0.529412 0.023529
0.901961 0.521569 0.023529
0.933333 0.525490 0.003922
0.964706 0.525490 0.007843
0.996078 0.529412 0.019608
0.000000 0.556863 0.011765
0.000000 0.556863 0.011765
0.000000 0.560784 0.023529
0.039216 0.560784 0.023529
0.078431 0.556863 0.023529
0.113725 0.556863 0.003922
0.160784 0.556863 0.011765
0.196078 0.560784 0.023529
0.227451 0.556863 0.000000
0.278431 0.556863 0.011765
0.301961 0.556863 0.023529
0.333333 0.556863 0.007843
0.364706 0.556863 0.023529
0.403922 0.556863 0.007843
0.431373 0.556863 0.031373
0.458824 0.556863 0.019608
0.498039 0.560784 0.015686
0.521569 0.556863 0.007843
0.556863 0.556863 0.003922
0.592157 0.556863 0.023529
0.619608 0.560784 0.023529
0.647059 0.556863 0.011765
0.686275 0.556863 0.023529
0.713726 0.560784 0.019608
0.745098 0.556863 0.015686
0.776471 0.556863 0.015686
0.807843 0.560784 0.023529
0.839216 0.556863 0.023529
0.866667 0.556863 0.019608
0.898039 0.556863 0.027451
0.937255 0.556863 0.039216
0.960784 0.556863 0.007843
0.992157 0.556863 0.015686
0.000000 0.588235 0.019608
0.000000 0.588235 0.019608
0.000000 0.588235 0.019608
0.011765 0.592157 0.007843
0.090196 0.588235 0.031373
0.125490 0.588235 0.007843
0.152941 0.592157 0.015686
0.188235 0.588235 0.019608
0.223529 0.588235 0.007843
0.254902 0.592157 0.015686
0.305882 0.592157 0.027451
0.337255 0.584314 0.007843
0.372549 0.588235 0.023529
0.403922 0.588235 0.011765
0.431373 0.588235 0.023529
0.458824 0.588235 0.011765
0.498039 0.588235 0.011765
0.521569 0.588235 0.023529
0.556863 0.588235 0.023529
0.584314 0.588235 0.007843
0.615686 0.588235 0.007843
0.650980 0.588235 0.007843
0.678431 0.588235 0.027451
0.713726 0.588235 0.027451
0.745098 0.588235 0.027451
0.772549 0.588235 0.023529
0.811765 0.588235 0.035294
0.839216 0.588235 0.031373
0.870588 0.588235 0.031373
0.901961 0.592157 0.007843
0.929412 0.588235 0.007843
0.964706 0.588235 0.019608
0.992157 0.588235 0.015686
0.000000 0.619608 0.000000
0.000000 0.619608 0.000000
0.000000 0.619608 0.023529
0.027451 0.623529 0.007843
0.078431 0.623529 0.011765
0.109804 0.619608 0.011765
0.164706 0.623529 0.023529
0.184314 0.619608 0.023529
0.223529 0.623529 0.007843
0.262745 0.619608 0.011765
0.290196 0.619608 0.023529
0.329412 0.619608 0.007843
0.364706 0.619608 0.023529
0.396078 0.619608 0.007843
0.435294 0.619608 0.023529
0.458824 0.623529 0.019608
0.494118 0.619608 0.007843
0.521569 0.619608 0.019608
0.556863 0.619608 0.015686
0.584314 0.619608 0.031373
0.619608 0.619608 0.027451
0.647059 0.623529 0.023529
0.682353 0.623529 0.023529
0.717647 0.619608 0.023529
0.745098 0.623529 0.019608
0.780392 0.619608 0.019608
0.807843 0.623529 0.015686
0.839216 0.619608 0.011765
0.866667 0.619608 0.011765
0.898039 0.619608 0.007843
0.929412 0.623529 0.019608
0.964706 0.619608 0.019608
0.996078 0.619608 0.027451
0.000000 0.650980 0.007843
0.000000 0.650980 0.007843
0.000000 0.650980 0.007843
0.023529 0.650980 0.007843
0.090196 0.654902 0.019608
0.121569 0.650980 0.019608
0.149020 0.650980 0.019608
0.192157 0.650980 0.031373
0.215686 0.650980 0.007843
0.262745 0.650980 0.019608
0.294118 0.654902 0.031373
0.321569 0.654902 0.015686
0.364706 0.650980 0.019608
0.400000 0.650980 0.007843
0.427451 0.647059 0.019608
0.462745 0.650980 0.015686
0.490196 0.650980 0.027451
0.521569 0.650980 0.011765
0.560784 0.650980 0.007843
0.584314 0.650980 0.023529
0.619608 0.650980 0.023529
0.647059 0.650980 0.007843
0.682353 0.650980 0.007843
0.717647 0.650980 0.007843
0.745098 0.650980 0.031373
0.776471 0.650980 0.031373
0.807843 0.650980 0.023529
0.839216 0.650980 0.023529
0.866667 0.650980 0.023529
0.901961 0.650980 0.023529
0.933333 0.654902 0.031373
0.960784 0.654902 0.027451
0.992157 0.650980 0.027451
0.000000 0.686275 0.011765
0.000000 0.686275 0.011765
0.000000 0.682353 0.011765
0.043137 0.682353 0.015686
0.043137 0.682353 0.015686
0.101961 0.686275 0.023529
0.133333 0.682353 0.027451
0.192157 0.686275 0.007843
0.227451 0.682353 0.011765
0.262745 0.686275 0.023529
0.290196 0.682353 0.027451
0.321569 0.682353 0.007843
0.356863 0.682353 0.023529
0.384314 0.686275 0.007843
0.427451 0.682353 0.023529
0.458824 0.682353 0.007843
0.490196 0.682353 0.023529
0.525490 0.682353 0.007843
0.556863 0.682353 0.035294
0.584314 0.682353 0.019608
0.623529 0.682353 0.015686
0.647059 0.682353 0.035294
0.682353 0.682353 0.031373
0.713726 0.686275 0.023529
0.745098 0.682353 0.011765
0.772549 0.682353 0.007843
0.807843 0.682353 0.007843
0.835294 0.682353 0.003922
0.866667 0.682353 0.039216
0.898039 0.682353 0.035294
0.933333 0.686275 0.043137
0.960784 0.686275 0.039216
0.996078 0.682353 0.039216
0.000000 0.717647 0.019608
0.000000 0.717647 0.019608
0.000000 0.717647 0.023529
0.000000 0.717647 0.023529
0.062745 0.713726 0.023529
0.105882 0.713726 0.023529
0.145098 0.717647 0.035294
0.196078 0.713726 0.007843
0.223529 0.717647 0.019608
0.254902 0.713726 0.023529
0.290196 0.717647 0.035294
0.321569 0.717647 0.015686
0.356863 0.713726 0.023529
0.384314 0.713726 0.035294
0.419608 0.713726 0.019608
0.462745 0.713726 0.003922
0.490196 0.713726 0.019608
0.525490 0.717647 0.011765
0.552941 0.713726 0.027451
0.584314 0.713726 0.011765
0.623529 0.717647 0.007843
0.647059 0.713726 0.027451
0.686275 0.713726 0.023529
0.709804 0.713726 0.007843
0.745098 0.713726 0.039216
0.776471 0.717647 0.039216
0.811765 0.713726 0.035294
0.835294 0.713726 0.019608
0.870588 0.709804 0.015686
0.898039 0.713726 0.011765
0.937255 0.713726 0.023529
0.964706 0.717647 0.019608
0.992157 0.717647 0.015686
0.000000 0.745098 0.015686
0.000000 0.745098 0.015686
0.000000 0.745098 0.015686
0.007843 0.749020 0.027451
0.082353 0.749020 0.031373
0.121569 0.745098 0.031373
0.156863 0.745098 0.000000
0.188235 0.749020 0.011765
0.227451 0.745098 0.015686
0.250980 0.749020 0.027451
0.282353 0.745098 0.031373
0.317647 0.749020 0.011765
0.360784 0.749020 0.027451
0.388235 0.749020 0.007843
0.419608 0.745098 0.011765
0.454902 0.745098 0.031373
0.494118 0.741176 0.011765
0.521569 0.749020 0.039216
0.560784 0.745098 0.023529
0.588235 0.745098 0.043137
0.615686 0.745098 0.023529
0.647059 0.745098 0.019608
0.682353 0.745098 0.007843
0.709804 0.745098 0.035294
0.745098 0.741176 0.023529
0.772549 0.745098 0.015686
0.811765 0.745098 0.011765
0.839216 0.745098 0.043137
0.874510 0.745098 0.043137
0.901961 0.749020 0.039216
0.929412 0.749020 0.035294
0.964706 0.745098 0.035294
0.992157 0.749020 0.027451
0.000000 0.780392 0.023529
0.000000 0.776471 0.023529
0.000000 0.776471 0.023529
0.007843 0.776471 0.027451
0.007843 0.776471 0.027451
0.094118 0.780392 0.039216
0.137255 0.780392 0.007843
0.192157 0.776471 0.007843
0.219608 0.780392 0.023529
0.258824 0.776471 0.023529
0.294118 0.780392 0.039216
0.313726 0.776471 0.007843
0.356863 0.776471 0.023529
0.388235 0.780392 0.003922
0.423529 0.780392 0.023529
0.450980 0.780392 0.035294
0.486275 0.780392 0.015686
0.525490 0.776471 0.039216
0.556863 0.776471 0.019608
0.584314 0.776471 0.039216
0.615686 0.776471 0.019608
0.654902 0.776471 0.015686
0.682353 0.776471 0.035294
0.713726 0.780392 0.027451
0.745098 0.776471 0.011765
0.776471 0.776471 0.047059
0.807843 0.772549 0.027451
0.839216 0.776471 0.023529
0.866667 0.776471 0.019608
0.901961 0.776471 0.015686
0.933333 0.780392 0.011765
0.964706 0.776471 0.050980
0.996078 0.780392 0.047059
0.000000 0.807843 0.023529
0.000000 0.807843 0.023529
0.000000 0.811765 0.035294
0.000000 0.811765 0.035294
0.031373 0.811765 0.039216
0.098039 0.807843 0.039216
0.141176 0.807843 0.003922
0.180392 0.811765 0.015686
0.227451 0.807843 0.019608
0.250980 0.811765 0.035294
0.286275 0.807843 0.039216
0.325490 0.811765 0.015686
0.352941 0.807843 0.019608
0.380392 0.807843 0.035294
0.423529 0.807843 0.015686
0.450980 0.811765 0.031373
0.486275 0.811765 0.011765
0.517647 0.811765 0.031373
0.560784 0.807843 0.011765
0.588235 0.807843 0.031373
0.619608 0.807843 0.011765
0.650980 0.811765 0.047059
0.682353 0.807843 0.023529
0.709804 0.807843 0.007843
0.745098 0.807843 0.039216
0.772549 0.807843 0.023529
0.811765 0.807843 0.019608
0.839216 0.811765 0.054902
0.866667 0.807843 0.039216
