test_output_lut/011_ct.cube
TITLE "Color Transfer LUT - 011"
LUT_3D_SIZE 9
0.000000 0.000000 0.000000
0.117647 0.000000 0.000000
0.243137 0.000000 0.011765
0.364706 0.007843 0.007843
0.498039 0.000000 0.007843
0.615686 0.000000 0.007843
0.741176 0.000000 0.007843
0.870588 0.003922 0.007843
0.996078 0.000000 0.015686
0.003922 0.117647 0.007843
0.117647 0.117647 0.007843
0.243137 0.117647 0.007843
0.368627 0.117647 0.003922
0.494118 0.117647 0.007843
0.615686 0.117647 0.003922
0.741176 0.113725 0.003922
0.870588 0.109804 0.011765
0.996078 0.117647 0.007843
0.003922 0.239216 0.000000
0.117647 0.243137 0.007843
0.239216 0.243137 0.007843
0.368627 0.243137 0.007843
0.490196 0.243137 0.007843
0.619608 0.247059 0.011765
0.741176 0.243137 0.011765
0.870588 0.243137 0.019608
0.996078 0.239216 0.007843
0.000000 0.368627 0.000000
0.105882 0.368627 0.007843
0.235294 0.368627 0.007843
0.368627 0.368627 0.007843
0.490196 0.368627 0.007843
0.615686 0.368627 0.000000
0.745098 0.368627 0.003922
0.870588 0.368627 0.019608
0.996078 0.368627 0.007843
0.000000 0.494118 0.003922
0.086275 0.494118 0.011765
0.247059 0.494118 0.023529
0.368627 0.494118 0.023529
0.490196 0.494118 0.019608
0.615686 0.494118 0.011765
0.745098 0.494118 0.023529
0.866667 0.494118 0.011765
0.996078 0.498039 0.019608
0.000000 0.619608 0.000000
0.078431 0.623529 0.011765
0.223529 0.623529 0.007843
0.364706 0.619608 0.023529
0.494118 0.619608 0.007843
0.619608 0.619608 0.027451
0.745098 0.623529 0.019608
0.866667 0.619608 0.011765
0.996078 0.619608 0.027451
0.000000 0.745098 0.015686
0.082353 0.749020 0.031373
0.227451 0.745098 0.015686
0.360784 0.749020 0.027451
0.494118 0.741176 0.011765
0.615686 0.745098 0.023529
0.745098 0.741176 0.023529
0.874510 0.745098 0.043137
0.992157 0.749020 0.027451
0.000000 0.870588 0.027451
0.058824 0.870588 0.047059
0.223529 0.870588 0.023529
0.345098 0.874510 0.023529
0.486275 0.870588 0.039216
0.619608 0.870588 0.039216
0.741176 0.870588 0.007843
0.870588 0.870588 0.050980
0.996078 0.870588 0.011765
0.000000 0.996078 0.043137
0.000000 0.996078 0.047059
0.192157 0.996078 0.019608
0.349020 1.000000 0.015686
0.478431 0.996078 0.019608
0.611765 1.000000 0.058824
0.733333 1.000000 0.054902
0.866667 0.996078 0.023529
0.992157 0.996078 0.007843
0.000000 0.000000 0.113725
0.113725 0.000000 0.117647
0.243137 0.003922 0.117647
0.360784 0.007843 0.125490
0.494118 0.000000 0.121569
0.619608 0.000000 0.125490
0.745098 0.000000 0.125490
0.870588 0.000000 0.121569
0.992157 0.000000 0.121569
0.000000 0.121569 0.121569
0.117647 0.117647 0.117647
0.243137 0.121569 0.125490
0.364706 0.117647 0.121569
0.494118 0.113725 0.121569
0.619608 0.117647 0.125490
0.745098 0.121569 0.121569
0.866667 0.113725 0.121569
0.992157 0.121569 0.129412
0.000000 0.243137 0.121569
0.113725 0.243137 0.125490
0.239216 0.243137 0.121569
0.368627 0.247059 0.125490
0.490196 0.243137 0.125490
0.615686 0.243137 0.121569
0.741176 0.239216 0.125490
0.866667 0.243137 0.125490
0.992157 0.239216 0.129412
0.000000 0.368627 0.125490
0.105882 0.372549 0.125490
0.243137 0.368627 0.125490
0.368627 0.368627 0.129412
0.490196 0.368627 0.125490
0.619608 0.368627 0.129412
0.745098 0.364706 0.125490
0.870588 0.368627 0.129412
0.992157 0.368627 0.121569
0.000000 0.494118 0.129412
0.098039 0.498039 0.129412
0.243137 0.494118 0.129412
0.364706 0.494118 0.133333
0.494118 0.498039 0.125490
0.619608 0.494118 0.125490
0.741176 0.494118 0.133333
0.866667 0.494118 0.133333
0.996078 0.494118 0.129412
0.000000 0.619608 0.129412
0.062745 0.619608 0.121569
0.215686 0.623529 0.133333
0.364706 0.619608 0.129412
0.494118 0.619608 0.125490
0.619608 0.619608 0.125490
0.745098 0.619608 0.137255
0.866667 0.619608 0.137255
0.992157 0.619608 0.133333
0.000000 0.745098 0.129412
0.078431 0.745098 0.137255
0.207843 0.745098 0.129412
0.349020 0.749020 0.133333
0.494118 0.749020 0.133333
0.623529 0.745098 0.129412
0.745098 0.749020 0.141176
0.870588 0.745098 0.133333
0.996078 0.745098 0.133333
0.000000 0.874510 0.137255
0.070588 0.870588 0.141176
0.203922 0.870588 0.133333
0.349020 0.870588 0.133333
0.478431 0.870588 0.141176
0.615686 0.870588 0.141176
0.745098 0.870588 0.129412
0.870588 0.870588 0.129412
0.992157 0.870588 0.133333
0.000000 1.000000 0.133333
0.019608 0.996078 0.133333
0.207843 0.996078 0.121569
0.352941 0.996078 0.141176
0.486275 0.996078 0.121569
0.603922 1.000000 0.141176
0.737255 0.996078 0.141176
0.870588 0.996078 0.129412
0.996078 0.996078 0.149020
0.003922 0.000000 0.243137
0.117647 0.000000 0.243137
0.243137 0.000000 0.243137
0.368627 0.000000 0.247059
0.494118 0.000000 0.243137
0.615686 0.000000 0.247059
0.745098 0.000000 0.250980
0.870588 0.000000 0.250980
0.996078 0.000000 0.250980
0.000000 0.117647 0.243137
0.121569 0.117647 0.247059
0.243137 0.121569 0.247059
0.368627 0.113725 0.243137
0.494118 0.117647 0.247059
0.615686 0.121569 0.243137
0.745098 0.113725 0.250980
0.866667 0.113725 0.250980
0.992157 0.113725 0.250980
0.000000 0.247059 0.243137
0.113725 0.243137 0.243137
0.243137 0.243137 0.243137
0.364706 0.243137 0.247059
0.490196 0.247059 0.247059
0.619608 0.243137 0.247059
0.741176 0.243137 0.247059
0.866667 0.243137 0.250980
0.996078 0.239216 0.250980
0.000000 0.368627 0.247059
0.109804 0.368627 0.247059
0.243137 0.368627 0.250980
0.372549 0.368627 0.250980
0.494118 0.368627 0.250980
0.615686 0.368627 0.250980
0.741176 0.368627 0.247059
0.870588 0.372549 0.250980
0.996078 0.368627 0.250980
0.000000 0.494118 0.250980
0.109804 0.494118 0.250980
0.247059 0.494118 0.247059
0.368627 0.494118 0.250980
0.490196 0.494118 0.247059
0.619608 0.494118 0.250980
0.749020 0.494118 0.250980
0.870588 0.494118 0.247059
0.992157 0.494118 0.247059
0.000000 0.619608 0.247059
0.058824 0.623529 0.250980
0.219608 0.623529 0.250980
0.368627 0.619608 0.250980
0.498039 0.619608 0.247059
0.619608 0.619608 0.250980
0.741176 0.619608 0.250980
0.870588 0.619608 0.254902
0.992157 0.619608 0.254902
0.000000 0.749020 0.247059
0.050980 0.745098 0.247059
0.227451 0.745098 0.247059
0.345098 0.745098 0.250980
0.494118 0.745098 0.250980
0.615686 0.745098 0.258824
0.741176 0.745098 0.247059
0.866667 0.745098 0.254902
0.996078 0.745098 0.258824
0.000000 0.870588 0.254902
0.078431 0.870588 0.247059
0.200000 0.870588 0.250980
0.356863 0.874510 0.258824
0.486275 0.874510 0.250980
0.623529 0.870588 0.254902
0.745098 0.874510 0.258824
0.870588 0.874510 0.262745
0.992157 0.870588 0.250980
0.000000 0.996078 0.254902
0.000000 1.000000 0.258824
0.192157 1.000000 0.254902
0.345098 0.996078 0.250980
0.482353 1.000000 0.254902
0.603922 1.000000 0.250980
0.745098 0.996078 0.250980
0.866667 0.996078 0.258824
0.996078 0.996078 0.258824
0.000000 0.000000 0.364706
0.117647 0.000000 0.368627
0.247059 0.000000 0.368627
0.368627 0.000000 0.372549
0.494118 0.000000 0.372549
0.619608 0.000000 0.372549
0.745098 0.000000 0.368627
0.870588 0.007843 0.376471
0.992157 0.003922 0.372549
0.000000 0.117647 0.372549
0.117647 0.121569 0.368627
0.250980 0.117647 0.368627
0.368627 0.117647 0.364706
0.494118 0.117647 0.368627
0.623529 0.113725 0.372549
0.745098 0.113725 0.376471
0.870588 0.113725 0.376471
0.992157 0.125490 0.376471
0.000000 0.243137 0.368627
0.105882 0.247059 0.372549
0.239216 0.243137 0.368627
0.368627 0.243137 0.364706
0.494118 0.243137 0.364706
0.619608 0.243137 0.364706
0.741176 0.247059 0.376471
0.866667 0.243137 0.372549
0.992157 0.243137 0.372549
0.000000 0.368627 0.368627
0.109804 0.368627 0.368627
0.239216 0.368627 0.372549
0.368627 0.368627 0.368627
0.490196 0.368627 0.376471
0.615686 0.368627 0.376471
0.745098 0.364706 0.372549
0.870588 0.368627 0.380392
0.996078 0.368627 0.376471
0.000000 0.494118 0.376471
0.117647 0.494118 0.372549
0.231373 0.494118 0.376471
0.368627 0.494118 0.376471
0.490196 0.498039 0.372549
0.619608 0.498039 0.376471
0.745098 0.498039 0.372549
0.866667 0.494118 0.380392
0.992157 0.494118 0.376471
0.000000 0.619608 0.372549
0.078431 0.619608 0.376471
0.235294 0.619608 0.380392
0.364706 0.619608 0.376471
0.490196 0.623529 0.376471
0.615686 0.623529 0.380392
0.745098 0.619608 0.372549
0.870588 0.623529 0.380392
0.996078 0.619608 0.376471
0.000000 0.749020 0.376471
0.007843 0.745098 0.380392
0.223529 0.749020 0.380392
0.352941 0.745098 0.372549
0.490196 0.745098 0.376471
0.619608 0.745098 0.372549
0.745098 0.745098 0.376471
0.870588 0.745098 0.376471
0.992157 0.745098 0.380392
0.000000 0.874510 0.380392
0.043137 0.870588 0.372549
0.192157 0.870588 0.380392
0.349020 0.870588 0.380392
0.474510 0.870588 0.376471
0.615686 0.870588 0.380392
0.741176 0.870588 0.376471
0.870588 0.870588 0.380392
0.996078 0.870588 0.376471
0.000000 0.996078 0.376471
0.000000 0.996078 0.376471
0.196078 0.996078 0.372549
0.352941 0.996078 0.384314
0.474510 0.996078 0.372549
0.611765 1.000000 0.376471
0.749020 0.996078 0.376471
0.874510 0.996078 0.372549
0.996078 0.996078 0.376471
0.000000 0.000000 0.494118
0.121569 0.000000 0.490196
0.247059 0.000000 0.494118
0.364706 0.000000 0.494118
0.494118 0.000000 0.490196
0.615686 0.000000 0.494118
0.745098 0.000000 0.498039
0.874510 0.000000 0.494118
0.992157 0.007843 0.498039
0.000000 0.121569 0.498039
0.109804 0.117647 0.498039
0.239216 0.121569 0.498039
0.372549 0.117647 0.494118
0.494118 0.113725 0.494118
0.619608 0.117647 0.494118
0.745098 0.109804 0.490196
0.870588 0.117647 0.498039
1.000000 0.109804 0.501961
0.000000 0.247059 0.494118
0.105882 0.243137 0.498039
0.247059 0.243137 0.490196
0.364706 0.243137 0.494118
0.494118 0.247059 0.494118
0.615686 0.243137 0.498039
0.745098 0.239216 0.494118
0.874510 0.243137 0.494118
0.992157 0.247059 0.498039
0.000000 0.368627 0.494118
0.105882 0.372549 0.498039
0.239216 0.368627 0.498039
0.372549 0.368627 0.498039
0.494118 0.368627 0.498039
0.619608 0.364706 0.494118
0.745098 0.372549 0.498039
0.870588 0.368627 0.501961
0.992157 0.368627 0.501961
0.000000 0.494118 0.490196
0.117647 0.494118 0.494118
0.250980 0.494118 0.494118
0.372549 0.494118 0.498039
0.494118 0.494118 0.494118
0.615686 0.494118 0.498039
0.741176 0.494118 0.501961
0.870588 0.498039 0.505882
1.000000 0.494118 0.501961
0.000000 0.619608 0.501961
0.098039 0.623529 0.505882
0.231373 0.619608 0.501961
0.364706 0.623529 0.505882
0.486275 0.619608 0.501961
0.619608 0.619608 0.498039
0.741176 0.619608 0.501961
0.870588 0.619608 0.501961
0.992157 0.619608 0.498039
0.000000 0.745098 0.501961
0.003922 0.749020 0.505882
0.203922 0.749020 0.505882
0.364706 0.749020 0.501961
0.494118 0.745098 0.501961
0.619608 0.745098 0.501961
0.741176 0.745098 0.505882
0.870588 0.745098 0.505882
0.996078 0.745098 0.501961
0.000000 0.874510 0.505882
0.039216 0.870588 0.501961
0.192157 0.870588 0.505882
0.345098 0.870588 0.498039
0.470588 0.874510 0.501961
0.619608 0.870588 0.498039
0.741176 0.870588 0.498039
0.866667 0.870588 0.501961
0.996078 0.870588 0.501961
0.000000 1.000000 0.501961
0.000000 0.996078 0.501961
0.192157 0.996078 0.501961
0.341176 1.000000 0.501961
0.478431 0.996078 0.501961
0.603922 0.996078 0.501961
0.741176 1.000000 0.505882
0.870588 1.000000 0.505882
0.988235 0.996078 0.505882
0.000000 0.000000 0.623529
0.105882 0.000000 0.623529
0.247059 0.000000 0.615686
0.368627 0.000000 0.619608
0.494118 0.000000 0.615686
0.619608 0.000000 0.619608
0.745098 0.000000 0.619608
0.870588 0.000000 0.619608
0.996078 0.000000 0.623529
0.007843 0.117647 0.619608
0.121569 0.117647 0.615686
0.247059 0.117647 0.619608
0.368627 0.121569 0.623529
0.498039 0.117647 0.619608
0.619608 0.113725 0.619608
0.745098 0.109804 0.623529
0.870588 0.121569 0.619608
0.996078 0.117647 0.615686
0.000000 0.243137 0.619608
0.117647 0.243137 0.615686
0.239216 0.247059 0.619608
0.368627 0.243137 0.615686
0.494118 0.243137 0.619608
0.615686 0.247059 0.623529
0.749020 0.243137 0.619608
0.866667 0.243137 0.619608
0.992157 0.243137 0.619608
0.000000 0.372549 0.619608
0.133333 0.368627 0.619608
0.247059 0.368627 0.615686
0.368627 0.364706 0.619608
0.494118 0.368627 0.619608
0.615686 0.368627 0.619608
0.741176 0.368627 0.619608
0.866667 0.372549 0.623529
0.996078 0.372549 0.623529
0.000000 0.494118 0.615686
0.094118 0.494118 0.619608
0.243137 0.498039 0.619608
0.368627 0.498039 0.623529
0.494118 0.494118 0.619608
0.619608 0.494118 0.619608
0.745098 0.498039 0.623529
0.874510 0.494118 0.623529
0.992157 0.494118 0.623529
0.000000 0.619608 0.619608
0.125490 0.619608 0.615686
0.243137 0.623529 0.619608
0.360784 0.623529 0.623529
0.490196 0.619608 0.619608
0.619608 0.619608 0.619608
0.741176 0.619608 0.627451
0.874510 0.619608 0.623529
0.996078 0.619608 0.627451
0.000000 0.749020 0.627451
0.019608 0.745098 0.627451
0.219608 0.749020 0.627451
0.364706 0.745098 0.623529
0.498039 0.745098 0.627451
0.619608 0.749020 0.627451
0.745098 0.741176 0.627451
0.866667 0.745098 0.627451
0.992157 0.745098 0.627451
0.000000 0.870588 0.627451
0.000000 0.874510 0.631373
0.196078 0.874510 0.627451
0.349020 0.874510 0.627451
0.494118 0.870588 0.627451
0.611765 0.870588 0.627451
0.737255 0.870588 0.627451
0.866667 0.870588 0.631373
0.992157 0.870588 0.631373
0.000000 0.996078 0.627451
0.000000 0.996078 0.627451
0.211765 0.996078 0.627451
0.352941 0.996078 0.627451
0.466667 0.996078 0.627451
0.603922 1.000000 0.631373
0.741176 1.000000 0.627451
0.874510 0.996078 0.627451
0.988235 0.996078 0.623529
0.000000 0.000000 0.745098
0.117647 0.000000 0.745098
0.243137 0.000000 0.745098
0.364706 0.000000 0.745098
0.494118 0.000000 0.745098
0.619608 0.000000 0.745098
0.745098 0.000000 0.745098
0.870588 0.007843 0.745098
0.996078 0.000000 0.749020
0.000000 0.121569 0.745098
0.121569 0.121569 0.745098
0.239216 0.117647 0.749020
0.368627 0.117647 0.745098
0.490196 0.121569 0.745098
0.615686 0.125490 0.749020
0.741176 0.117647 0.745098
0.870588 0.121569 0.749020
0.992157 0.121569 0.741176
0.000000 0.243137 0.745098
0.105882 0.247059 0.749020
0.239216 0.247059 0.745098
0.360784 0.243137 0.745098
0.494118 0.239216 0.745098
0.619608 0.239216 0.745098
0.745098 0.243137 0.749020
0.870588 0.247059 0.745098
0.996078 0.239216 0.745098
0.000000 0.368627 0.749020
0.105882 0.368627 0.745098
0.239216 0.368627 0.745098
0.360784 0.368627 0.745098
0.490196 0.368627 0.745098
0.619608 0.368627 0.741176
0.745098 0.368627 0.749020
0.870588 0.368627 0.741176
0.996078 0.364706 0.745098
0.000000 0.494118 0.749020
0.105882 0.494118 0.745098
0.231373 0.494118 0.749020
0.372549 0.494118 0.745098
0.498039 0.494118 0.745098
0.619608 0.494118 0.745098
0.745098 0.494118 0.741176
0.874510 0.490196 0.741176
1.000000 0.494118 0.749020
0.011765 0.619608 0.741176
0.098039 0.619608 0.749020
0.235294 0.619608 0.745098
0.360784 0.619608 0.745098
0.498039 0.619608 0.745098
0.627451 0.619608 0.745098
0.745098 0.623529 0.745098
0.874510 0.619608 0.745098
1.000000 0.619608 0.745098
0.000000 0.745098 0.741176
0.133333 0.745098 0.745098
0.243137 0.745098 0.745098
0.368627 0.745098 0.745098
0.494118 0.745098 0.749020
0.615686 0.749020 0.749020
0.745098 0.745098 0.745098
0.862745 0.745098 0.752941
0.992157 0.745098 0.752941
0.000000 0.870588 0.745098
0.031373 0.870588 0.745098
0.200000 0.870588 0.749020
0.356863 0.870588 0.752941
0.486275 0.870588 0.749020
0.611765 0.870588 0.752941
0.737255 0.870588 0.752941
0.870588 0.870588 0.752941
0.988235 0.870588 0.749020
0.000000 0.996078 0.749020
0.000000 1.000000 0.752941
0.184314 1.000000 0.756863
0.341176 0.996078 0.752941
0.474510 1.000000 0.752941
0.611765 0.996078 0.752941
0.741176 0.996078 0.756863
0.870588 0.996078 0.756863
0.996078 1.000000 0.752941
0.000000 0.007843 0.870588
0.125490 0.000000 0.870588
0.243137 0.000000 0.870588
0.360784 0.000000 0.870588
0.490196 0.007843 0.874510
0.619608 0.000000 0.870588
0.745098 0.000000 0.870588
0.870588 0.000000 0.870588
0.996078 0.000000 0.874510
0.007843 0.117647 0.866667
0.105882 0.121569 0.870588
0.247059 0.113725 0.866667
0.368627 0.113725 0.866667
0.490196 0.117647 0.870588
0.619608 0.121569 0.870588
0.741176 0.117647 0.866667
0.874510 0.105882 0.870588
0.996078 0.121569 0.870588
0.000000 0.243137 0.870588
0.129412 0.243137 0.870588
0.235294 0.243137 0.870588
0.364706 0.239216 0.870588
0.501961 0.243137 0.870588
0.615686 0.247059 0.874510
0.749020 0.239216 0.870588
0.870588 0.243137 0.870588
0.996078 0.243137 0.874510
0.039216 0.368627 0.870588
0.105882 0.368627 0.874510
0.243137 0.368627 0.874510
0.372549 0.368627 0.874510
0.494118 0.368627 0.866667
0.619608 0.372549 0.874510
0.749020 0.368627 0.870588
0.874510 0.372549 0.870588
0.992157 0.368627 0.870588
0.000000 0.494118 0.874510
0.117647 0.498039 0.870588
0.250980 0.494118 0.870588
0.372549 0.494118 0.866667
0.494118 0.494118 0.870588
0.615686 0.498039 0.874510
0.749020 0.494118 0.870588
0.870588 0.494118 0.866667
0.992157 0.494118 0.870588
0.000000 0.623529 0.870588
0.117647 0.619608 0.870588
0.239216 0.619608 0.874510
0.364706 0.619608 0.874510
0.498039 0.619608 0.870588
0.623529 0.623529 0.870588
0.745098 0.619608 0.866667
0.866667 0.619608 0.870588
0.992157 0.619608 0.866667
0.000000 0.745098 0.870588
0.121569 0.745098 0.870588
0.250980 0.745098 0.870588
0.368627 0.745098 0.874510
0.501961 0.749020 0.870588
0.627451 0.745098 0.866667
0.745098 0.749020 0.870588
0.870588 0.745098 0.870588
0.996078 0.745098 0.870588
0.015686 0.870588 0.870588
0.121569 0.870588 0.874510
0.231373 0.874510 0.874510
0.364706 0.874510 0.874510
0.494118 0.866667 0.870588
0.615686 0.870588 0.874510
0.749020 0.870588 0.874510
0.870588 0.870588 0.870588
0.992157 0.870588 0.878431
0.000000 0.996078 0.870588
0.000000 1.000000 0.874510
0.227451 1.000000 0.870588
0.349020 0.996078 0.870588
0.486275 1.000000 0.882353
0.615686 0.996078 0.882353
0.745098 0.996078 0.878431
0.870588 0.996078 0.878431
0.992157 0.996078 0.878431
0.000000 0.000000 0.996078
0.117647 0.000000 0.996078
0.239216 0.000000 0.996078
0.360784 0.000000 1.000000
0.490196 0.000000 1.000000
0.623529 0.000000 0.992157
0.749020 0.000000 0.992157
0.870588 0.000000 0.996078
0.992157 0.000000 0.996078
0.035294 0.113725 0.996078
0.113725 0.117647 0.992157
0.235294 0.117647 0.996078
0.360784 0.113725 0.996078
0.490196 0.121569 0.996078
0.623529 0.117647 0.996078
0.745098 0.109804 0.992157
0.874510 0.105882 0.996078
1.000000 0.098039 0.992157
0.000000 0.247059 0.992157
0.117647 0.243137 0.992157
0.247059 0.239216 0.992157
0.368627 0.243137 0.996078
0.494118 0.239216 0.996078
0.615686 0.247059 1.000000
0.749020 0.243137 1.000000
0.866667 0.243137 0.996078
0.996078 0.247059 0.996078
0.000000 0.368627 0.996078
0.137255 0.368627 0.996078
0.250980 0.364706 0.992157
0.368627 0.368627 1.000000
0.490196 0.368627 1.000000
0.623529 0.368627 0.992157
0.749020 0.364706 0.992157
0.870588 0.368627 1.000000
0.996078 0.368627 0.996078
0.000000 0.494118 0.992157
0.129412 0.494118 1.000000
0.231373 0.498039 1.000000
0.364706 0.494118 0.992157
0.486275 0.494118 0.996078
0.623529 0.494118 1.000000
0.749020 0.494118 1.000000
0.870588 0.494118 1.000000
0.996078 0.498039 0.996078
0.000000 0.619608 0.996078
0.082353 0.619608 0.996078
0.239216 0.619608 1.000000
0.360784 0.623529 1.000000
0.498039 0.619608 0.996078
0.611765 0.619608 0.996078
0.749020 0.619608 0.992157
0.862745 0.619608 0.996078
0.996078 0.619608 0.996078
0.000000 0.745098 1.000000
0.105882 0.749020 0.996078
0.250980 0.745098 0.992157
0.356863 0.745098 0.996078
0.498039 0.745098 1.000000
0.623529 0.745098 0.996078
0.745098 0.749020 0.996078
0.870588 0.745098 0.992157
0.996078 0.749020 1.000000
0.000000 0.870588 0.996078
0.078431 0.870588 0.996078
0.250980 0.870588 0.992157
0.368627 0.870588 0.996078
0.498039 0.870588 0.992157
0.627451 0.870588 1.000000
0.741176 0.870588 0.996078
0.870588 0.870588 0.992157
0.992157 0.870588 0.992157
0.000000 1.000000 0.996078
0.015686 1.000000 0.996078
0.247059 0.996078 0.996078
0.372549 0.996078 0.992157
0.501961 0.996078 1.000000
0.623529 0.996078 0.996078
0.745098 0.996078 0.992157
0.878431 0.996078 0.996078
0.996078 0.996078 0.996078
