test_output_lut/011_ct.cube
TITLE "Color Transfer LUT - 011"
LUT_3D_SIZE 5
0.000000 0.000000 0.000000
0.243137 0.000000 0.011765
0.498039 0.000000 0.007843
0.741176 0.000000 0.007843
0.996078 0.000000 0.015686
0.003922 0.239216 0.000000
0.239216 0.243137 0.007843
0.490196 0.243137 0.007843
0.741176 0.243137 0.011765
0.996078 0.239216 0.007843
0.000000 0.494118 0.003922
0.247059 0.494118 0.023529
0.490196 0.494118 0.019608
0.745098 0.494118 0.023529
0.996078 0.498039 0.019608
0.000000 0.745098 0.015686
0.227451 0.745098 0.015686
0.494118 0.741176 0.011765
0.745098 0.741176 0.023529
0.992157 0.749020 0.027451
0.000000 0.996078 0.043137
0.192157 0.996078 0.019608
0.478431 0.996078 0.019608
0.733333 1.000000 0.054902
0.992157 0.996078 0.007843
0.003922 0.000000 0.243137
0.243137 0.000000 0.243137
0.494118 0.000000 0.243137
0.745098 0.000000 0.250980
0.996078 0.000000 0.250980
0.000000 0.247059 0.243137
0.243137 0.243137 0.243137
0.490196 0.247059 0.247059
0.741176 0.243137 0.247059
0.996078 0.239216 0.250980
0.000000 0.494118 0.250980
0.247059 0.494118 0.247059
0.490196 0.494118 0.247059
0.749020 0.494118 0.250980
0.992157 0.494118 0.247059
0.000000 0.749020 0.247059
0.227451 0.745098 0.247059
0.494118 0.745098 0.250980
0.741176 0.745098 0.247059
0.996078 0.745098 0.258824
0.000000 0.996078 0.254902
0.192157 1.000000 0.254902
0.482353 1.000000 0.254902
0.745098 0.996078 0.250980
0.996078 0.996078 0.258824
0.000000 0.000000 0.494118
0.247059 0.000000 0.494118
0.494118 0.000000 0.490196
0.745098 0.000000 0.498039
0.992157 0.007843 0.498039
0.000000 0.247059 0.494118
0.247059 0.243137 0.490196
0.494118 0.247059 0.494118
0.745098 0.239216 0.494118
0.992157 0.247059 0.498039
0.000000 0.494118 0.490196
0.250980 0.494118 0.494118
0.494118 0.494118 0.494118
0.741176 0.494118 0.501961
1.000000 0.494118 0.501961
0.000000 0.745098 0.501961
0.203922 0.749020 0.505882
0.494118 0.745098 0.501961
0.741176 0.745098 0.505882
0.996078 0.745098 0.501961
0.000000 1.000000 0.501961
0.192157 0.996078 0.501961
0.478431 0.996078 0.501961
0.741176 1.000000 0.505882
0.988235 0.996078 0.505882
0.000000 0.000000 0.745098
0.243137 0.000000 0.745098
0.494118 0.000000 0.745098
0.745098 0.000000 0.745098
0.996078 0.000000 0.749020
0.000000 0.243137 0.745098
0.239216 0.247059 0.745098
0.494118 0.239216 0.745098
0.745098 0.243137 0.749020
0.996078 0.239216 0.745098
0.000000 0.494118 0.749020
0.231373 0.494118 0.749020
0.498039 0.494118 0.745098
0.745098 0.494118 0.741176
1.000000 0.494118 0.749020
0.000000 0.745098 0.741176
0.243137 0.745098 0.745098
0.494118 0.745098 0.749020
0.745098 0.745098 0.745098
0.992157 0.745098 0.752941
0.000000 0.996078 0.749020
0.184314 1.000000 0.756863
0.474510 1.000000 0.752941
0.741176 0.996078 0.756863
0.996078 1.000000 0.752941
0.000000 0.000000 0.996078
0.239216 0.000000 0.996078
0.490196 0.000000 1.000000
0.749020 0.000000 0.992157
0.992157 0.000000 0.996078
0.000000 0.247059 0.992157
0.247059 0.239216 0.992157
0.494118 0.239216 0.996078
0.749020 0.243137 1.000000
0.996078 0.247059 0.996078
0.000000 0.494118 0.992157
0.231373 0.498039 1.000000
0.486275 0.494118 0.996078
0.749020 0.494118 1.000000
0.996078 0.498039 0.996078
0.000000 0.745098 1.000000
0.250980 0.745098 0.992157
0.498039 0.745098 1.000000
0.745098 0.749020 0.996078
0.996078 0.749020 1.000000
0.000000 1.000000 0.996078
0.247059 0.996078 0.996078
0.501961 0.996078 1.000000
0.745098 0.996078 0.992157
0.996078 0.996078 0.996078
