test_output_lut/1213_ct.cube
TITLE "Color Transfer LUT - 1213"
LUT_3D_SIZE 33
0.000000 0.007843 0.007843
0.023529 0.007843 0.000000
0.054902 0.007843 0.000000
0.082353 0.019608 0.007843
0.117647 0.011765 0.000000
0.149020 0.007843 0.007843
0.184314 0.007843 0.011765
0.211765 0.011765 0.003922
0.247059 0.007843 0.011765
0.282353 0.003922 0.003922
0.309804 0.015686 0.007843
0.341176 0.007843 0.007843
0.368627 0.023529 0.007843
0.403922 0.019608 0.003922
0.439216 0.011765 0.003922
0.466667 0.031373 0.007843
0.501961 0.023529 0.003922
0.529412 0.023529 0.003922
0.560784 0.027451 0.007843
0.592157 0.035294 0.000000
0.619608 0.031373 0.007843
0.654902 0.039216 0.000000
0.686275 0.015686 0.007843
0.721569 0.023529 0.007843
0.745098 0.047059 0.000000
0.780392 0.058824 0.000000
0.811765 0.054902 0.007843
0.843137 0.062745 0.003922
0.874510 0.062745 0.011765
0.905882 0.058824 0.019608
0.933333 0.058824 0.011765
0.968627 0.066667 0.027451
1.000000 0.066667 0.023529
0.003922 0.031373 0.003922
0.011765 0.039216 0.011765
0.058824 0.035294 0.007843
0.090196 0.027451 0.007843
0.121569 0.031373 0.007843
0.145098 0.043137 0.007843
0.188235 0.027451 0.000000
0.211765 0.027451 0.003922
0.250980 0.031373 0.007843
0.278431 0.039216 0.007843
0.309804 0.039216 0.000000
0.345098 0.039216 0.007843
0.372549 0.027451 0.011765
0.403922 0.050980 0.003922
0.435294 0.039216 0.007843
0.466667 0.050980 0.000000
0.498039 0.058824 0.007843
0.529412 0.043137 0.000000
0.560784 0.050980 0.000000
0.596078 0.058824 0.003922
0.623529 0.058824 0.000000
0.654902 0.039216 0.000000
0.686275 0.050980 0.000000
0.717647 0.050980 0.003922
0.752941 0.058824 0.003922
0.780392 0.058824 0.000000
0.815686 0.066667 0.000000
0.843137 0.062745 0.003922
0.874510 0.062745 0.011765
0.909804 0.074510 0.007843
0.941176 0.070588 0.019608
0.968627 0.066667 0.011765
1.000000 0.066667 0.023529
0.000000 0.062745 0.000000
0.007843 0.070588 0.007843
0.054902 0.062745 0.003922
0.082353 0.066667 0.000000
0.121569 0.066667 0.011765
0.152941 0.062745 0.003922
0.184314 0.058824 0.003922
0.219608 0.070588 0.007843
0.247059 0.070588 0.000000
0.278431 0.074510 0.000000
0.313726 0.070588 0.007843
0.341176 0.070588 0.007843
0.372549 0.074510 0.003922
0.403922 0.078431 0.003922
0.435294 0.070588 0.003922
0.466667 0.082353 0.007843
0.498039 0.074510 0.007843
0.529412 0.082353 0.003922
0.560784 0.074510 0.003922
0.596078 0.078431 0.007843
0.623529 0.082353 0.003922
0.654902 0.090196 0.003922
0.686275 0.090196 0.000000
0.721569 0.086275 0.000000
0.752941 0.086275 0.007843
0.780392 0.086275 0.000000
0.815686 0.094118 0.011765
0.843137 0.094118 0.007843
0.874510 0.094118 0.011765
0.905882 0.094118 0.007843
0.941176 0.101961 0.023529
0.972549 0.101961 0.015686
1.000000 0.098039 0.023529
0.000000 0.094118 0.007843
0.011765 0.094118 0.007843
0.058824 0.090196 0.007843
0.086275 0.094118 0.000000
0.121569 0.090196 0.003922
0.149020 0.098039 0.007843
0.188235 0.090196 0.007843
0.215686 0.098039 0.000000
0.247059 0.098039 0.011765
0.274510 0.101961 0.007843
0.313726 0.094118 0.007843
0.341176 0.094118 0.000000
0.372549 0.101961 0.007843
0.407843 0.098039 0.007843
0.431373 0.101961 0.000000
0.466667 0.101961 0.007843
0.498039 0.098039 0.007843
0.529412 0.094118 0.007843
0.564706 0.101961 0.007843
0.592157 0.105882 0.000000
0.623529 0.098039 0.000000
0.654902 0.105882 0.007843
0.686275 0.109804 0.000000
0.717647 0.117647 0.000000
0.752941 0.105882 0.007843
0.780392 0.105882 0.003922
0.811765 0.109804 0.007843
0.847059 0.117647 0.007843
0.874510 0.117647 0.015686
0.905882 0.117647 0.007843
0.937255 0.121569 0.019608
0.964706 0.121569 0.011765
1.000000 0.129412 0.027451
0.007843 0.125490 0.007843
0.015686 0.129412 0.003922
0.058824 0.125490 0.007843
0.090196 0.129412 0.000000
0.117647 0.125490 0.007843
0.149020 0.129412 0.007843
0.184314 0.125490 0.007843
0.215686 0.129412 0.000000
0.247059 0.129412 0.007843
0.274510 0.125490 0.000000
0.309804 0.125490 0.007843
0.341176 0.125490 0.007843
0.372549 0.129412 0.000000
0.403922 0.129412 0.003922
0.435294 0.129412 0.003922
0.470588 0.133333 0.007843
0.501961 0.133333 0.007843
0.533333 0.133333 0.007843
0.560784 0.133333 0.003922
0.592157 0.133333 0.003922
0.619608 0.133333 0.000000
0.658824 0.137255 0.000000
0.686275 0.137255 0.003922
0.717647 0.133333 0.000000
0.749020 0.133333 0.000000
0.784314 0.141176 0.007843
0.811765 0.145098 0.000000
0.843137 0.149020 0.007843
0.874510 0.137255 0.019608
0.905882 0.141176 0.011765
0.937255 0.141176 0.007843
0.968627 0.141176 0.015686
1.000000 0.149020 0.015686
0.000000 0.156863 0.000000
0.019608 0.156863 0.007843
0.058824 0.156863 0.011765
0.086275 0.156863 0.007843
0.125490 0.156863 0.007843
0.149020 0.160784 0.000000
0.184314 0.156863 0.003922
0.211765 0.160784 0.007843
0.243137 0.160784 0.007843
0.278431 0.160784 0.003922
0.309804 0.156863 0.000000
0.341176 0.160784 0.000000
0.372549 0.156863 0.007843
0.403922 0.160784 0.000000
0.435294 0.160784 0.007843
0.470588 0.160784 0.007843
0.501961 0.160784 0.007843
0.533333 0.160784 0.003922
0.560784 0.164706 0.003922
0.592157 0.164706 0.007843
0.623529 0.164706 0.007843
0.654902 0.168627 0.000000
0.686275 0.164706 0.000000
0.713726 0.168627 0.003922
0.749020 0.164706 0.000000
0.780392 0.168627 0.000000
0.811765 0.160784 0.003922
0.843137 0.164706 0.011765
0.878431 0.172549 0.023529
0.905882 0.176471 0.019608
0.937255 0.176471 0.011765
0.968627 0.180392 0.023529
1.000000 0.172549 0.019608
0.003922 0.188235 0.007843
0.035294 0.184314 0.000000
0.050980 0.192157 0.007843
0.078431 0.188235 0.007843
0.113725 0.188235 0.003922
0.152941 0.188235 0.007843
0.180392 0.188235 0.000000
0.215686 0.192157 0.011765
0.243137 0.188235 0.003922
0.278431 0.188235 0.007843
0.309804 0.192157 0.007843
0.341176 0.192157 0.000000
0.372549 0.188235 0.000000
0.407843 0.192157 0.007843
0.435294 0.192157 0.000000
0.470588 0.192157 0.007843
0.501961 0.192157 0.007843
0.529412 0.192157 0.003922
0.560784 0.192157 0.000000
0.592157 0.192157 0.007843
0.627451 0.192157 0.003922
0.658824 0.192157 0.000000
0.686275 0.196078 0.007843
0.721569 0.196078 0.011765
0.749020 0.200000 0.000000
0.784314 0.196078 0.003922
0.807843 0.196078 0.000000
0.843137 0.192157 0.015686
0.878431 0.200000 0.015686
0.901961 0.200000 0.019608
0.937255 0.192157 0.015686
0.968627 0.196078 0.023529
1.000000 0.200000 0.019608
0.000000 0.219608 0.003922
0.003922 0.223529 0.007843
0.054902 0.223529 0.003922
0.090196 0.219608 0.003922
0.113725 0.223529 0.003922
0.156863 0.219608 0.000000
0.180392 0.219608 0.007843
0.211765 0.219608 0.007843
0.243137 0.219608 0.000000
0.274510 0.223529 0.003922
0.313726 0.223529 0.000000
0.341176 0.219608 0.000000
0.372549 0.219608 0.003922
0.407843 0.223529 0.003922
0.435294 0.223529 0.000000
0.466667 0.223529 0.000000
0.498039 0.227451 0.000000
0.529412 0.223529 0.000000
0.560784 0.223529 0.007843
0.588235 0.223529 0.000000
0.623529 0.227451 0.000000
0.654902 0.227451 0.003922
0.690196 0.227451 0.000000
0.717647 0.223529 0.003922
0.745098 0.227451 0.000000
0.780392 0.227451 0.000000
0.815686 0.227451 0.003922
0.843137 0.231373 0.011765
0.874510 0.235294 0.023529
0.901961 0.227451 0.027451
0.933333 0.231373 0.023529
0.968627 0.227451 0.015686
1.000000 0.231373 0.023529
0.000000 0.250980 0.000000
0.015686 0.250980 0.003922
0.050980 0.250980 0.003922
0.074510 0.250980 0.000000
0.117647 0.250980 0.003922
0.145098 0.250980 0.007843
0.184314 0.250980 0.000000
0.211765 0.250980 0.000000
0.243137 0.250980 0.003922
0.278431 0.254902 0.000000
0.309804 0.250980 0.007843
0.341176 0.250980 0.007843
0.372549 0.250980 0.003922
0.403922 0.254902 0.007843
0.439216 0.254902 0.000000
0.470588 0.250980 0.003922
0.498039 0.254902 0.007843
0.529412 0.250980 0.000000
0.560784 0.254902 0.007843
0.596078 0.250980 0.000000
0.623529 0.258824 0.007843
0.654902 0.250980 0.000000
0.690196 0.254902 0.007843
0.717647 0.262745 0.003922
0.749020 0.258824 0.007843
0.780392 0.258824 0.003922
0.815686 0.258824 0.011765
0.839216 0.258824 0.015686
0.874510 0.258824 0.027451
0.905882 0.262745 0.023529
0.941176 0.262745 0.015686
0.964706 0.262745 0.019608
1.000000 0.258824 0.015686
0.000000 0.286275 0.003922
0.011765 0.282353 0.003922
0.050980 0.282353 0.003922
0.078431 0.282353 0.000000
0.117647 0.282353 0.003922
0.145098 0.286275 0.007843
0.184314 0.282353 0.003922
0.211765 0.286275 0.003922
0.243137 0.282353 0.000000
0.274510 0.282353 0.000000
0.309804 0.282353 0.007843
0.341176 0.282353 0.007843
0.372549 0.286275 0.000000
0.403922 0.282353 0.000000
0.435294 0.282353 0.003922
0.466667 0.286275 0.007843
0.494118 0.286275 0.000000
0.529412 0.286275 0.003922
0.560784 0.282353 0.007843
0.588235 0.286275 0.000000
0.623529 0.290196 0.007843
0.650980 0.290196 0.000000
0.690196 0.290196 0.007843
0.717647 0.286275 0.000000
0.752941 0.290196 0.007843
0.780392 0.286275 0.011765
0.811765 0.294118 0.023529
0.839216 0.290196 0.027451
0.874510 0.290196 0.023529
0.909804 0.290196 0.015686
0.937255 0.290196 0.023529
0.972549 0.290196 0.015686
1.000000 0.294118 0.027451
0.000000 0.313726 0.007843
0.003922 0.317647 0.007843
0.054902 0.313726 0.000000
0.090196 0.317647 0.007843
0.117647 0.313726 0.007843
0.141176 0.313726 0.000000
0.176471 0.317647 0.007843
0.211765 0.317647 0.003922
0.243137 0.313726 0.000000
0.278431 0.317647 0.007843
0.309804 0.317647 0.000000
0.337255 0.317647 0.007843
0.372549 0.317647 0.007843
0.403922 0.313726 0.000000
0.435294 0.317647 0.000000
0.466667 0.313726 0.000000
0.498039 0.317647 0.003922
0.533333 0.317647 0.007843
0.560784 0.317647 0.000000
0.592157 0.317647 0.003922
0.623529 0.317647 0.007843
0.650980 0.317647 0.007843
0.686275 0.313726 0.000000
0.717647 0.317647 0.007843
0.749020 0.317647 0.000000
0.784314 0.321569 0.007843
0.811765 0.317647 0.015686
0.843137 0.317647 0.023529
0.878431 0.317647 0.015686
0.901961 0.321569 0.023529
0.937255 0.321569 0.015686
0.972549 0.321569 0.027451
0.996078 0.321569 0.035294
0.000000 0.345098 0.003922
0.011765 0.345098 0.003922
0.054902 0.345098 0.000000
0.070588 0.345098 0.007843
0.109804 0.349020 0.000000
0.145098 0.345098 0.003922
0.180392 0.345098 0.000000
0.211765 0.349020 0.007843
0.247059 0.345098 0.000000
0.278431 0.345098 0.007843
0.305882 0.345098 0.007843
0.337255 0.345098 0.003922
0.368627 0.349020 0.003922
0.400000 0.345098 0.003922
0.431373 0.345098 0.000000
0.466667 0.349020 0.007843
0.494118 0.345098 0.007843
0.529412 0.349020 0.000000
0.564706 0.349020 0.000000
0.592157 0.349020 0.007843
0.627451 0.349020 0.007843
0.650980 0.349020 0.000000
0.690196 0.349020 0.007843
0.717647 0.349020 0.007843
0.749020 0.349020 0.000000
0.776471 0.349020 0.023529
0.807843 0.349020 0.027451
0.843137 0.352941 0.023529
0.870588 0.352941 0.027451
0.905882 0.352941 0.023529
0.937255 0.349020 0.027451
0.968627 0.349020 0.015686
1.000000 0.352941 0.027451
0.000000 0.380392 0.000000
0.003922 0.376471 0.007843
0.031373 0.376471 0.007843
0.062745 0.376471 0.000000
0.105882 0.376471 0.003922
0.137255 0.380392 0.007843
0.176471 0.380392 0.003922
0.207843 0.380392 0.007843
0.239216 0.380392 0.003922
0.270588 0.376471 0.007843
0.309804 0.376471 0.007843
0.337255 0.376471 0.000000
0.372549 0.376471 0.000000
0.400000 0.376471 0.000000
0.431373 0.376471 0.000000
0.466667 0.380392 0.000000
0.494118 0.380392 0.000000
0.525490 0.376471 0.000000
0.560784 0.380392 0.007843
0.596078 0.380392 0.007843
0.619608 0.380392 0.000000
0.654902 0.380392 0.015686
0.682353 0.380392 0.003922
0.717647 0.380392 0.007843
0.749020 0.380392 0.015686
0.776471 0.380392 0.023529
0.811765 0.376471 0.027451
0.843137 0.376471 0.015686
0.878431 0.380392 0.027451
0.905882 0.380392 0.039216
0.937255 0.376471 0.023529
0.968627 0.384314 0.035294
1.000000 0.380392 0.019608
0.000000 0.407843 0.000000
0.000000 0.407843 0.000000
0.058824 0.411765 0.007843
0.082353 0.407843 0.007843
0.105882 0.411765 0.007843
0.137255 0.407843 0.000000
0.180392 0.407843 0.003922
0.211765 0.407843 0.011765
0.243137 0.407843 0.003922
0.274510 0.407843 0.011765
0.309804 0.411765 0.007843
0.337255 0.411765 0.003922
0.372549 0.411765 0.000000
0.403922 0.411765 0.000000
0.431373 0.407843 0.007843
0.470588 0.411765 0.011765
0.501961 0.411765 0.011765
0.533333 0.407843 0.011765
0.556863 0.411765 0.000000
0.592157 0.411765 0.015686
0.623529 0.407843 0.000000
0.650980 0.411765 0.003922
0.686275 0.411765 0.007843
0.717647 0.415686 0.011765
0.752941 0.411765 0.023529
0.780392 0.415686 0.027451
0.811765 0.415686 0.035294
0.847059 0.411765 0.023529
0.878431 0.411765 0.027451
0.909804 0.411765 0.035294
0.937255 0.411765 0.019608
0.968627 0.411765 0.027451
0.996078 0.415686 0.035294
0.000000 0.443137 0.007843
0.000000 0.443137 0.007843
0.039216 0.439216 0.007843
0.070588 0.439216 0.007843
0.101961 0.443137 0.000000
0.149020 0.439216 0.000000
0.180392 0.439216 0.007843
0.215686 0.439216 0.000000
0.239216 0.443137 0.007843
0.270588 0.443137 0.000000
0.301961 0.439216 0.007843
0.337255 0.443137 0.003922
0.368627 0.439216 0.011765
0.400000 0.443137 0.000000
0.431373 0.443137 0.007843
0.462745 0.439216 0.003922
0.494118 0.439216 0.003922
0.529412 0.443137 0.007843
0.560784 0.443137 0.007843
0.592157 0.439216 0.003922
0.623529 0.443137 0.007843
0.654902 0.443137 0.007843
0.690196 0.443137 0.015686
0.713726 0.443137 0.035294
0.745098 0.443137 0.019608
0.780392 0.443137 0.027451
0.811765 0.443137 0.035294
0.847059 0.443137 0.023529
0.878431 0.443137 0.027451
0.905882 0.443137 0.035294
0.937255 0.447059 0.043137
0.968627 0.443137 0.023529
1.000000 0.443137 0.035294
0.000000 0.470588 0.011765
0.000000 0.470588 0.000000
0.019608 0.470588 0.000000
0.086275 0.470588 0.000000
0.113725 0.470588 0.003922
0.137255 0.474510 0.007843
0.180392 0.470588 0.011765
0.207843 0.474510 0.000000
0.243137 0.474510 0.007843
0.278431 0.470588 0.000000
0.305882 0.470588 0.007843
0.337255 0.470588 0.000000
0.372549 0.474510 0.000000
0.400000 0.470588 0.007843
0.435294 0.474510 0.007843
0.470588 0.474510 0.003922
0.490196 0.470588 0.000000
0.525490 0.470588 0.000000
0.556863 0.470588 0.000000
0.592157 0.474510 0.000000
0.623529 0.474510 0.019608
0.650980 0.474510 0.015686
0.686275 0.474510 0.023529
0.717647 0.470588 0.023529
0.749020 0.474510 0.027451
0.784314 0.474510 0.039216
0.811765 0.474510 0.035294
0.839216 0.474510 0.019608
0.878431 0.474510 0.027451
0.905882 0.474510 0.035294
0.937255 0.474510 0.043137
0.968627 0.478431 0.023529
1.000000 0.478431 0.035294
0.000000 0.501961 0.000000
0.000000 0.501961 0.000000
0.035294 0.501961 0.000000
0.078431 0.505882 0.007843
0.101961 0.501961 0.007843
0.149020 0.505882 0.015686
0.180392 0.501961 0.000000
0.211765 0.505882 0.007843
0.247059 0.505882 0.011765
0.274510 0.505882 0.003922
0.305882 0.505882 0.011765
0.337255 0.505882 0.003922
0.372549 0.501961 0.011765
0.403922 0.505882 0.007843
0.427451 0.505882 0.000000
0.462745 0.505882 0.000000
0.494118 0.501961 0.007843
0.525490 0.501961 0.007843
0.560784 0.501961 0.007843
0.588235 0.505882 0.003922
0.619608 0.501961 0.023529
0.654902 0.505882 0.031373
0.686275 0.505882 0.031373
0.713726 0.505882 0.031373
0.749020 0.505882 0.039216
0.776471 0.505882 0.035294
0.811765 0.505882 0.023529
0.839216 0.505882 0.019608
0.870588 0.505882 0.023529
0.905882 0.505882 0.039216
0.937255 0.505882 0.043137
0.968627 0.509804 0.023529
1.000000 0.509804 0.035294
0.000000 0.533333 0.000000
0.000000 0.533333 0.003922
0.000000 0.533333 0.003922
0.058824 0.537255 0.007843
0.113725 0.533333 0.011765
0.141176 0.537255 0.019608
0.176471 0.533333 0.000000
0.211765 0.537255 0.007843
0.239216 0.537255 0.015686
0.274510 0.533333 0.000000
0.305882 0.533333 0.007843
0.337255 0.533333 0.000000
0.372549 0.537255 0.015686
0.400000 0.537255 0.007843
0.435294 0.533333 0.000000
0.462745 0.537255 0.011765
0.494118 0.533333 0.007843
0.529412 0.533333 0.003922
0.556863 0.537255 0.023529
0.592157 0.537255 0.023529
0.623529 0.537255 0.043137
0.650980 0.537255 0.015686
0.682353 0.537255 0.039216
0.717647 0.533333 0.015686
0.749020 0.537255 0.023529
0.780392 0.537255 0.023529
0.811765 0.541176 0.027451
0.843137 0.537255 0.027451
0.874510 0.537255 0.039216
0.905882 0.533333 0.039216
0.937255 0.537255 0.015686
0.968627 0.537255 0.023529
1.000000 0.541176 0.035294
0.000000 0.564706 0.007843
0.000000 0.564706 0.007843
0.027451 0.568627 0.015686
0.074510 0.568627 0.015686
0.101961 0.564706 0.015686
0.129412 0.564706 0.000000
0.172549 0.564706 0.003922
0.207843 0.568627 0.011765
0.239216 0.564706 0.000000
0.278431 0.564706 0.003922
0.301961 0.568627 0.011765
0.337255 0.568627 0.000000
0.364706 0.568627 0.011765
0.403922 0.564706 0.003922
0.435294 0.568627 0.023529
0.462745 0.568627 0.007843
0.498039 0.568627 0.031373
0.525490 0.568627 0.019608
0.560784 0.568627 0.019608
0.592157 0.568627 0.039216
0.619608 0.568627 0.039216
0.650980 0.564706 0.027451
0.690196 0.568627 0.039216
0.713726 0.568627 0.035294
0.749020 0.568627 0.031373
0.780392 0.564706 0.031373
0.811765 0.568627 0.039216
0.843137 0.568627 0.039216
0.870588 0.564706 0.039216
0.901961 0.568627 0.047059
0.941176 0.568627 0.054902
0.968627 0.568627 0.023529
1.000000 0.568627 0.035294
0.000000 0.596078 0.007843
0.000000 0.596078 0.007843
0.023529 0.596078 0.011765
0.050980 0.600000 0.000000
0.113725 0.596078 0.023529
0.141176 0.596078 0.000000
0.168627 0.600000 0.007843
0.200000 0.596078 0.007843
0.235294 0.600000 0.000000
0.266667 0.600000 0.007843
0.305882 0.600000 0.019608
0.337255 0.596078 0.000000
0.372549 0.600000 0.019608
0.403922 0.600000 0.027451
0.431373 0.600000 0.043137
0.458824 0.596078 0.031373
0.498039 0.600000 0.027451
0.521569 0.600000 0.039216
0.560784 0.600000 0.039216
0.584314 0.596078 0.023529
0.619608 0.596078 0.023529
0.654902 0.596078 0.023529
0.682353 0.600000 0.047059
0.713726 0.600000 0.047059
0.749020 0.596078 0.043137
0.776471 0.600000 0.039216
0.815686 0.600000 0.050980
0.839216 0.600000 0.050980
0.874510 0.596078 0.050980
0.905882 0.600000 0.027451
0.933333 0.600000 0.023529
0.968627 0.600000 0.039216
0.996078 0.600000 0.035294
0.000000 0.627451 0.000000
0.000000 0.627451 0.000000
0.000000 0.627451 0.019608
0.066667 0.631373 0.000000
0.101961 0.631373 0.003922
0.129412 0.627451 0.003922
0.180392 0.631373 0.011765
0.196078 0.627451 0.015686
0.231373 0.631373 0.023529
0.274510 0.627451 0.031373
0.301961 0.627451 0.039216
0.329412 0.631373 0.027451
0.364706 0.631373 0.039216
0.396078 0.631373 0.023529
0.435294 0.627451 0.039216
0.458824 0.631373 0.035294
0.498039 0.631373 0.023529
0.521569 0.631373 0.039216
0.560784 0.631373 0.035294
0.584314 0.631373 0.050980
0.619608 0.631373 0.047059
0.650980 0.631373 0.043137
0.686275 0.631373 0.039216
0.721569 0.631373 0.039216
0.749020 0.631373 0.039216
0.780392 0.631373 0.035294
0.807843 0.631373 0.035294
0.843137 0.631373 0.031373
0.870588 0.631373 0.027451
0.901961 0.627451 0.027451
0.933333 0.631373 0.039216
0.968627 0.627451 0.039216
1.000000 0.631373 0.047059
0.000000 0.662745 0.023529
0.000000 0.658824 0.023529
0.000000 0.658824 0.023529
0.058824 0.658824 0.023529
0.109804 0.662745 0.039216
0.137255 0.658824 0.039216
0.160784 0.658824 0.039216
0.203922 0.662745 0.050980
0.223529 0.658824 0.023529
0.274510 0.658824 0.039216
0.301961 0.662745 0.050980
0.333333 0.662745 0.035294
0.364706 0.658824 0.039216
0.400000 0.658824 0.023529
0.427451 0.658824 0.039216
0.462745 0.662745 0.031373
0.494118 0.662745 0.047059
0.521569 0.662745 0.031373
0.560784 0.662745 0.027451
0.584314 0.662745 0.043137
0.623529 0.662745 0.043137
0.647059 0.658824 0.027451
0.686275 0.658824 0.023529
0.717647 0.658824 0.023529
0.749020 0.662745 0.050980
0.780392 0.662745 0.050980
0.811765 0.662745 0.047059
0.843137 0.662745 0.047059
0.870588 0.662745 0.043137
0.905882 0.658824 0.043137
0.937255 0.662745 0.050980
0.964706 0.662745 0.050980
0.996078 0.658824 0.047059
0.000000 0.694118 0.031373
0.000000 0.694118 0.031373
0.011765 0.690196 0.035294
0.074510 0.690196 0.035294
0.074510 0.690196 0.035294
0.121569 0.694118 0.043137
0.149020 0.694118 0.047059
0.203922 0.694118 0.031373
0.239216 0.690196 0.031373
0.270588 0.694118 0.047059
0.298039 0.690196 0.047059
0.329412 0.694118 0.031373
0.368627 0.694118 0.047059
0.392157 0.694118 0.027451
0.427451 0.694118 0.043137
0.458824 0.694118 0.027451
0.490196 0.694118 0.043137
0.525490 0.690196 0.027451
0.556863 0.694118 0.054902
0.584314 0.694118 0.039216
0.623529 0.694118 0.039216
0.650980 0.694118 0.050980
0.686275 0.694118 0.050980
0.713726 0.694118 0.047059
0.745098 0.690196 0.035294
0.776471 0.694118 0.031373
0.811765 0.694118 0.027451
0.839216 0.694118 0.023529
0.870588 0.694118 0.058824
0.898039 0.694118 0.050980
0.937255 0.694118 0.062745
0.964706 0.694118 0.058824
1.000000 0.694118 0.058824
0.000000 0.725490 0.039216
0.000000 0.725490 0.039216
0.031373 0.725490 0.043137
0.031373 0.725490 0.043137
0.090196 0.721569 0.043137
0.125490 0.721569 0.043137
0.160784 0.725490 0.054902
0.207843 0.721569 0.027451
0.231373 0.725490 0.039216
0.266667 0.721569 0.043137
0.298039 0.725490 0.054902
0.333333 0.725490 0.039216
0.364706 0.721569 0.043137
0.392157 0.725490 0.054902
0.427451 0.721569 0.039216
0.462745 0.721569 0.023529
0.494118 0.721569 0.039216
0.529412 0.725490 0.035294
0.556863 0.725490 0.050980
0.584314 0.725490 0.035294
0.623529 0.725490 0.031373
0.650980 0.725490 0.050980
0.686275 0.725490 0.047059
0.713726 0.725490 0.027451
0.749020 0.725490 0.058824
0.776471 0.725490 0.054902
0.811765 0.725490 0.054902
0.839216 0.721569 0.039216
0.874510 0.721569 0.039216
0.901961 0.725490 0.035294
0.941176 0.725490 0.043137
0.968627 0.725490 0.039216
0.996078 0.725490 0.039216
0.000000 0.752941 0.039216
0.000000 0.752941 0.039216
0.000000 0.752941 0.039216
0.050980 0.756863 0.050980
0.105882 0.756863 0.050980
0.137255 0.752941 0.054902
0.172549 0.752941 0.023529
0.200000 0.756863 0.035294
0.239216 0.752941 0.039216
0.262745 0.756863 0.050980
0.294118 0.752941 0.050980
0.329412 0.756863 0.035294
0.368627 0.756863 0.050980
0.396078 0.756863 0.031373
0.427451 0.752941 0.039216
0.462745 0.752941 0.050980
0.494118 0.752941 0.035294
0.521569 0.756863 0.062745
0.560784 0.756863 0.047059
0.588235 0.756863 0.062745
0.615686 0.752941 0.047059
0.650980 0.756863 0.043137
0.682353 0.752941 0.023529
0.713726 0.756863 0.058824
0.745098 0.752941 0.043137
0.776471 0.756863 0.039216
0.811765 0.756863 0.035294
0.843137 0.756863 0.066667
0.878431 0.756863 0.062745
0.905882 0.756863 0.058824
0.933333 0.760784 0.058824
0.968627 0.756863 0.058824
0.996078 0.756863 0.050980
0.000000 0.788235 0.050980
0.000000 0.788235 0.050980
0.000000 0.788235 0.050980
0.050980 0.784314 0.050980
0.050980 0.784314 0.050980
0.117647 0.788235 0.062745
0.156863 0.788235 0.027451
0.207843 0.784314 0.031373
0.231373 0.788235 0.047059
0.270588 0.784314 0.050980
0.305882 0.788235 0.062745
0.321569 0.784314 0.031373
0.364706 0.784314 0.047059
0.396078 0.788235 0.027451
0.435294 0.788235 0.043137
0.458824 0.788235 0.058824
0.494118 0.788235 0.043137
0.525490 0.788235 0.058824
0.556863 0.788235 0.039216
0.584314 0.788235 0.058824
0.615686 0.788235 0.039216
0.654902 0.788235 0.039216
0.682353 0.788235 0.058824
0.713726 0.788235 0.050980
0.749020 0.784314 0.035294
0.776471 0.788235 0.066667
0.811765 0.784314 0.050980
0.839216 0.788235 0.050980
0.870588 0.788235 0.043137
0.905882 0.788235 0.039216
0.933333 0.788235 0.039216
0.968627 0.788235 0.070588
1.000000 0.788235 0.066667
0.000000 0.815686 0.047059
0.000000 0.815686 0.047059
0.000000 0.819608 0.058824
0.000000 0.819608 0.058824
0.074510 0.819608 0.058824
0.121569 0.815686 0.062745
0.160784 0.815686 0.027451
0.196078 0.819608 0.039216
0.239216 0.815686 0.043137
0.262745 0.819608 0.058824
0.298039 0.815686 0.058824
0.333333 0.819608 0.039216
0.360784 0.815686 0.043137
0.392157 0.819608 0.058824
0.431373 0.819608 0.039216
0.458824 0.819608 0.058824
0.494118 0.819608 0.039216
0.529412 0.819608 0.054902
0.560784 0.819608 0.039216
0.592157 0.819608 0.054902
0.619608 0.815686 0.039216
0.654902 0.819608 0.066667
0.682353 0.819608 0.050980
0.709804 0.819608 0.031373
0.749020 0.819608 0.062745
0.776471 0.819608 0.047059
0.811765 0.819608 0.043137
0.843137 0.819608 0.074510
0.866667 0.819608 0.058824
