test_output_lut/1213_ct.cube
TITLE "Color Transfer LUT - 1213"
LUT_3D_SIZE 5
0.000000 0.007843 0.007843
0.247059 0.007843 0.011765
0.501961 0.023529 0.003922
0.745098 0.047059 0.000000
1.000000 0.066667 0.023529
0.000000 0.250980 0.000000
0.243137 0.250980 0.003922
0.498039 0.254902 0.007843
0.749020 0.258824 0.007843
1.000000 0.258824 0.015686
0.000000 0.501961 0.000000
0.247059 0.505882 0.011765
0.494118 0.501961 0.007843
0.749020 0.505882 0.039216
1.000000 0.509804 0.035294
0.000000 0.752941 0.039216
0.239216 0.752941 0.039216
0.494118 0.752941 0.035294
0.745098 0.752941 0.043137
0.996078 0.756863 0.050980
0.000000 1.000000 0.070588
0.211765 1.000000 0.050980
0.490196 1.000000 0.050980
0.745098 1.000000 0.082353
0.996078 1.000000 0.043137
0.007843 0.007843 0.243137
0.247059 0.011765 0.250980
0.498039 0.015686 0.247059
0.749020 0.047059 0.250980
1.000000 0.066667 0.250980
0.000000 0.254902 0.250980
0.243137 0.250980 0.250980
0.494118 0.254902 0.250980
0.745098 0.254902 0.247059
1.000000 0.258824 0.250980
0.000000 0.501961 0.250980
0.250980 0.501961 0.247059
0.494118 0.501961 0.247059
0.752941 0.505882 0.250980
0.996078 0.505882 0.247059
0.000000 0.756863 0.247059
0.243137 0.756863 0.247059
0.494118 0.756863 0.250980
0.741176 0.756863 0.258824
1.000000 0.752941 0.266667
0.000000 1.000000 0.266667
0.211765 1.000000 0.262745
0.490196 1.000000 0.266667
0.745098 1.000000 0.262745
1.000000 1.000000 0.270588
0.023529 0.011765 0.494118
0.254902 0.011765 0.498039
0.501961 0.015686 0.494118
0.749020 0.050980 0.505882
1.000000 0.074510 0.498039
0.000000 0.254902 0.498039
0.254902 0.250980 0.494118
0.498039 0.258824 0.501961
0.749020 0.254902 0.501961
1.000000 0.266667 0.498039
0.000000 0.501961 0.498039
0.247059 0.505882 0.501961
0.494118 0.505882 0.501961
0.749020 0.501961 0.501961
1.000000 0.505882 0.501961
0.000000 0.752941 0.501961
0.223529 0.756863 0.505882
0.494118 0.752941 0.501961
0.745098 0.756863 0.505882
1.000000 0.756863 0.501961
0.000000 1.000000 0.501961
0.219608 1.000000 0.501961
0.494118 1.000000 0.501961
0.741176 1.000000 0.505882
0.992157 1.000000 0.513726
0.023529 0.007843 0.745098
0.254902 0.019608 0.745098
0.501961 0.027451 0.745098
0.752941 0.050980 0.749020
1.000000 0.078431 0.749020
0.023529 0.250980 0.749020
0.250980 0.254902 0.749020
0.498039 0.250980 0.749020
0.752941 0.258824 0.749020
1.000000 0.258824 0.756863
0.007843 0.501961 0.749020
0.239216 0.501961 0.749020
0.501961 0.505882 0.745098
0.745098 0.505882 0.749020
1.000000 0.505882 0.756863
0.000000 0.756863 0.749020
0.231373 0.756863 0.752941
0.494118 0.756863 0.756863
0.745098 0.752941 0.752941
1.000000 0.756863 0.752941
0.000000 1.000000 0.749020
0.219608 1.000000 0.756863
0.490196 1.000000 0.752941
0.741176 1.000000 0.756863
0.996078 1.000000 0.752941
0.007843 0.023529 0.996078
0.258824 0.023529 0.996078
0.498039 0.039216 1.000000
0.756863 0.023529 0.996078
1.000000 0.078431 1.000000
0.027451 0.254902 0.996078
0.262745 0.250980 0.992157
0.501961 0.250980 0.996078
0.756863 0.258824 1.000000
1.000000 0.266667 1.000000
0.023529 0.505882 0.996078
0.243137 0.505882 1.000000
0.494118 0.505882 0.996078
0.752941 0.505882 1.000000
1.000000 0.509804 0.996078
0.000000 0.756863 1.000000
0.254902 0.756863 0.996078
0.501961 0.756863 1.000000
0.749020 0.760784 0.996078
0.996078 0.760784 1.000000
0.000000 1.000000 1.000000
0.227451 1.000000 1.000000
0.494118 1.000000 1.000000
0.745098 1.000000 1.000000
0.992157 1.000000 1.000000
