test_output_lut/1213_ct.cube
TITLE "Color Transfer LUT - 1213"
LUT_3D_SIZE 9
0.000000 0.007843 0.007843
0.117647 0.011765 0.000000
0.247059 0.007843 0.011765
0.368627 0.023529 0.007843
0.501961 0.023529 0.003922
0.619608 0.031373 0.007843
0.745098 0.047059 0.000000
0.874510 0.062745 0.011765
1.000000 0.066667 0.023529
0.007843 0.125490 0.007843
0.117647 0.125490 0.007843
0.247059 0.129412 0.007843
0.372549 0.129412 0.000000
0.501961 0.133333 0.007843
0.619608 0.133333 0.000000
0.749020 0.133333 0.000000
0.874510 0.137255 0.019608
1.000000 0.149020 0.015686
0.000000 0.250980 0.000000
0.117647 0.250980 0.003922
0.243137 0.250980 0.003922
0.372549 0.250980 0.003922
0.498039 0.254902 0.007843
0.623529 0.258824 0.007843
0.749020 0.258824 0.007843
0.874510 0.258824 0.027451
1.000000 0.258824 0.015686
0.000000 0.380392 0.000000
0.105882 0.376471 0.003922
0.239216 0.380392 0.003922
0.372549 0.376471 0.000000
0.494118 0.380392 0.000000
0.619608 0.380392 0.000000
0.749020 0.380392 0.015686
0.878431 0.380392 0.027451
1.000000 0.380392 0.019608
0.000000 0.501961 0.000000
0.101961 0.501961 0.007843
0.247059 0.505882 0.011765
0.372549 0.501961 0.011765
0.494118 0.501961 0.007843
0.619608 0.501961 0.023529
0.749020 0.505882 0.039216
0.870588 0.505882 0.023529
1.000000 0.509804 0.035294
0.000000 0.627451 0.000000
0.101961 0.631373 0.003922
0.231373 0.631373 0.023529
0.364706 0.631373 0.039216
0.498039 0.631373 0.023529
0.619608 0.631373 0.047059
0.749020 0.631373 0.039216
0.870588 0.631373 0.027451
1.000000 0.631373 0.047059
0.000000 0.752941 0.039216
0.105882 0.756863 0.050980
0.239216 0.752941 0.039216
0.368627 0.756863 0.050980
0.494118 0.752941 0.035294
0.615686 0.752941 0.047059
0.745098 0.752941 0.043137
0.878431 0.756863 0.062745
0.996078 0.756863 0.050980
0.000000 0.878431 0.054902
0.090196 0.882353 0.070588
0.235294 0.882353 0.050980
0.356863 0.882353 0.050980
0.494118 0.882353 0.066667
0.619608 0.882353 0.062745
0.745098 0.882353 0.039216
0.874510 0.882353 0.070588
1.000000 0.882353 0.039216
0.000000 1.000000 0.070588
0.035294 1.000000 0.074510
0.211765 1.000000 0.050980
0.360784 1.000000 0.050980
0.490196 1.000000 0.050980
0.619608 1.000000 0.082353
0.745098 1.000000 0.082353
0.866667 1.000000 0.054902
0.996078 1.000000 0.043137
0.000000 0.007843 0.121569
0.113725 0.011765 0.121569
0.250980 0.015686 0.125490
0.368627 0.023529 0.125490
0.498039 0.011765 0.121569
0.627451 0.027451 0.121569
0.752941 0.039216 0.125490
0.874510 0.039216 0.121569
1.000000 0.070588 0.121569
0.000000 0.129412 0.129412
0.117647 0.125490 0.125490
0.247059 0.133333 0.125490
0.372549 0.129412 0.121569
0.498039 0.129412 0.121569
0.623529 0.133333 0.121569
0.749020 0.141176 0.121569
0.874510 0.141176 0.121569
1.000000 0.152941 0.129412
0.000000 0.250980 0.121569
0.113725 0.250980 0.125490
0.243137 0.250980 0.121569
0.372549 0.254902 0.125490
0.494118 0.250980 0.125490
0.623529 0.254902 0.121569
0.749020 0.254902 0.121569
0.870588 0.258824 0.125490
1.000000 0.258824 0.137255
0.000000 0.376471 0.125490
0.101961 0.380392 0.125490
0.247059 0.376471 0.121569
0.372549 0.380392 0.129412
0.494118 0.376471 0.121569
0.623529 0.380392 0.129412
0.749020 0.376471 0.125490
0.874510 0.380392 0.129412
0.996078 0.384314 0.129412
0.000000 0.501961 0.129412
0.117647 0.505882 0.125490
0.243137 0.501961 0.129412
0.368627 0.501961 0.129412
0.498039 0.505882 0.125490
0.623529 0.505882 0.125490
0.745098 0.505882 0.129412
0.870588 0.505882 0.141176
1.000000 0.505882 0.137255
0.000000 0.627451 0.125490
0.094118 0.627451 0.121569
0.231373 0.631373 0.133333
0.364706 0.627451 0.125490
0.498039 0.627451 0.121569
0.623529 0.627451 0.133333
0.749020 0.631373 0.145098
0.870588 0.627451 0.145098
0.996078 0.631373 0.141176
0.000000 0.752941 0.141176
0.101961 0.756863 0.145098
0.219608 0.752941 0.141176
0.356863 0.756863 0.145098
0.494118 0.756863 0.145098
0.623529 0.756863 0.137255
0.745098 0.756863 0.152941
0.874510 0.756863 0.145098
1.000000 0.756863 0.141176
0.000000 0.882353 0.152941
0.101961 0.882353 0.152941
0.219608 0.882353 0.145098
0.360784 0.882353 0.145098
0.486275 0.882353 0.152941
0.615686 0.882353 0.152941
0.745098 0.878431 0.141176
0.870588 0.882353 0.141176
0.996078 0.882353 0.149020
0.000000 1.000000 0.145098
0.074510 1.000000 0.149020
0.223529 1.000000 0.137255
0.364706 1.000000 0.156863
0.494118 1.000000 0.137255
0.615686 1.000000 0.156863
0.749020 1.000000 0.156863
0.870588 1.000000 0.141176
1.000000 1.000000 0.160784
0.007843 0.007843 0.243137
0.121569 0.007843 0.247059
0.247059 0.011765 0.250980
0.372549 0.019608 0.250980
0.498039 0.015686 0.247059
0.619608 0.039216 0.247059
0.749020 0.047059 0.250980
0.878431 0.039216 0.250980
1.000000 0.066667 0.250980
0.000000 0.125490 0.250980
0.117647 0.125490 0.250980
0.247059 0.129412 0.250980
0.372549 0.125490 0.247059
0.498039 0.133333 0.247059
0.619608 0.137255 0.247059
0.752941 0.133333 0.250980
0.874510 0.141176 0.250980
0.996078 0.145098 0.250980
0.000000 0.254902 0.250980
0.109804 0.250980 0.250980
0.243137 0.250980 0.250980
0.372549 0.250980 0.247059
0.494118 0.254902 0.250980
0.623529 0.254902 0.247059
0.745098 0.254902 0.247059
0.870588 0.258824 0.250980
1.000000 0.258824 0.250980
0.000000 0.376471 0.247059
0.105882 0.376471 0.247059
0.243137 0.380392 0.250980
0.372549 0.376471 0.254902
0.498039 0.376471 0.250980
0.619608 0.376471 0.250980
0.749020 0.380392 0.247059
0.874510 0.384314 0.247059
1.000000 0.384314 0.247059
0.000000 0.501961 0.250980
0.105882 0.501961 0.250980
0.250980 0.501961 0.247059
0.368627 0.501961 0.250980
0.494118 0.501961 0.247059
0.623529 0.501961 0.247059
0.752941 0.505882 0.250980
0.874510 0.505882 0.247059
0.996078 0.505882 0.247059
0.000000 0.627451 0.247059
0.090196 0.631373 0.250980
0.235294 0.631373 0.250980
0.372549 0.631373 0.250980
0.498039 0.631373 0.247059
0.619608 0.631373 0.250980
0.745098 0.631373 0.247059
0.874510 0.631373 0.254902
0.996078 0.631373 0.262745
0.000000 0.756863 0.247059
0.094118 0.752941 0.247059
0.243137 0.756863 0.247059
0.356863 0.752941 0.247059
0.494118 0.756863 0.250980
0.619608 0.756863 0.254902
0.741176 0.756863 0.258824
0.870588 0.756863 0.262745
1.000000 0.752941 0.266667
0.000000 0.882353 0.266667
0.105882 0.878431 0.254902
0.215686 0.878431 0.258824
0.364706 0.882353 0.266667
0.494118 0.882353 0.262745
0.623529 0.882353 0.262745
0.749020 0.882353 0.266667
0.874510 0.882353 0.270588
0.996078 0.882353 0.258824
0.000000 1.000000 0.266667
0.011765 1.000000 0.270588
0.211765 1.000000 0.262745
0.356863 1.000000 0.258824
0.490196 1.000000 0.266667
0.611765 1.000000 0.258824
0.745098 1.000000 0.262745
0.870588 1.000000 0.266667
1.000000 1.000000 0.270588
0.007843 0.007843 0.368627
0.125490 0.011765 0.372549
0.250980 0.007843 0.372549
0.376471 0.015686 0.372549
0.498039 0.031373 0.380392
0.623529 0.035294 0.376471
0.749020 0.050980 0.376471
0.874510 0.062745 0.376471
0.996078 0.074510 0.376471
0.011765 0.125490 0.372549
0.125490 0.129412 0.368627
0.254902 0.125490 0.368627
0.368627 0.129412 0.372549
0.498039 0.133333 0.376471
0.627451 0.133333 0.376471
0.752941 0.137255 0.376471
0.878431 0.141176 0.376471
1.000000 0.156863 0.380392
0.000000 0.250980 0.376471
0.098039 0.254902 0.380392
0.239216 0.250980 0.376471
0.372549 0.254902 0.372549
0.498039 0.250980 0.372549
0.623529 0.254902 0.372549
0.745098 0.258824 0.376471
0.870588 0.258824 0.372549
1.000000 0.262745 0.372549
0.000000 0.376471 0.376471
0.101961 0.376471 0.376471
0.235294 0.380392 0.376471
0.368627 0.380392 0.376471
0.494118 0.380392 0.376471
0.619608 0.380392 0.376471
0.749020 0.376471 0.376471
0.874510 0.384314 0.380392
1.000000 0.380392 0.376471
0.000000 0.505882 0.376471
0.117647 0.501961 0.376471
0.231373 0.501961 0.376471
0.372549 0.505882 0.376471
0.494118 0.505882 0.372549
0.623529 0.505882 0.380392
0.749020 0.505882 0.372549
0.874510 0.505882 0.380392
0.996078 0.505882 0.376471
0.000000 0.627451 0.372549
0.109804 0.631373 0.376471
0.235294 0.631373 0.380392
0.368627 0.631373 0.376471
0.494118 0.631373 0.376471
0.619608 0.631373 0.380392
0.749020 0.627451 0.372549
0.874510 0.631373 0.380392
1.000000 0.631373 0.376471
0.000000 0.756863 0.376471
0.070588 0.752941 0.380392
0.239216 0.756863 0.380392
0.364706 0.752941 0.372549
0.494118 0.756863 0.376471
0.623529 0.756863 0.372549
0.749020 0.756863 0.376471
0.874510 0.756863 0.376471
0.996078 0.756863 0.380392
0.000000 0.882353 0.380392
0.101961 0.878431 0.372549
0.215686 0.882353 0.376471
0.364706 0.878431 0.380392
0.486275 0.882353 0.376471
0.615686 0.882353 0.376471
0.745098 0.882353 0.376471
0.870588 0.882353 0.388235
1.000000 0.882353 0.384314
0.000000 1.000000 0.384314
0.019608 1.000000 0.384314
0.215686 1.000000 0.380392
0.360784 1.000000 0.392157
0.486275 1.000000 0.384314
0.623529 1.000000 0.384314
0.749020 1.000000 0.384314
0.874510 1.000000 0.384314
0.996078 1.000000 0.384314
0.023529 0.011765 0.494118
0.133333 0.007843 0.494118
0.254902 0.011765 0.498039
0.372549 0.023529 0.494118
0.501961 0.015686 0.494118
0.619608 0.047059 0.501961
0.749020 0.050980 0.505882
0.878431 0.043137 0.501961
1.000000 0.074510 0.498039
0.007843 0.129412 0.498039
0.121569 0.129412 0.498039
0.247059 0.133333 0.498039
0.380392 0.129412 0.494118
0.498039 0.129412 0.498039
0.623529 0.137255 0.501961
0.749020 0.133333 0.498039
0.874510 0.149020 0.505882
1.000000 0.145098 0.505882
0.000000 0.254902 0.498039
0.117647 0.254902 0.498039
0.254902 0.250980 0.494118
0.372549 0.254902 0.494118
0.498039 0.258824 0.501961
0.619608 0.258824 0.505882
0.749020 0.254902 0.501961
0.878431 0.258824 0.501961
1.000000 0.266667 0.498039
0.000000 0.376471 0.501961
0.094118 0.380392 0.505882
0.239216 0.376471 0.505882
0.372549 0.380392 0.501961
0.498039 0.380392 0.505882
0.623529 0.376471 0.501961
0.749020 0.384314 0.505882
0.878431 0.384314 0.501961
0.996078 0.380392 0.501961
0.000000 0.501961 0.498039
0.105882 0.501961 0.501961
0.247059 0.505882 0.501961
0.368627 0.505882 0.505882
0.494118 0.505882 0.501961
0.619608 0.505882 0.498039
0.749020 0.501961 0.501961
0.874510 0.509804 0.505882
1.000000 0.505882 0.501961
0.000000 0.631373 0.501961
0.098039 0.631373 0.505882
0.231373 0.627451 0.501961
0.368627 0.631373 0.505882
0.490196 0.631373 0.501961
0.623529 0.627451 0.498039
0.745098 0.627451 0.501961
0.874510 0.631373 0.501961
0.996078 0.631373 0.498039
0.000000 0.752941 0.501961
0.074510 0.756863 0.505882
0.223529 0.756863 0.505882
0.364706 0.756863 0.501961
0.494118 0.752941 0.501961
0.623529 0.756863 0.501961
0.745098 0.756863 0.505882
0.874510 0.756863 0.505882
1.000000 0.756863 0.501961
0.000000 0.882353 0.505882
0.098039 0.878431 0.501961
0.219608 0.882353 0.505882
0.360784 0.878431 0.498039
0.482353 0.882353 0.505882
0.623529 0.878431 0.498039
0.745098 0.882353 0.498039
0.870588 0.882353 0.501961
1.000000 0.882353 0.501961
0.000000 1.000000 0.501961
0.027451 1.000000 0.501961
0.219608 1.000000 0.501961
0.356863 1.000000 0.501961
0.494118 1.000000 0.501961
0.619608 1.000000 0.501961
0.741176 1.000000 0.505882
0.870588 1.000000 0.505882
0.992157 1.000000 0.513726
0.031373 0.007843 0.623529
0.125490 0.015686 0.623529
0.254902 0.023529 0.619608
0.376471 0.023529 0.619608
0.501961 0.023529 0.619608
0.623529 0.035294 0.623529
0.749020 0.027451 0.619608
0.874510 0.050980 0.627451
1.000000 0.074510 0.631373
0.043137 0.129412 0.619608
0.137255 0.125490 0.615686
0.258824 0.129412 0.619608
0.376471 0.133333 0.623529
0.501961 0.133333 0.623529
0.623529 0.133333 0.619608
0.752941 0.133333 0.623529
0.874510 0.149020 0.627451
1.000000 0.149020 0.623529
0.000000 0.250980 0.623529
0.133333 0.250980 0.619608
0.247059 0.254902 0.619608
0.376471 0.254902 0.615686
0.498039 0.254902 0.619608
0.623529 0.258824 0.623529
0.752941 0.258824 0.627451
0.870588 0.258824 0.627451
0.996078 0.262745 0.627451
0.000000 0.380392 0.619608
0.141176 0.376471 0.619608
0.254902 0.376471 0.619608
0.372549 0.376471 0.619608
0.498039 0.380392 0.619608
0.619608 0.380392 0.627451
0.745098 0.380392 0.627451
0.870588 0.384314 0.631373
1.000000 0.384314 0.631373
0.000000 0.501961 0.623529
0.074510 0.505882 0.627451
0.235294 0.505882 0.627451
0.364706 0.505882 0.631373
0.494118 0.501961 0.627451
0.623529 0.505882 0.627451
0.745098 0.509804 0.631373
0.878431 0.505882 0.631373
1.000000 0.505882 0.627451
0.000000 0.627451 0.627451
0.105882 0.631373 0.623529
0.235294 0.631373 0.627451
0.356863 0.631373 0.631373
0.490196 0.627451 0.627451
0.619608 0.631373 0.627451
0.745098 0.627451 0.631373
0.878431 0.631373 0.627451
1.000000 0.631373 0.631373
0.000000 0.756863 0.627451
0.090196 0.752941 0.627451
0.223529 0.756863 0.627451
0.368627 0.752941 0.623529
0.498039 0.756863 0.627451
0.623529 0.756863 0.627451
0.749020 0.752941 0.627451
0.870588 0.752941 0.627451
0.996078 0.756863 0.627451
0.000000 0.878431 0.627451
0.074510 0.882353 0.631373
0.223529 0.882353 0.627451
0.364706 0.882353 0.627451
0.498039 0.882353 0.627451
0.611765 0.878431 0.627451
0.741176 0.882353 0.627451
0.870588 0.882353 0.631373
0.996078 0.882353 0.631373
0.000000 1.000000 0.627451
0.078431 1.000000 0.627451
0.239216 1.000000 0.627451
0.372549 1.000000 0.627451
0.482353 1.000000 0.627451
0.619608 1.000000 0.631373
0.745098 1.000000 0.627451
0.878431 1.000000 0.627451
0.992157 1.000000 0.623529
0.023529 0.007843 0.745098
0.137255 0.019608 0.745098
0.254902 0.019608 0.745098
0.376471 0.023529 0.745098
0.501961 0.027451 0.745098
0.627451 0.047059 0.745098
0.752941 0.050980 0.749020
0.878431 0.070588 0.745098
1.000000 0.078431 0.749020
0.000000 0.133333 0.749020
0.141176 0.133333 0.749020
0.250980 0.133333 0.749020
0.376471 0.133333 0.745098
0.498039 0.137255 0.745098
0.623529 0.145098 0.749020
0.749020 0.141176 0.745098
0.878431 0.149020 0.752941
0.996078 0.156863 0.752941
0.023529 0.250980 0.749020
0.121569 0.254902 0.749020
0.250980 0.254902 0.749020
0.368627 0.254902 0.749020
0.498039 0.250980 0.749020
0.623529 0.250980 0.749020
0.752941 0.258824 0.749020
0.878431 0.262745 0.745098
1.000000 0.258824 0.756863
0.023529 0.376471 0.749020
0.121569 0.376471 0.745098
0.247059 0.376471 0.745098
0.368627 0.380392 0.749020
0.498039 0.376471 0.745098
0.627451 0.376471 0.745098
0.752941 0.384314 0.749020
0.874510 0.380392 0.752941
1.000000 0.380392 0.756863
0.007843 0.501961 0.749020
0.117647 0.505882 0.745098
0.239216 0.501961 0.749020
0.376471 0.501961 0.745098
0.501961 0.505882 0.745098
0.623529 0.505882 0.756863
0.745098 0.505882 0.749020
0.878431 0.505882 0.752941
1.000000 0.505882 0.756863
0.000000 0.627451 0.752941
0.070588 0.631373 0.756863
0.223529 0.627451 0.752941
0.356863 0.627451 0.752941
0.498039 0.631373 0.752941
0.627451 0.631373 0.752941
0.745098 0.635294 0.756863
0.878431 0.631373 0.756863
1.000000 0.631373 0.752941
0.000000 0.756863 0.749020
0.105882 0.756863 0.752941
0.231373 0.756863 0.752941
0.360784 0.752941 0.752941
0.494118 0.756863 0.756863
0.615686 0.756863 0.756863
0.745098 0.752941 0.752941
0.866667 0.756863 0.752941
1.000000 0.756863 0.752941
0.000000 0.882353 0.752941
0.074510 0.878431 0.752941
0.231373 0.878431 0.749020
0.356863 0.878431 0.752941
0.486275 0.882353 0.752941
0.615686 0.882353 0.752941
0.741176 0.882353 0.756863
0.878431 0.882353 0.752941
0.996078 0.882353 0.749020
0.000000 1.000000 0.749020
0.027451 1.000000 0.752941
0.219608 1.000000 0.756863
0.360784 1.000000 0.756863
0.490196 1.000000 0.752941
0.615686 1.000000 0.752941
0.741176 1.000000 0.756863
0.870588 1.000000 0.756863
0.996078 1.000000 0.752941
0.054902 0.031373 0.870588
0.152941 0.019608 0.874510
0.254902 0.007843 0.870588
0.372549 0.027451 0.874510
0.498039 0.050980 0.874510
0.627451 0.039216 0.874510
0.752941 0.043137 0.870588
0.878431 0.043137 0.870588
1.000000 0.074510 0.878431
0.066667 0.129412 0.870588
0.133333 0.133333 0.874510
0.258824 0.129412 0.870588
0.376471 0.129412 0.866667
0.498039 0.137255 0.870588
0.627451 0.145098 0.870588
0.749020 0.141176 0.870588
0.882353 0.141176 0.870588
1.000000 0.156863 0.870588
0.050980 0.250980 0.870588
0.149020 0.254902 0.874510
0.247059 0.250980 0.874510
0.376471 0.250980 0.874510
0.509804 0.254902 0.870588
0.623529 0.258824 0.874510
0.752941 0.254902 0.870588
0.878431 0.262745 0.874510
1.000000 0.262745 0.874510
0.078431 0.376471 0.870588
0.129412 0.376471 0.874510
0.254902 0.376471 0.874510
0.380392 0.380392 0.878431
0.501961 0.376471 0.870588
0.623529 0.380392 0.874510
0.752941 0.380392 0.870588
0.878431 0.384314 0.870588
1.000000 0.384314 0.870588
0.011765 0.505882 0.874510
0.133333 0.505882 0.870588
0.258824 0.505882 0.874510
0.380392 0.501961 0.866667
0.501961 0.505882 0.874510
0.623529 0.509804 0.878431
0.756863 0.505882 0.870588
0.878431 0.505882 0.870588
0.996078 0.505882 0.878431
0.000000 0.631373 0.874510
0.129412 0.627451 0.874510
0.247059 0.631373 0.874510
0.368627 0.631373 0.874510
0.505882 0.627451 0.870588
0.627451 0.631373 0.870588
0.745098 0.627451 0.878431
0.870588 0.631373 0.878431
0.996078 0.631373 0.874510
0.000000 0.756863 0.878431
0.090196 0.752941 0.878431
0.239216 0.756863 0.878431
0.360784 0.756863 0.882353
0.498039 0.756863 0.878431
0.627451 0.752941 0.874510
0.745098 0.756863 0.882353
0.870588 0.752941 0.878431
1.000000 0.756863 0.878431
0.000000 0.878431 0.878431
0.086275 0.882353 0.886275
0.215686 0.882353 0.882353
0.356863 0.882353 0.882353
0.490196 0.878431 0.878431
0.615686 0.882353 0.882353
0.749020 0.882353 0.882353
0.874510 0.882353 0.882353
0.996078 0.882353 0.878431
0.000000 1.000000 0.878431
0.019608 1.000000 0.882353
0.243137 1.000000 0.882353
0.360784 1.000000 0.878431
0.490196 1.000000 0.886275
0.619608 1.000000 0.882353
0.749020 1.000000 0.878431
0.874510 1.000000 0.878431
0.996078 1.000000 0.882353
0.007843 0.023529 0.996078
0.149020 0.011765 1.000000
0.258824 0.023529 0.996078
0.372549 0.039216 1.000000
0.498039 0.039216 1.000000
0.631373 0.035294 0.996078
0.756863 0.023529 0.996078
0.878431 0.035294 1.000000
1.000000 0.078431 1.000000
0.090196 0.129412 0.996078
0.145098 0.133333 0.992157
0.250980 0.133333 1.000000
0.372549 0.133333 1.000000
0.498039 0.141176 1.000000
0.631373 0.141176 1.000000
0.752941 0.137255 0.996078
0.882353 0.141176 0.996078
1.000000 0.141176 0.992157
0.027451 0.254902 0.996078
0.145098 0.254902 0.992157
0.262745 0.250980 0.992157
0.380392 0.254902 1.000000
0.501961 0.250980 0.996078
0.623529 0.262745 1.000000
0.756863 0.258824 1.000000
0.874510 0.262745 0.996078
1.000000 0.266667 1.000000
0.058824 0.376471 1.000000
0.160784 0.376471 0.996078
0.262745 0.376471 0.992157
0.376471 0.380392 1.000000
0.498039 0.380392 1.000000
0.631373 0.380392 0.996078
0.752941 0.376471 0.996078
0.878431 0.384314 1.000000
1.000000 0.384314 0.996078
0.023529 0.505882 0.996078
0.152941 0.505882 1.000000
0.243137 0.505882 1.000000
0.372549 0.505882 0.996078
0.494118 0.505882 0.996078
0.627451 0.505882 1.000000
0.752941 0.505882 1.000000
0.878431 0.505882 1.000000
1.000000 0.509804 0.996078
0.023529 0.631373 1.000000
0.105882 0.627451 1.000000
0.247059 0.631373 1.000000
0.368627 0.631373 1.000000
0.505882 0.631373 0.996078
0.619608 0.631373 1.000000
0.752941 0.631373 0.996078
0.870588 0.631373 1.000000
1.000000 0.631373 0.996078
0.000000 0.756863 1.000000
0.121569 0.756863 0.996078
0.254902 0.756863 0.996078
0.364706 0.756863 0.996078
0.501961 0.756863 1.000000
0.627451 0.752941 1.000000
0.749020 0.760784 0.996078
0.870588 0.756863 1.000000
0.996078 0.760784 1.000000
0.000000 0.882353 1.000000
0.011765 0.882353 1.000000
0.235294 0.878431 1.000000
0.360784 0.882353 1.000000
0.494118 0.882353 1.000000
0.623529 0.882353 1.000000
0.741176 0.882353 1.000000
0.874510 0.882353 1.000000
0.996078 0.882353 1.000000
0.000000 1.000000 1.000000
0.074510 1.000000 1.000000
0.227451 1.000000 1.000000
0.360784 1.000000 1.000000
0.494118 1.000000 1.000000
0.619608 1.000000 1.000000
0.745098 1.000000 1.000000
0.878431 1.000000 1.000000
0.992157 1.000000 1.000000
