test_output_lut/12312_ct.cube
TITLE "Color Transfer LUT - 12312"
LUT_3D_SIZE 5
0.000000 0.000000 0.000000
0.247059 0.000000 0.007843
0.501961 0.000000 0.007843
0.745098 0.007843 0.007843
1.000000 0.007843 0.019608
0.000000 0.247059 0.003922
0.239216 0.247059 0.007843
0.498039 0.247059 0.015686
0.745098 0.247059 0.019608
1.000000 0.243137 0.011765
0.000000 0.498039 0.007843
0.243137 0.501961 0.023529
0.490196 0.498039 0.023529
0.752941 0.498039 0.031373
1.000000 0.501961 0.023529
0.000000 0.749020 0.027451
0.231373 0.749020 0.027451
0.490196 0.749020 0.023529
0.741176 0.749020 0.031373
1.000000 0.752941 0.043137
0.000000 1.000000 0.058824
0.203922 1.000000 0.035294
0.482353 1.000000 0.035294
0.737255 1.000000 0.070588
0.992157 1.000000 0.023529
0.003922 0.000000 0.247059
0.247059 0.000000 0.247059
0.498039 0.000000 0.243137
0.749020 0.007843 0.247059
1.000000 0.015686 0.254902
0.000000 0.250980 0.247059
0.247059 0.247059 0.247059
0.494118 0.250980 0.247059
0.745098 0.247059 0.250980
1.000000 0.247059 0.254902
0.000000 0.498039 0.250980
0.243137 0.498039 0.250980
0.486275 0.498039 0.250980
0.752941 0.498039 0.254902
0.996078 0.498039 0.250980
0.000000 0.752941 0.250980
0.231373 0.752941 0.250980
0.486275 0.749020 0.254902
0.737255 0.752941 0.250980
1.000000 0.749020 0.262745
0.000000 1.000000 0.258824
0.200000 1.000000 0.258824
0.486275 1.000000 0.262745
0.741176 1.000000 0.258824
0.992157 1.000000 0.262745
0.039216 0.000000 0.490196
0.250980 0.000000 0.498039
0.498039 0.000000 0.494118
0.749020 0.007843 0.501961
1.000000 0.023529 0.494118
0.000000 0.247059 0.498039
0.250980 0.247059 0.494118
0.498039 0.250980 0.498039
0.749020 0.243137 0.498039
1.000000 0.250980 0.498039
0.000000 0.498039 0.494118
0.243137 0.501961 0.498039
0.498039 0.498039 0.498039
0.749020 0.498039 0.498039
1.000000 0.498039 0.501961
0.000000 0.749020 0.498039
0.219608 0.752941 0.501961
0.490196 0.749020 0.498039
0.737255 0.752941 0.509804
1.000000 0.749020 0.505882
0.000000 1.000000 0.509804
0.200000 1.000000 0.505882
0.482353 1.000000 0.505882
0.733333 1.000000 0.509804
0.984314 1.000000 0.509804
0.054902 0.000000 0.741176
0.262745 0.000000 0.741176
0.501961 0.000000 0.741176
0.749020 0.007843 0.749020
1.000000 0.023529 0.752941
0.054902 0.247059 0.745098
0.258824 0.247059 0.745098
0.498039 0.243137 0.749020
0.752941 0.250980 0.752941
1.000000 0.243137 0.752941
0.000000 0.498039 0.752941
0.235294 0.498039 0.752941
0.501961 0.498039 0.749020
0.749020 0.498039 0.745098
1.000000 0.498039 0.752941
0.000000 0.752941 0.745098
0.227451 0.752941 0.749020
0.490196 0.752941 0.752941
0.749020 0.749020 0.749020
1.000000 0.749020 0.749020
0.000000 1.000000 0.745098
0.211765 1.000000 0.752941
0.486275 1.000000 0.749020
0.737255 1.000000 0.752941
0.992157 1.000000 0.756863
0.050980 0.000000 0.992157
0.266667 0.000000 0.992157
0.501961 0.000000 0.996078
0.756863 0.000000 0.992157
1.000000 0.007843 0.996078
0.074510 0.247059 0.992157
0.270588 0.243137 0.988235
0.505882 0.243137 0.992157
0.756863 0.247059 0.996078
1.000000 0.250980 1.000000
0.082353 0.498039 0.992157
0.258824 0.498039 0.996078
0.501961 0.498039 0.992157
0.752941 0.498039 1.000000
1.000000 0.501961 1.000000
0.000000 0.752941 1.000000
0.231373 0.752941 0.996078
0.490196 0.752941 1.000000
0.749020 0.752941 1.000000
1.000000 0.752941 1.000000
0.000000 1.000000 1.000000
0.223529 1.000000 1.000000
0.490196 1.000000 1.000000
0.741176 1.000000 0.996078
1.000000 1.000000 1.000000
