test_output_lut/12312_ct.cube
TITLE "Color Transfer LUT - 12312"
LUT_3D_SIZE 9
0.000000 0.000000 0.000000
0.121569 0.003922 0.000000
0.247059 0.000000 0.007843
0.368627 0.007843 0.007843
0.501961 0.000000 0.007843
0.619608 0.003922 0.011765
0.745098 0.007843 0.007843
0.874510 0.019608 0.007843
1.000000 0.007843 0.019608
0.003922 0.121569 0.000000
0.117647 0.121569 0.000000
0.247059 0.121569 0.003922
0.372549 0.121569 0.007843
0.498039 0.121569 0.011765
0.619608 0.121569 0.007843
0.749020 0.117647 0.007843
0.874510 0.117647 0.015686
1.000000 0.129412 0.011765
0.000000 0.247059 0.003922
0.113725 0.247059 0.007843
0.239216 0.247059 0.007843
0.372549 0.247059 0.007843
0.498039 0.247059 0.015686
0.623529 0.250980 0.015686
0.745098 0.247059 0.019608
0.874510 0.247059 0.023529
1.000000 0.243137 0.011765
0.000000 0.376471 0.007843
0.098039 0.372549 0.011765
0.235294 0.376471 0.007843
0.368627 0.372549 0.007843
0.498039 0.372549 0.011765
0.619608 0.372549 0.007843
0.749020 0.372549 0.007843
0.878431 0.372549 0.023529
1.000000 0.372549 0.015686
0.000000 0.498039 0.007843
0.090196 0.498039 0.019608
0.243137 0.501961 0.023529
0.364706 0.498039 0.023529
0.490196 0.498039 0.023529
0.619608 0.498039 0.019608
0.752941 0.498039 0.031373
0.870588 0.498039 0.019608
1.000000 0.501961 0.023529
0.000000 0.623529 0.007843
0.090196 0.627451 0.019608
0.227451 0.627451 0.019608
0.356863 0.627451 0.031373
0.494118 0.627451 0.015686
0.615686 0.627451 0.039216
0.745098 0.627451 0.027451
0.870588 0.623529 0.023529
1.000000 0.623529 0.039216
0.000000 0.749020 0.027451
0.094118 0.752941 0.039216
0.231373 0.749020 0.027451
0.364706 0.752941 0.039216
0.490196 0.749020 0.023529
0.611765 0.749020 0.035294
0.741176 0.749020 0.031373
0.870588 0.752941 0.050980
1.000000 0.752941 0.043137
0.000000 0.874510 0.043137
0.074510 0.878431 0.058824
0.231373 0.874510 0.039216
0.349020 0.878431 0.035294
0.490196 0.874510 0.054902
0.615686 0.874510 0.050980
0.737255 0.878431 0.023529
0.870588 0.874510 0.058824
0.992157 0.878431 0.023529
0.000000 1.000000 0.058824
0.003922 1.000000 0.058824
0.203922 1.000000 0.035294
0.356863 1.000000 0.031373
0.482353 1.000000 0.035294
0.615686 1.000000 0.070588
0.737255 1.000000 0.070588
0.862745 1.000000 0.039216
0.992157 1.000000 0.023529
0.000000 0.000000 0.117647
0.117647 0.003922 0.117647
0.250980 0.007843 0.121569
0.368627 0.011765 0.125490
0.498039 0.000000 0.117647
0.623529 0.000000 0.125490
0.749020 0.003922 0.129412
0.874510 0.000000 0.125490
0.996078 0.015686 0.125490
0.000000 0.125490 0.125490
0.121569 0.121569 0.121569
0.247059 0.125490 0.121569
0.372549 0.121569 0.117647
0.498039 0.117647 0.117647
0.623529 0.121569 0.125490
0.749020 0.129412 0.125490
0.870588 0.121569 0.125490
1.000000 0.133333 0.133333
0.000000 0.247059 0.117647
0.109804 0.250980 0.121569
0.239216 0.250980 0.117647
0.372549 0.250980 0.121569
0.494118 0.247059 0.129412
0.623529 0.247059 0.125490
0.749020 0.243137 0.125490
0.870588 0.247059 0.129412
0.996078 0.247059 0.133333
0.000000 0.372549 0.129412
0.094118 0.376471 0.129412
0.239216 0.372549 0.129412
0.364706 0.376471 0.133333
0.494118 0.372549 0.129412
0.623529 0.372549 0.133333
0.749020 0.368627 0.129412
0.874510 0.372549 0.133333
0.996078 0.372549 0.125490
0.000000 0.498039 0.133333
0.105882 0.501961 0.133333
0.235294 0.498039 0.133333
0.360784 0.498039 0.133333
0.490196 0.501961 0.129412
0.627451 0.498039 0.133333
0.749020 0.498039 0.137255
0.870588 0.498039 0.137255
1.000000 0.498039 0.133333
0.000000 0.623529 0.133333
0.078431 0.623529 0.129412
0.223529 0.627451 0.141176
0.356863 0.623529 0.133333
0.494118 0.623529 0.129412
0.619608 0.623529 0.129412
0.752941 0.623529 0.141176
0.874510 0.623529 0.141176
0.996078 0.627451 0.137255
0.000000 0.749020 0.133333
0.090196 0.749020 0.141176
0.215686 0.749020 0.133333
0.352941 0.752941 0.141176
0.486275 0.752941 0.141176
0.619608 0.752941 0.133333
0.741176 0.752941 0.145098
0.870588 0.752941 0.137255
1.000000 0.749020 0.137255
0.000000 0.878431 0.145098
0.086275 0.874510 0.145098
0.211765 0.878431 0.137255
0.352941 0.874510 0.137255
0.482353 0.874510 0.145098
0.607843 0.878431 0.145098
0.741176 0.874510 0.137255
0.866667 0.874510 0.133333
0.992157 0.878431 0.141176
0.000000 1.000000 0.141176
0.050980 1.000000 0.141176
0.215686 1.000000 0.129412
0.356863 1.000000 0.149020
0.490196 1.000000 0.129412
0.611765 1.000000 0.149020
0.745098 1.000000 0.149020
0.866667 1.000000 0.137255
0.992157 1.000000 0.156863
0.003922 0.000000 0.247059
0.117647 0.003922 0.247059
0.247059 0.000000 0.247059
0.372549 0.000000 0.247059
0.498039 0.000000 0.243137
0.619608 0.007843 0.243137
0.749020 0.007843 0.247059
0.874510 0.000000 0.254902
1.000000 0.015686 0.254902
0.000000 0.121569 0.247059
0.121569 0.121569 0.250980
0.247059 0.125490 0.250980
0.372549 0.117647 0.247059
0.498039 0.121569 0.243137
0.619608 0.125490 0.243137
0.752941 0.117647 0.247059
0.874510 0.121569 0.254902
0.996078 0.121569 0.254902
0.000000 0.250980 0.247059
0.105882 0.250980 0.247059
0.247059 0.247059 0.247059
0.372549 0.247059 0.243137
0.494118 0.250980 0.247059
0.623529 0.247059 0.243137
0.745098 0.247059 0.250980
0.870588 0.250980 0.254902
1.000000 0.247059 0.254902
0.000000 0.372549 0.243137
0.101961 0.376471 0.243137
0.239216 0.376471 0.247059
0.368627 0.372549 0.250980
0.498039 0.372549 0.247059
0.619608 0.372549 0.254902
0.749020 0.372549 0.250980
0.874510 0.376471 0.254902
1.000000 0.376471 0.254902
0.000000 0.498039 0.250980
0.090196 0.498039 0.254902
0.243137 0.498039 0.250980
0.364706 0.498039 0.254902
0.486275 0.498039 0.250980
0.623529 0.498039 0.250980
0.752941 0.498039 0.254902
0.874510 0.498039 0.250980
0.996078 0.498039 0.250980
0.000000 0.623529 0.250980
0.070588 0.627451 0.254902
0.227451 0.627451 0.258824
0.364706 0.627451 0.254902
0.494118 0.627451 0.250980
0.615686 0.627451 0.254902
0.745098 0.623529 0.250980
0.874510 0.623529 0.258824
0.996078 0.623529 0.258824
0.000000 0.752941 0.250980
0.062745 0.749020 0.250980
0.231373 0.752941 0.250980
0.349020 0.749020 0.254902
0.486275 0.749020 0.254902
0.611765 0.752941 0.258824
0.737255 0.752941 0.250980
0.866667 0.752941 0.258824
1.000000 0.749020 0.262745
0.000000 0.878431 0.258824
0.094118 0.874510 0.250980
0.207843 0.874510 0.254902
0.360784 0.878431 0.262745
0.490196 0.878431 0.254902
0.619608 0.878431 0.258824
0.741176 0.878431 0.262745
0.870588 0.878431 0.266667
0.988235 0.878431 0.254902
0.000000 1.000000 0.258824
0.000000 1.000000 0.266667
0.200000 1.000000 0.258824
0.349020 1.000000 0.254902
0.486275 1.000000 0.262745
0.607843 1.000000 0.254902
0.741176 1.000000 0.258824
0.866667 1.000000 0.262745
0.992157 1.000000 0.262745
0.000000 0.003922 0.368627
0.121569 0.007843 0.372549
0.250980 0.000000 0.372549
0.372549 0.000000 0.376471
0.498039 0.007843 0.376471
0.623529 0.003922 0.376471
0.749020 0.007843 0.372549
0.874510 0.019608 0.376471
0.996078 0.019608 0.372549
0.003922 0.121569 0.372549
0.121569 0.121569 0.372549
0.254902 0.121569 0.372549
0.372549 0.121569 0.368627
0.498039 0.121569 0.372549
0.627451 0.117647 0.376471
0.752941 0.121569 0.372549
0.878431 0.121569 0.372549
1.000000 0.133333 0.376471
0.000000 0.247059 0.372549
0.094118 0.250980 0.376471
0.243137 0.247059 0.372549
0.372549 0.247059 0.368627
0.498039 0.247059 0.368627
0.623529 0.247059 0.368627
0.745098 0.250980 0.372549
0.870588 0.247059 0.368627
0.996078 0.250980 0.376471
0.000000 0.376471 0.372549
0.098039 0.372549 0.372549
0.231373 0.376471 0.376471
0.372549 0.372549 0.372549
0.498039 0.372549 0.372549
0.623529 0.372549 0.372549
0.749020 0.368627 0.372549
0.874510 0.372549 0.376471
1.000000 0.372549 0.380392
0.000000 0.501961 0.372549
0.109804 0.498039 0.372549
0.227451 0.498039 0.372549
0.368627 0.501961 0.372549
0.490196 0.501961 0.368627
0.627451 0.501961 0.376471
0.749020 0.501961 0.376471
0.874510 0.498039 0.384314
0.996078 0.498039 0.376471
0.000000 0.623529 0.368627
0.101961 0.623529 0.372549
0.231373 0.627451 0.376471
0.360784 0.627451 0.380392
0.486275 0.627451 0.380392
0.615686 0.627451 0.384314
0.749020 0.623529 0.376471
0.874510 0.627451 0.384314
1.000000 0.623529 0.380392
0.000000 0.752941 0.384314
0.027451 0.749020 0.384314
0.227451 0.752941 0.384314
0.356863 0.749020 0.376471
0.486275 0.752941 0.380392
0.615686 0.752941 0.376471
0.745098 0.752941 0.380392
0.874510 0.749020 0.380392
0.996078 0.749020 0.384314
0.000000 0.878431 0.384314
0.066667 0.874510 0.376471
0.200000 0.878431 0.384314
0.352941 0.874510 0.384314
0.478431 0.878431 0.380392
0.611765 0.874510 0.384314
0.737255 0.878431 0.380392
0.866667 0.878431 0.384314
0.992157 0.878431 0.380392
0.000000 1.000000 0.380392
0.000000 1.000000 0.380392
0.207843 1.000000 0.376471
0.356863 1.000000 0.388235
0.478431 1.000000 0.376471
0.619608 1.000000 0.380392
0.745098 1.000000 0.380392
0.870588 1.000000 0.376471
0.992157 1.000000 0.380392
0.039216 0.000000 0.490196
0.141176 0.000000 0.490196
0.250980 0.000000 0.498039
0.368627 0.007843 0.498039
0.498039 0.000000 0.494118
0.619608 0.007843 0.498039
0.749020 0.007843 0.501961
0.878431 0.000000 0.498039
1.000000 0.023529 0.494118
0.000000 0.121569 0.501961
0.117647 0.121569 0.501961
0.243137 0.125490 0.501961
0.376471 0.121569 0.498039
0.498039 0.121569 0.498039
0.623529 0.125490 0.498039
0.749020 0.117647 0.494118
0.874510 0.125490 0.501961
1.000000 0.121569 0.501961
0.000000 0.247059 0.498039
0.113725 0.247059 0.501961
0.250980 0.247059 0.494118
0.368627 0.247059 0.498039
0.498039 0.250980 0.498039
0.619608 0.247059 0.501961
0.749020 0.243137 0.498039
0.878431 0.247059 0.498039
1.000000 0.250980 0.498039
0.000000 0.372549 0.498039
0.090196 0.376471 0.501961
0.235294 0.376471 0.501961
0.376471 0.372549 0.498039
0.498039 0.372549 0.501961
0.623529 0.368627 0.498039
0.752941 0.376471 0.501961
0.878431 0.372549 0.498039
0.996078 0.372549 0.498039
0.000000 0.498039 0.494118
0.098039 0.498039 0.498039
0.243137 0.501961 0.498039
0.364706 0.501961 0.501961
0.498039 0.498039 0.498039
0.619608 0.498039 0.494118
0.749020 0.498039 0.498039
0.878431 0.501961 0.501961
1.000000 0.498039 0.501961
0.000000 0.627451 0.498039
0.090196 0.627451 0.501961
0.227451 0.623529 0.498039
0.360784 0.627451 0.501961
0.486275 0.627451 0.498039
0.619608 0.623529 0.494118
0.745098 0.623529 0.498039
0.874510 0.623529 0.501961
0.996078 0.623529 0.501961
0.000000 0.749020 0.498039
0.058824 0.752941 0.501961
0.219608 0.752941 0.501961
0.360784 0.752941 0.498039
0.490196 0.749020 0.498039
0.615686 0.752941 0.505882
0.737255 0.752941 0.509804
0.874510 0.749020 0.509804
1.000000 0.749020 0.505882
0.000000 0.878431 0.509804
0.058824 0.874510 0.505882
0.200000 0.874510 0.509804
0.349020 0.874510 0.501961
0.474510 0.878431 0.509804
0.615686 0.874510 0.501961
0.737255 0.878431 0.501961
0.862745 0.878431 0.505882
0.992157 0.878431 0.505882
0.000000 1.000000 0.509804
0.000000 1.000000 0.509804
0.200000 1.000000 0.505882
0.345098 1.000000 0.505882
0.482353 1.000000 0.505882
0.611765 1.000000 0.505882
0.733333 1.000000 0.509804
0.866667 1.000000 0.509804
0.984314 1.000000 0.509804
0.050980 0.000000 0.619608
0.133333 0.000000 0.619608
0.258824 0.003922 0.615686
0.380392 0.000000 0.615686
0.498039 0.000000 0.619608
0.623529 0.003922 0.623529
0.749020 0.000000 0.623529
0.874510 0.000000 0.623529
1.000000 0.015686 0.627451
0.062745 0.117647 0.615686
0.145098 0.117647 0.611765
0.262745 0.121569 0.615686
0.372549 0.125490 0.627451
0.501961 0.121569 0.627451
0.623529 0.121569 0.623529
0.752941 0.117647 0.627451
0.874510 0.129412 0.623529
1.000000 0.125490 0.619608
0.000000 0.247059 0.623529
0.125490 0.247059 0.619608
0.247059 0.250980 0.623529
0.372549 0.247059 0.619608
0.498039 0.247059 0.623529
0.619608 0.250980 0.627451
0.752941 0.247059 0.623529
0.870588 0.247059 0.623529
0.996078 0.247059 0.623529
0.000000 0.376471 0.623529
0.137255 0.372549 0.623529
0.250980 0.372549 0.619608
0.372549 0.368627 0.623529
0.498039 0.372549 0.623529
0.619608 0.372549 0.623529
0.745098 0.372549 0.623529
0.870588 0.376471 0.627451
1.000000 0.376471 0.627451
0.000000 0.498039 0.619608
0.062745 0.501961 0.623529
0.231373 0.501961 0.623529
0.360784 0.501961 0.627451
0.498039 0.498039 0.623529
0.627451 0.498039 0.623529
0.749020 0.501961 0.627451
0.878431 0.501961 0.627451
1.000000 0.498039 0.623529
0.000000 0.623529 0.623529
0.098039 0.627451 0.619608
0.227451 0.627451 0.623529
0.352941 0.627451 0.627451
0.486275 0.623529 0.623529
0.623529 0.623529 0.623529
0.749020 0.623529 0.627451
0.878431 0.623529 0.623529
1.000000 0.623529 0.627451
0.000000 0.752941 0.623529
0.082353 0.749020 0.623529
0.215686 0.752941 0.623529
0.364706 0.749020 0.619608
0.494118 0.752941 0.623529
0.619608 0.752941 0.623529
0.745098 0.749020 0.623529
0.874510 0.749020 0.623529
1.000000 0.749020 0.623529
0.000000 0.874510 0.623529
0.054902 0.878431 0.627451
0.215686 0.878431 0.623529
0.360784 0.878431 0.623529
0.494118 0.878431 0.623529
0.607843 0.874510 0.623529
0.733333 0.878431 0.631373
0.862745 0.878431 0.635294
0.996078 0.878431 0.635294
0.000000 1.000000 0.631373
0.000000 1.000000 0.631373
0.219608 1.000000 0.631373
0.360784 1.000000 0.631373
0.470588 1.000000 0.631373
0.607843 1.000000 0.635294
0.737255 1.000000 0.631373
0.870588 1.000000 0.631373
0.988235 1.000000 0.627451
0.054902 0.000000 0.741176
0.149020 0.000000 0.741176
0.262745 0.000000 0.741176
0.376471 0.000000 0.741176
0.501961 0.000000 0.741176
0.627451 0.007843 0.749020
0.749020 0.007843 0.749020
0.874510 0.023529 0.749020
1.000000 0.023529 0.752941
0.019608 0.121569 0.745098
0.152941 0.121569 0.745098
0.258824 0.121569 0.745098
0.380392 0.117647 0.741176
0.501961 0.121569 0.741176
0.619608 0.129412 0.752941
0.745098 0.121569 0.749020
0.874510 0.129412 0.752941
0.996078 0.129412 0.745098
0.054902 0.247059 0.745098
0.137255 0.247059 0.745098
0.258824 0.247059 0.745098
0.372549 0.247059 0.745098
0.498039 0.243137 0.749020
0.623529 0.243137 0.749020
0.752941 0.250980 0.752941
0.874510 0.250980 0.749020
1.000000 0.243137 0.752941
0.007843 0.372549 0.752941
0.113725 0.372549 0.749020
0.243137 0.372549 0.749020
0.364706 0.372549 0.749020
0.494118 0.372549 0.749020
0.623529 0.372549 0.745098
0.749020 0.372549 0.752941
0.878431 0.372549 0.745098
1.000000 0.372549 0.752941
0.000000 0.498039 0.752941
0.078431 0.501961 0.749020
0.235294 0.498039 0.752941
0.376471 0.498039 0.749020
0.501961 0.498039 0.749020
0.623529 0.498039 0.749020
0.749020 0.498039 0.745098
0.878431 0.498039 0.745098
1.000000 0.498039 0.752941
0.000000 0.623529 0.749020
0.050980 0.627451 0.752941
0.219608 0.623529 0.749020
0.352941 0.623529 0.749020
0.494118 0.627451 0.749020
0.631373 0.623529 0.749020
0.749020 0.627451 0.749020
0.878431 0.623529 0.752941
1.000000 0.623529 0.749020
0.000000 0.752941 0.745098
0.098039 0.752941 0.749020
0.227451 0.752941 0.749020
0.356863 0.749020 0.749020
0.490196 0.752941 0.752941
0.611765 0.752941 0.752941
0.749020 0.749020 0.749020
0.870588 0.749020 0.749020
1.000000 0.749020 0.749020
0.000000 0.878431 0.749020
0.050980 0.874510 0.749020
0.223529 0.874510 0.745098
0.352941 0.874510 0.749020
0.482353 0.874510 0.749020
0.611765 0.878431 0.749020
0.737255 0.878431 0.749020
0.870588 0.878431 0.749020
0.996078 0.874510 0.745098
0.000000 1.000000 0.745098
0.000000 1.000000 0.749020
0.211765 1.000000 0.752941
0.356863 1.000000 0.752941
0.486275 1.000000 0.749020
0.607843 1.000000 0.749020
0.737255 1.000000 0.752941
0.866667 1.000000 0.760784
0.992157 1.000000 0.756863
0.078431 0.007843 0.866667
0.164706 0.000000 0.870588
0.262745 0.000000 0.866667
0.376471 0.000000 0.870588
0.501961 0.011765 0.870588
0.627451 0.000000 0.870588
0.752941 0.000000 0.866667
0.874510 0.000000 0.874510
1.000000 0.015686 0.878431
0.090196 0.117647 0.866667
0.149020 0.121569 0.866667
0.266667 0.113725 0.866667
0.380392 0.117647 0.862745
0.501961 0.121569 0.866667
0.627451 0.125490 0.866667
0.749020 0.121569 0.866667
0.878431 0.117647 0.874510
1.000000 0.133333 0.874510
0.082353 0.243137 0.866667
0.164706 0.247059 0.870588
0.258824 0.243137 0.870588
0.380392 0.243137 0.870588
0.509804 0.243137 0.866667
0.627451 0.250980 0.870588
0.752941 0.243137 0.874510
0.878431 0.250980 0.874510
1.000000 0.247059 0.878431
0.105882 0.368627 0.866667
0.149020 0.372549 0.870588
0.262745 0.372549 0.870588
0.384314 0.372549 0.870588
0.505882 0.368627 0.866667
0.623529 0.376471 0.878431
0.752941 0.372549 0.874510
0.878431 0.376471 0.874510
0.996078 0.372549 0.874510
0.000000 0.498039 0.878431
0.125490 0.501961 0.874510
0.254902 0.498039 0.878431
0.376471 0.498039 0.870588
0.498039 0.498039 0.874510
0.619608 0.501961 0.878431
0.756863 0.498039 0.874510
0.878431 0.498039 0.870588
0.996078 0.498039 0.874510
0.000000 0.627451 0.878431
0.078431 0.623529 0.878431
0.223529 0.627451 0.878431
0.356863 0.627451 0.878431
0.501961 0.623529 0.874510
0.627451 0.627451 0.874510
0.749020 0.623529 0.874510
0.874510 0.623529 0.874510
0.996078 0.623529 0.870588
0.000000 0.752941 0.874510
0.074510 0.749020 0.874510
0.235294 0.752941 0.874510
0.356863 0.752941 0.878431
0.494118 0.752941 0.874510
0.623529 0.749020 0.870588
0.749020 0.752941 0.878431
0.874510 0.749020 0.874510
1.000000 0.749020 0.874510
0.000000 0.874510 0.874510
0.062745 0.878431 0.878431
0.207843 0.878431 0.878431
0.352941 0.878431 0.878431
0.486275 0.874510 0.874510
0.611765 0.874510 0.878431
0.741176 0.878431 0.878431
0.878431 0.878431 0.878431
1.000000 0.874510 0.874510
0.000000 1.000000 0.874510
0.000000 1.000000 0.878431
0.235294 1.000000 0.878431
0.356863 1.000000 0.874510
0.486275 1.000000 0.878431
0.615686 1.000000 0.878431
0.745098 1.000000 0.874510
0.870588 1.000000 0.874510
0.992157 1.000000 0.874510
0.050980 0.000000 0.992157
0.164706 0.000000 0.996078
0.266667 0.000000 0.992157
0.376471 0.000000 0.996078
0.501961 0.000000 0.996078
0.631373 0.000000 0.992157
0.756863 0.000000 0.992157
0.878431 0.000000 0.992157
1.000000 0.007843 0.996078
0.113725 0.117647 0.992157
0.160784 0.117647 0.988235
0.262745 0.121569 0.992157
0.380392 0.117647 0.992157
0.501961 0.125490 0.992157
0.635294 0.121569 0.996078
0.756863 0.113725 0.988235
0.882353 0.113725 0.992157
1.000000 0.113725 0.996078
0.074510 0.247059 0.992157
0.164706 0.247059 0.988235
0.270588 0.243137 0.988235
0.384314 0.243137 0.996078
0.505882 0.243137 0.992157
0.627451 0.250980 0.996078
0.756863 0.247059 0.996078
0.874510 0.247059 0.992157
1.000000 0.250980 1.000000
0.098039 0.372549 0.996078
0.176471 0.372549 0.992157
0.274510 0.368627 0.988235
0.384314 0.372549 0.996078
0.505882 0.372549 0.996078
0.635294 0.372549 0.992157
0.756863 0.368627 0.992157
0.874510 0.372549 1.000000
1.000000 0.372549 1.000000
0.082353 0.498039 0.992157
0.172549 0.498039 0.996078
0.258824 0.498039 0.996078
0.380392 0.498039 0.992157
0.501961 0.498039 0.992157
0.631373 0.498039 0.996078
0.752941 0.498039 1.000000
0.874510 0.498039 1.000000
1.000000 0.501961 1.000000
0.011765 0.627451 1.000000
0.098039 0.623529 1.000000
0.247059 0.623529 1.000000
0.364706 0.627451 1.000000
0.501961 0.623529 1.000000
0.615686 0.623529 1.000000
0.752941 0.623529 1.000000
0.870588 0.623529 1.000000
1.000000 0.623529 1.000000
0.000000 0.752941 1.000000
0.039216 0.752941 1.000000
0.231373 0.752941 0.996078
0.345098 0.752941 1.000000
0.490196 0.752941 1.000000
0.627451 0.749020 1.000000
0.749020 0.752941 1.000000
0.874510 0.749020 1.000000
1.000000 0.752941 1.000000
0.000000 0.878431 1.000000
0.000000 0.878431 1.000000
0.227451 0.874510 0.996078
0.352941 0.874510 1.000000
0.486275 0.878431 1.000000
0.619608 0.878431 1.000000
0.737255 0.878431 1.000000
0.878431 0.874510 0.996078
0.996078 0.874510 0.996078
0.000000 1.000000 1.000000
0.047059 1.000000 1.000000
0.223529 1.000000 1.000000
0.356863 1.000000 0.996078
0.490196 1.000000 1.000000
0.615686 1.000000 1.000000
0.741176 1.000000 0.996078
0.870588 1.000000 1.000000
1.000000 1.000000 1.000000
