test_output_lut/12312_ct.cube
TITLE "Color Transfer LUT - 12312"
LUT_3D_SIZE 33
0.000000 0.000000 0.000000
0.027451 0.000000 0.000000
0.058824 0.000000 0.000000
0.086275 0.007843 0.000000
0.121569 0.003922 0.000000
0.149020 0.003922 0.003922
0.184314 0.003922 0.007843
0.211765 0.007843 0.000000
0.247059 0.000000 0.007843
0.282353 0.000000 0.000000
0.309804 0.003922 0.003922
0.341176 0.000000 0.003922
0.368627 0.007843 0.007843
0.403922 0.003922 0.007843
0.439216 0.000000 0.007843
0.466667 0.007843 0.011765
0.501961 0.000000 0.007843
0.529412 0.000000 0.007843
0.560784 0.003922 0.011765
0.592157 0.007843 0.007843
0.619608 0.003922 0.011765
0.654902 0.011765 0.007843
0.686275 0.000000 0.015686
0.721569 0.000000 0.015686
0.745098 0.007843 0.007843
0.780392 0.019608 0.007843
0.807843 0.011765 0.015686
0.843137 0.023529 0.011765
0.874510 0.019608 0.007843
0.901961 0.011765 0.015686
0.933333 0.007843 0.011765
0.968627 0.015686 0.023529
1.000000 0.007843 0.019608
0.000000 0.023529 0.000000
0.007843 0.039216 0.007843
0.062745 0.027451 0.007843
0.094118 0.019608 0.000000
0.125490 0.023529 0.000000
0.149020 0.039216 0.003922
0.188235 0.019608 0.000000
0.215686 0.019608 0.000000
0.250980 0.023529 0.003922
0.278431 0.027451 0.003922
0.309804 0.023529 0.000000
0.345098 0.023529 0.003922
0.372549 0.015686 0.015686
0.403922 0.035294 0.007843
0.435294 0.023529 0.007843
0.466667 0.031373 0.007843
0.498039 0.039216 0.011765
0.529412 0.023529 0.003922
0.560784 0.027451 0.007843
0.592157 0.035294 0.007843
0.619608 0.031373 0.007843
0.654902 0.011765 0.007843
0.686275 0.015686 0.007843
0.717647 0.011765 0.011765
0.749020 0.023529 0.011765
0.780392 0.019608 0.007843
0.815686 0.027451 0.007843
0.843137 0.023529 0.011765
0.874510 0.019608 0.007843
0.909804 0.027451 0.007843
0.941176 0.023529 0.015686
0.968627 0.015686 0.007843
1.000000 0.007843 0.019608
0.000000 0.062745 0.000000
0.000000 0.062745 0.000000
0.050980 0.058824 0.000000
0.086275 0.058824 0.000000
0.125490 0.058824 0.007843
0.156863 0.058824 0.000000
0.184314 0.054902 0.000000
0.219608 0.062745 0.003922
0.247059 0.062745 0.000000
0.278431 0.066667 0.000000
0.313726 0.058824 0.000000
0.341176 0.058824 0.003922
0.368627 0.062745 0.007843
0.403922 0.062745 0.007843
0.435294 0.058824 0.007843
0.466667 0.066667 0.011765
0.498039 0.058824 0.015686
0.529412 0.062745 0.007843
0.560784 0.050980 0.007843
0.592157 0.058824 0.011765
0.623529 0.058824 0.007843
0.654902 0.070588 0.007843
0.682353 0.070588 0.007843
0.721569 0.058824 0.007843
0.749020 0.058824 0.011765
0.780392 0.058824 0.007843
0.815686 0.066667 0.023529
0.843137 0.062745 0.015686
0.874510 0.062745 0.011765
0.905882 0.058824 0.007843
0.941176 0.070588 0.019608
0.968627 0.066667 0.011765
1.000000 0.066667 0.023529
0.000000 0.090196 0.000000
0.007843 0.094118 0.007843
0.054902 0.090196 0.003922
0.086275 0.090196 0.000000
0.125490 0.086275 0.000000
0.152941 0.090196 0.000000
0.188235 0.086275 0.000000
0.215686 0.090196 0.000000
0.247059 0.090196 0.007843
0.274510 0.094118 0.000000
0.313726 0.086275 0.003922
0.341176 0.086275 0.007843
0.372549 0.094118 0.011765
0.403922 0.090196 0.015686
0.431373 0.090196 0.007843
0.466667 0.094118 0.011765
0.498039 0.090196 0.011765
0.529412 0.082353 0.011765
0.560784 0.090196 0.015686
0.592157 0.090196 0.003922
0.623529 0.082353 0.003922
0.654902 0.090196 0.011765
0.682353 0.090196 0.007843
0.717647 0.098039 0.007843
0.752941 0.086275 0.015686
0.780392 0.086275 0.011765
0.811765 0.086275 0.019608
0.843137 0.094118 0.019608
0.874510 0.094118 0.011765
0.905882 0.094118 0.007843
0.933333 0.094118 0.015686
0.964706 0.090196 0.007843
1.000000 0.098039 0.023529
0.003922 0.121569 0.000000
0.011765 0.125490 0.000000
0.054902 0.121569 0.003922
0.086275 0.125490 0.000000
0.117647 0.121569 0.000000
0.145098 0.125490 0.000000
0.184314 0.117647 0.003922
0.215686 0.125490 0.000000
0.247059 0.121569 0.003922
0.278431 0.121569 0.000000
0.309804 0.121569 0.011765
0.341176 0.117647 0.015686
0.372549 0.121569 0.007843
0.403922 0.121569 0.007843
0.431373 0.121569 0.007843
0.466667 0.125490 0.011765
0.498039 0.121569 0.011765
0.529412 0.121569 0.011765
0.556863 0.125490 0.007843
0.592157 0.117647 0.007843
0.619608 0.121569 0.007843
0.654902 0.121569 0.007843
0.686275 0.125490 0.011765
0.717647 0.117647 0.007843
0.749020 0.117647 0.007843
0.780392 0.125490 0.015686
0.811765 0.129412 0.011765
0.839216 0.129412 0.019608
0.874510 0.117647 0.015686
0.905882 0.117647 0.007843
0.937255 0.117647 0.003922
0.964706 0.121569 0.011765
1.000000 0.129412 0.011765
0.000000 0.152941 0.000000
0.015686 0.152941 0.000000
0.058824 0.152941 0.007843
0.086275 0.152941 0.003922
0.121569 0.152941 0.003922
0.149020 0.156863 0.000000
0.180392 0.152941 0.000000
0.215686 0.152941 0.003922
0.243137 0.156863 0.000000
0.278431 0.152941 0.007843
0.309804 0.152941 0.007843
0.341176 0.152941 0.007843
0.372549 0.149020 0.011765
0.403922 0.152941 0.003922
0.435294 0.156863 0.011765
0.470588 0.152941 0.011765
0.501961 0.152941 0.011765
0.533333 0.149020 0.011765
0.560784 0.156863 0.007843
0.592157 0.156863 0.015686
0.623529 0.152941 0.011765
0.654902 0.156863 0.007843
0.686275 0.152941 0.007843
0.713726 0.156863 0.011765
0.749020 0.149020 0.007843
0.776471 0.152941 0.007843
0.811765 0.145098 0.015686
0.843137 0.149020 0.007843
0.874510 0.156863 0.023529
0.905882 0.160784 0.015686
0.937255 0.160784 0.007843
0.968627 0.160784 0.019608
1.000000 0.149020 0.015686
0.003922 0.184314 0.003922
0.027451 0.180392 0.000000
0.047059 0.188235 0.003922
0.078431 0.184314 0.003922
0.113725 0.184314 0.000000
0.149020 0.184314 0.000000
0.176471 0.184314 0.000000
0.211765 0.188235 0.015686
0.243137 0.184314 0.007843
0.278431 0.184314 0.015686
0.309804 0.184314 0.007843
0.341176 0.184314 0.007843
0.372549 0.184314 0.003922
0.407843 0.184314 0.011765
0.435294 0.184314 0.007843
0.470588 0.184314 0.015686
0.501961 0.184314 0.015686
0.529412 0.184314 0.007843
0.560784 0.184314 0.007843
0.592157 0.184314 0.011765
0.627451 0.184314 0.007843
0.658824 0.184314 0.007843
0.686275 0.188235 0.011765
0.721569 0.184314 0.023529
0.749020 0.188235 0.007843
0.784314 0.184314 0.011765
0.807843 0.184314 0.007843
0.843137 0.180392 0.011765
0.878431 0.188235 0.011765
0.901961 0.184314 0.015686
0.937255 0.176471 0.011765
0.968627 0.180392 0.023529
1.000000 0.184314 0.015686
0.000000 0.215686 0.000000
0.000000 0.219608 0.003922
0.047059 0.219608 0.007843
0.082353 0.215686 0.007843
0.109804 0.219608 0.007843
0.149020 0.215686 0.007843
0.176471 0.215686 0.011765
0.207843 0.215686 0.011765
0.239216 0.215686 0.003922
0.274510 0.215686 0.007843
0.313726 0.215686 0.003922
0.341176 0.215686 0.007843
0.372549 0.215686 0.007843
0.407843 0.215686 0.007843
0.435294 0.219608 0.003922
0.466667 0.215686 0.007843
0.498039 0.219608 0.007843
0.529412 0.215686 0.007843
0.560784 0.219608 0.015686
0.588235 0.215686 0.007843
0.623529 0.215686 0.007843
0.654902 0.219608 0.011765
0.686275 0.219608 0.007843
0.717647 0.215686 0.011765
0.745098 0.219608 0.007843
0.780392 0.215686 0.003922
0.815686 0.215686 0.015686
0.843137 0.219608 0.007843
0.874510 0.223529 0.019608
0.901961 0.215686 0.023529
0.933333 0.219608 0.015686
0.968627 0.211765 0.011765
1.000000 0.215686 0.023529
0.000000 0.247059 0.003922
0.007843 0.247059 0.007843
0.043137 0.247059 0.007843
0.062745 0.250980 0.003922
0.113725 0.247059 0.007843
0.141176 0.247059 0.015686
0.180392 0.250980 0.003922
0.207843 0.247059 0.000000
0.239216 0.247059 0.007843
0.274510 0.250980 0.003922
0.313726 0.247059 0.015686
0.341176 0.247059 0.015686
0.372549 0.247059 0.007843
0.403922 0.247059 0.011765
0.435294 0.247059 0.007843
0.470588 0.247059 0.007843
0.498039 0.247059 0.015686
0.529412 0.243137 0.007843
0.560784 0.247059 0.015686
0.596078 0.243137 0.007843
0.623529 0.250980 0.015686
0.654902 0.243137 0.007843
0.690196 0.247059 0.019608
0.717647 0.250980 0.011765
0.745098 0.247059 0.019608
0.780392 0.247059 0.011765
0.815686 0.247059 0.023529
0.839216 0.247059 0.011765
0.874510 0.247059 0.023529
0.905882 0.250980 0.015686
0.941176 0.247059 0.011765
0.964706 0.247059 0.015686
1.000000 0.243137 0.011765
0.000000 0.282353 0.007843
0.003922 0.282353 0.007843
0.043137 0.278431 0.007843
0.070588 0.282353 0.007843
0.109804 0.282353 0.007843
0.141176 0.282353 0.015686
0.180392 0.278431 0.007843
0.207843 0.282353 0.007843
0.239216 0.282353 0.003922
0.270588 0.282353 0.003922
0.305882 0.278431 0.011765
0.341176 0.278431 0.015686
0.372549 0.278431 0.007843
0.403922 0.278431 0.007843
0.435294 0.278431 0.007843
0.466667 0.278431 0.015686
0.494118 0.282353 0.007843
0.529412 0.278431 0.007843
0.560784 0.278431 0.015686
0.588235 0.278431 0.007843
0.623529 0.282353 0.015686
0.650980 0.282353 0.007843
0.690196 0.278431 0.019608
0.717647 0.278431 0.007843
0.752941 0.282353 0.019608
0.780392 0.278431 0.023529
0.811765 0.282353 0.015686
0.839216 0.278431 0.023529
0.874510 0.278431 0.019608
0.909804 0.278431 0.011765
0.937255 0.278431 0.019608
0.972549 0.278431 0.011765
1.000000 0.282353 0.023529
0.000000 0.309804 0.011765
0.000000 0.313726 0.015686
0.043137 0.309804 0.007843
0.086275 0.313726 0.011765
0.109804 0.309804 0.011765
0.137255 0.309804 0.007843
0.172549 0.313726 0.015686
0.207843 0.313726 0.011765
0.239216 0.309804 0.007843
0.274510 0.313726 0.015686
0.305882 0.313726 0.003922
0.329412 0.313726 0.015686
0.368627 0.313726 0.015686
0.403922 0.309804 0.003922
0.435294 0.309804 0.007843
0.466667 0.309804 0.007843
0.498039 0.309804 0.011765
0.533333 0.309804 0.015686
0.560784 0.309804 0.007843
0.592157 0.309804 0.011765
0.623529 0.309804 0.015686
0.650980 0.309804 0.023529
0.686275 0.305882 0.011765
0.717647 0.309804 0.023529
0.749020 0.309804 0.011765
0.780392 0.313726 0.023529
0.811765 0.309804 0.011765
0.843137 0.309804 0.019608
0.878431 0.309804 0.011765
0.901961 0.309804 0.015686
0.937255 0.309804 0.007843
0.972549 0.309804 0.023529
0.996078 0.313726 0.027451
0.000000 0.341176 0.007843
0.003922 0.341176 0.007843
0.039216 0.345098 0.003922
0.058824 0.341176 0.015686
0.101961 0.345098 0.007843
0.137255 0.341176 0.007843
0.172549 0.341176 0.003922
0.207843 0.345098 0.011765
0.243137 0.341176 0.007843
0.274510 0.341176 0.015686
0.301961 0.341176 0.011765
0.333333 0.345098 0.011765
0.364706 0.345098 0.011765
0.396078 0.341176 0.007843
0.431373 0.341176 0.011765
0.466667 0.341176 0.015686
0.494118 0.341176 0.015686
0.529412 0.341176 0.007843
0.564706 0.341176 0.011765
0.592157 0.345098 0.015686
0.627451 0.341176 0.023529
0.650980 0.341176 0.007843
0.690196 0.341176 0.019608
0.717647 0.341176 0.023529
0.749020 0.341176 0.011765
0.776471 0.341176 0.015686
0.807843 0.341176 0.023529
0.843137 0.345098 0.015686
0.870588 0.341176 0.023529
0.905882 0.345098 0.015686
0.937255 0.341176 0.023529
0.968627 0.337255 0.007843
1.000000 0.345098 0.023529
0.000000 0.376471 0.007843
0.000000 0.376471 0.019608
0.019608 0.372549 0.019608
0.050980 0.372549 0.007843
0.098039 0.372549 0.011765
0.133333 0.376471 0.015686
0.168627 0.376471 0.007843
0.203922 0.376471 0.015686
0.235294 0.376471 0.007843
0.266667 0.372549 0.015686
0.301961 0.376471 0.015686
0.333333 0.372549 0.007843
0.368627 0.372549 0.007843
0.392157 0.376471 0.007843
0.423529 0.372549 0.007843
0.466667 0.376471 0.011765
0.498039 0.372549 0.011765
0.525490 0.372549 0.011765
0.560784 0.372549 0.015686
0.596078 0.372549 0.023529
0.619608 0.372549 0.007843
0.654902 0.372549 0.027451
0.682353 0.372549 0.015686
0.717647 0.372549 0.023529
0.749020 0.372549 0.007843
0.776471 0.372549 0.015686
0.811765 0.368627 0.023529
0.843137 0.368627 0.011765
0.878431 0.372549 0.023529
0.905882 0.372549 0.031373
0.937255 0.368627 0.015686
0.968627 0.376471 0.027451
1.000000 0.372549 0.015686
0.000000 0.403922 0.007843
0.000000 0.403922 0.007843
0.043137 0.407843 0.015686
0.070588 0.403922 0.015686
0.098039 0.407843 0.023529
0.133333 0.403922 0.007843
0.172549 0.403922 0.011765
0.207843 0.403922 0.023529
0.239216 0.403922 0.011765
0.266667 0.403922 0.023529
0.305882 0.407843 0.019608
0.333333 0.407843 0.011765
0.364706 0.407843 0.007843
0.400000 0.407843 0.007843
0.427451 0.403922 0.019608
0.462745 0.407843 0.023529
0.501961 0.403922 0.023529
0.533333 0.403922 0.023529
0.556863 0.403922 0.007843
0.592157 0.403922 0.027451
0.623529 0.403922 0.011765
0.650980 0.403922 0.015686
0.686275 0.403922 0.023529
0.717647 0.407843 0.027451
0.752941 0.403922 0.015686
0.780392 0.407843 0.023529
0.811765 0.407843 0.027451
0.847059 0.403922 0.015686
0.878431 0.403922 0.023529
0.909804 0.403922 0.031373
0.937255 0.403922 0.015686
0.968627 0.403922 0.023529
0.996078 0.403922 0.027451
0.000000 0.439216 0.015686
0.000000 0.439216 0.019608
0.019608 0.435294 0.019608
0.058824 0.435294 0.019608
0.090196 0.439216 0.007843
0.141176 0.435294 0.011765
0.172549 0.435294 0.019608
0.211765 0.435294 0.007843
0.235294 0.439216 0.015686
0.266667 0.439216 0.007843
0.294118 0.435294 0.015686
0.333333 0.439216 0.015686
0.364706 0.435294 0.023529
0.396078 0.439216 0.007843
0.427451 0.439216 0.023529
0.458824 0.435294 0.011765
0.490196 0.435294 0.011765
0.533333 0.435294 0.019608
0.564706 0.435294 0.019608
0.596078 0.435294 0.019608
0.623529 0.439216 0.023529
0.654902 0.435294 0.023529
0.690196 0.435294 0.031373
0.713726 0.435294 0.027451
0.745098 0.435294 0.015686
0.780392 0.435294 0.023529
0.811765 0.439216 0.027451
0.847059 0.435294 0.015686
0.878431 0.435294 0.023529
0.909804 0.435294 0.031373
0.937255 0.435294 0.039216
0.968627 0.435294 0.023529
1.000000 0.435294 0.027451
0.000000 0.470588 0.023529
0.000000 0.466667 0.007843
0.000000 0.466667 0.007843
0.074510 0.466667 0.007843
0.101961 0.466667 0.015686
0.129412 0.470588 0.023529
0.172549 0.466667 0.023529
0.203922 0.470588 0.011765
0.239216 0.470588 0.023529
0.274510 0.470588 0.011765
0.301961 0.466667 0.023529
0.329412 0.466667 0.011765
0.368627 0.470588 0.007843
0.396078 0.470588 0.019608
0.431373 0.470588 0.019608
0.462745 0.470588 0.015686
0.486275 0.466667 0.007843
0.521569 0.466667 0.007843
0.552941 0.466667 0.003922
0.596078 0.466667 0.011765
0.623529 0.466667 0.031373
0.650980 0.466667 0.007843
0.686275 0.466667 0.015686
0.717647 0.466667 0.019608
0.749020 0.466667 0.023529
0.784314 0.466667 0.031373
0.811765 0.466667 0.027451
0.843137 0.466667 0.011765
0.878431 0.466667 0.023529
0.905882 0.466667 0.027451
0.937255 0.470588 0.039216
0.968627 0.470588 0.019608
1.000000 0.470588 0.027451
0.000000 0.498039 0.007843
0.000000 0.498039 0.007843
0.011765 0.498039 0.007843
0.062745 0.501961 0.019608
0.090196 0.498039 0.019608
0.141176 0.501961 0.027451
0.172549 0.498039 0.007843
0.203922 0.501961 0.019608
0.243137 0.501961 0.023529
0.266667 0.501961 0.015686
0.298039 0.501961 0.023529
0.329412 0.501961 0.015686
0.364706 0.498039 0.023529
0.396078 0.501961 0.023529
0.423529 0.501961 0.011765
0.458824 0.501961 0.011765
0.490196 0.498039 0.023529
0.521569 0.498039 0.023529
0.556863 0.498039 0.023529
0.584314 0.501961 0.019608
0.619608 0.498039 0.019608
0.658824 0.501961 0.023529
0.690196 0.498039 0.023529
0.713726 0.498039 0.023529
0.752941 0.498039 0.031373
0.776471 0.498039 0.027451
0.815686 0.498039 0.015686
0.839216 0.498039 0.011765
0.870588 0.498039 0.019608
0.905882 0.498039 0.027451
0.937255 0.498039 0.039216
0.968627 0.501961 0.019608
1.000000 0.501961 0.023529
0.000000 0.529412 0.015686
0.000000 0.529412 0.015686
0.000000 0.529412 0.015686
0.039216 0.533333 0.023529
0.105882 0.529412 0.023529
0.133333 0.533333 0.031373
0.168627 0.529412 0.011765
0.203922 0.533333 0.023529
0.231373 0.533333 0.031373
0.266667 0.529412 0.011765
0.301961 0.529412 0.023529
0.333333 0.529412 0.011765
0.364706 0.533333 0.031373
0.396078 0.533333 0.023529
0.427451 0.529412 0.007843
0.458824 0.533333 0.027451
0.490196 0.529412 0.019608
0.525490 0.529412 0.019608
0.552941 0.533333 0.015686
0.588235 0.533333 0.011765
0.619608 0.533333 0.035294
0.650980 0.529412 0.011765
0.686275 0.529412 0.035294
0.717647 0.529412 0.007843
0.749020 0.533333 0.015686
0.780392 0.529412 0.015686
0.811765 0.533333 0.023529
0.843137 0.529412 0.023529
0.874510 0.533333 0.027451
0.905882 0.525490 0.031373
0.937255 0.529412 0.007843
0.968627 0.529412 0.019608
1.000000 0.533333 0.027451
0.000000 0.560784 0.019608
0.000000 0.560784 0.019608
0.000000 0.564706 0.027451
0.050980 0.564706 0.031373
0.090196 0.560784 0.031373
0.117647 0.560784 0.007843
0.164706 0.560784 0.019608
0.200000 0.564706 0.027451
0.231373 0.560784 0.007843
0.270588 0.560784 0.019608
0.294118 0.564706 0.027451
0.329412 0.564706 0.015686
0.360784 0.564706 0.027451
0.400000 0.560784 0.015686
0.431373 0.564706 0.039216
0.458824 0.564706 0.023529
0.494118 0.564706 0.023529
0.517647 0.564706 0.011765
0.556863 0.564706 0.007843
0.588235 0.564706 0.031373
0.615686 0.564706 0.027451
0.647059 0.560784 0.019608
0.690196 0.560784 0.027451
0.717647 0.564706 0.023529
0.749020 0.560784 0.023529
0.780392 0.560784 0.023529
0.811765 0.564706 0.031373
0.847059 0.560784 0.031373
0.870588 0.560784 0.031373
0.901961 0.564706 0.039216
0.941176 0.560784 0.050980
0.968627 0.560784 0.019608
1.000000 0.564706 0.023529
0.000000 0.592157 0.027451
0.000000 0.592157 0.027451
0.000000 0.592157 0.027451
0.023529 0.596078 0.011765
0.101961 0.592157 0.039216
0.133333 0.592157 0.015686
0.160784 0.596078 0.023529
0.192157 0.592157 0.023529
0.231373 0.596078 0.011765
0.258824 0.596078 0.023529
0.298039 0.596078 0.035294
0.329412 0.592157 0.011765
0.368627 0.596078 0.035294
0.400000 0.596078 0.023529
0.427451 0.596078 0.035294
0.454902 0.592157 0.023529
0.494118 0.596078 0.019608
0.517647 0.596078 0.031373
0.556863 0.596078 0.031373
0.580392 0.592157 0.015686
0.615686 0.592157 0.015686
0.650980 0.592157 0.011765
0.678431 0.596078 0.039216
0.717647 0.592157 0.039216
0.749020 0.592157 0.039216
0.776471 0.592157 0.035294
0.815686 0.592157 0.043137
0.843137 0.592157 0.039216
0.874510 0.592157 0.039216
0.905882 0.596078 0.019608
0.933333 0.592157 0.019608
0.972549 0.592157 0.027451
0.996078 0.592157 0.023529
0.000000 0.623529 0.007843
0.000000 0.623529 0.007843
0.000000 0.623529 0.035294
0.043137 0.627451 0.019608
0.090196 0.627451 0.019608
0.117647 0.623529 0.023529
0.168627 0.627451 0.031373
0.188235 0.623529 0.035294
0.227451 0.627451 0.019608
0.266667 0.623529 0.023529
0.298039 0.623529 0.031373
0.325490 0.627451 0.019608
0.356863 0.627451 0.031373
0.392157 0.627451 0.015686
0.431373 0.623529 0.031373
0.454902 0.627451 0.023529
0.494118 0.627451 0.015686
0.517647 0.627451 0.027451
0.556863 0.627451 0.023529
0.580392 0.623529 0.039216
0.615686 0.627451 0.039216
0.647059 0.627451 0.035294
0.682353 0.627451 0.031373
0.713726 0.627451 0.031373
0.745098 0.627451 0.027451
0.784314 0.627451 0.027451
0.811765 0.627451 0.023529
0.843137 0.623529 0.023529
0.870588 0.623529 0.023529
0.905882 0.623529 0.023529
0.937255 0.627451 0.027451
0.968627 0.623529 0.027451
1.000000 0.623529 0.039216
0.000000 0.658824 0.015686
0.000000 0.654902 0.015686
0.000000 0.654902 0.015686
0.043137 0.654902 0.015686
0.098039 0.658824 0.027451
0.129412 0.654902 0.027451
0.156863 0.654902 0.027451
0.200000 0.658824 0.039216
0.219608 0.654902 0.015686
0.266667 0.654902 0.027451
0.298039 0.658824 0.039216
0.329412 0.658824 0.023529
0.356863 0.654902 0.027451
0.392157 0.654902 0.011765
0.423529 0.654902 0.027451
0.458824 0.658824 0.023529
0.490196 0.658824 0.039216
0.517647 0.654902 0.023529
0.556863 0.658824 0.019608
0.580392 0.658824 0.035294
0.619608 0.658824 0.031373
0.643137 0.654902 0.019608
0.678431 0.654902 0.015686
0.713726 0.654902 0.011765
0.741176 0.658824 0.039216
0.776471 0.658824 0.039216
0.811765 0.654902 0.039216
0.843137 0.654902 0.039216
0.870588 0.654902 0.035294
0.905882 0.654902 0.035294
0.937255 0.658824 0.039216
0.964706 0.658824 0.039216
1.000000 0.654902 0.039216
0.000000 0.690196 0.023529
0.000000 0.690196 0.023529
0.000000 0.686275 0.023529
0.062745 0.686275 0.023529
0.062745 0.686275 0.023529
0.113725 0.690196 0.035294
0.141176 0.690196 0.039216
0.196078 0.690196 0.019608
0.231373 0.686275 0.023529
0.266667 0.690196 0.035294
0.294118 0.686275 0.039216
0.325490 0.686275 0.023529
0.364706 0.690196 0.035294
0.388235 0.690196 0.019608
0.423529 0.690196 0.031373
0.454902 0.690196 0.015686
0.486275 0.690196 0.031373
0.521569 0.686275 0.019608
0.552941 0.690196 0.043137
0.580392 0.690196 0.027451
0.619608 0.690196 0.023529
0.643137 0.690196 0.043137
0.682353 0.690196 0.039216
0.709804 0.690196 0.035294
0.741176 0.686275 0.023529
0.772549 0.690196 0.019608
0.803922 0.686275 0.015686
0.839216 0.686275 0.015686
0.874510 0.686275 0.050980
0.901961 0.686275 0.047059
0.941176 0.690196 0.054902
0.968627 0.690196 0.050980
1.000000 0.686275 0.050980
0.000000 0.721569 0.027451
0.000000 0.721569 0.027451
0.007843 0.721569 0.031373
0.007843 0.721569 0.031373
0.074510 0.717647 0.031373
0.117647 0.717647 0.035294
0.156863 0.721569 0.047059
0.203922 0.717647 0.015686
0.227451 0.721569 0.027451
0.258824 0.717647 0.031373
0.294118 0.721569 0.047059
0.325490 0.721569 0.027451
0.360784 0.717647 0.031373
0.388235 0.717647 0.047059
0.423529 0.717647 0.027451
0.458824 0.717647 0.011765
0.490196 0.717647 0.027451
0.521569 0.721569 0.023529
0.552941 0.721569 0.039216
0.580392 0.721569 0.023529
0.619608 0.721569 0.019608
0.647059 0.721569 0.039216
0.682353 0.721569 0.035294
0.709804 0.721569 0.015686
0.745098 0.721569 0.050980
0.772549 0.721569 0.047059
0.807843 0.721569 0.043137
0.831373 0.717647 0.027451
0.874510 0.717647 0.027451
0.901961 0.717647 0.023529
0.941176 0.717647 0.035294
0.968627 0.721569 0.031373
0.996078 0.721569 0.027451
0.000000 0.749020 0.027451
0.000000 0.749020 0.027451
0.000000 0.749020 0.027451
0.031373 0.752941 0.039216
0.094118 0.752941 0.039216
0.129412 0.749020 0.043137
0.164706 0.749020 0.011765
0.196078 0.752941 0.023529
0.231373 0.749020 0.027451
0.254902 0.752941 0.039216
0.286275 0.749020 0.043137
0.321569 0.752941 0.023529
0.364706 0.752941 0.039216
0.392157 0.752941 0.019608
0.423529 0.749020 0.023529
0.458824 0.749020 0.039216
0.490196 0.749020 0.023529
0.517647 0.752941 0.050980
0.556863 0.752941 0.035294
0.584314 0.749020 0.050980
0.611765 0.749020 0.035294
0.647059 0.752941 0.031373
0.678431 0.749020 0.015686
0.709804 0.752941 0.047059
0.741176 0.749020 0.031373
0.772549 0.752941 0.023529
0.807843 0.752941 0.023529
0.835294 0.752941 0.054902
0.870588 0.752941 0.050980
0.905882 0.752941 0.050980
0.937255 0.752941 0.050980
0.968627 0.752941 0.047059
1.000000 0.752941 0.043137
0.000000 0.784314 0.035294
0.000000 0.784314 0.039216
0.000000 0.784314 0.039216
0.031373 0.780392 0.039216
0.031373 0.780392 0.039216
0.105882 0.784314 0.050980
0.149020 0.784314 0.019608
0.200000 0.780392 0.023529
0.227451 0.784314 0.035294
0.262745 0.780392 0.039216
0.301961 0.784314 0.050980
0.317647 0.780392 0.019608
0.360784 0.780392 0.039216
0.392157 0.784314 0.015686
0.427451 0.784314 0.031373
0.454902 0.784314 0.050980
0.490196 0.784314 0.031373
0.521569 0.784314 0.047059
0.552941 0.784314 0.027451
0.580392 0.784314 0.047059
0.611765 0.780392 0.027451
0.650980 0.784314 0.023529
0.678431 0.784314 0.043137
0.709804 0.784314 0.039216
0.745098 0.780392 0.023529
0.772549 0.784314 0.054902
0.803922 0.780392 0.039216
0.835294 0.784314 0.035294
0.866667 0.784314 0.027451
0.901961 0.784314 0.027451
0.929412 0.784314 0.023529
0.972549 0.780392 0.062745
1.000000 0.784314 0.058824
0.000000 0.811765 0.035294
0.000000 0.811765 0.035294
0.000000 0.815686 0.047059
0.000000 0.815686 0.047059
0.054902 0.815686 0.050980
0.109804 0.811765 0.050980
0.152941 0.811765 0.015686
0.188235 0.815686 0.027451
0.231373 0.811765 0.031373
0.258824 0.815686 0.047059
0.294118 0.811765 0.050980
0.329412 0.815686 0.027451
0.356863 0.811765 0.031373
0.388235 0.811765 0.050980
0.427451 0.811765 0.027451
0.454902 0.815686 0.043137
0.490196 0.815686 0.023529
0.521569 0.815686 0.043137
0.556863 0.815686 0.023529
0.584314 0.811765 0.043137
0.615686 0.811765 0.023529
0.650980 0.815686 0.054902
0.678431 0.815686 0.039216
0.705882 0.815686 0.015686
0.745098 0.815686 0.050980
0.768627 0.811765 0.035294
0.807843 0.815686 0.031373
0.839216 0.815686 0.062745
0.862745 0.815686 0.047059
