test_output_lut/13f_ct.cube
TITLE "Color Transfer LUT - 13f"
LUT_3D_SIZE 9
0.000000 0.000000 0.000000
0.117647 0.007843 0.000000
0.243137 0.003922 0.007843
0.364706 0.019608 0.000000
0.498039 0.015686 0.000000
0.615686 0.023529 0.003922
0.741176 0.039216 0.007843
0.870588 0.050980 0.007843
0.996078 0.050980 0.015686
0.011765 0.121569 0.000000
0.121569 0.121569 0.003922
0.243137 0.125490 0.003922
0.368627 0.125490 0.000000
0.494118 0.129412 0.003922
0.615686 0.129412 0.000000
0.745098 0.129412 0.003922
0.870588 0.133333 0.011765
0.996078 0.145098 0.007843
0.007843 0.243137 0.000000
0.125490 0.247059 0.000000
0.243137 0.247059 0.000000
0.368627 0.250980 0.000000
0.494118 0.250980 0.003922
0.619608 0.254902 0.003922
0.741176 0.254902 0.015686
0.870588 0.254902 0.023529
0.996078 0.250980 0.007843
0.000000 0.372549 0.000000
0.113725 0.372549 0.000000
0.243137 0.372549 0.000000
0.372549 0.372549 0.000000
0.498039 0.372549 0.000000
0.615686 0.376471 0.003922
0.745098 0.376471 0.007843
0.870588 0.376471 0.023529
0.996078 0.376471 0.011765
0.019608 0.498039 0.000000
0.117647 0.498039 0.000000
0.254902 0.498039 0.007843
0.372549 0.498039 0.027451
0.494118 0.498039 0.023529
0.619608 0.498039 0.019608
0.745098 0.501961 0.031373
0.866667 0.501961 0.019608
0.996078 0.505882 0.023529
0.000000 0.623529 0.007843
0.117647 0.623529 0.023529
0.243137 0.627451 0.019608
0.368627 0.623529 0.031373
0.498039 0.623529 0.015686
0.623529 0.623529 0.039216
0.749020 0.627451 0.027451
0.866667 0.627451 0.019608
0.996078 0.627451 0.035294
0.007843 0.749020 0.027451
0.129412 0.749020 0.043137
0.250980 0.749020 0.027451
0.376471 0.749020 0.039216
0.501961 0.745098 0.023529
0.619608 0.749020 0.039216
0.749020 0.745098 0.035294
0.878431 0.749020 0.054902
0.992157 0.752941 0.039216
0.000000 0.874510 0.043137
0.125490 0.874510 0.058824
0.250980 0.874510 0.039216
0.364706 0.874510 0.039216
0.501961 0.874510 0.058824
0.623529 0.874510 0.050980
0.745098 0.874510 0.023529
0.878431 0.874510 0.062745
1.000000 0.874510 0.027451
0.003922 1.000000 0.058824
0.098039 1.000000 0.062745
0.231373 1.000000 0.039216
0.372549 1.000000 0.035294
0.498039 1.000000 0.039216
0.627451 1.000000 0.074510
0.749020 1.000000 0.070588
0.870588 1.000000 0.039216
0.996078 1.000000 0.027451
0.000000 0.000000 0.117647
0.113725 0.007843 0.117647
0.247059 0.011765 0.121569
0.364706 0.023529 0.125490
0.494118 0.007843 0.117647
0.619608 0.019608 0.121569
0.745098 0.027451 0.121569
0.870588 0.023529 0.117647
0.992157 0.054902 0.125490
0.000000 0.121569 0.125490
0.121569 0.121569 0.121569
0.243137 0.129412 0.121569
0.368627 0.125490 0.117647
0.494118 0.125490 0.117647
0.619608 0.129412 0.121569
0.745098 0.137255 0.117647
0.866667 0.133333 0.117647
0.996078 0.145098 0.133333
0.007843 0.247059 0.117647
0.117647 0.247059 0.121569
0.243137 0.247059 0.117647
0.368627 0.250980 0.121569
0.490196 0.247059 0.121569
0.619608 0.250980 0.117647
0.745098 0.250980 0.117647
0.866667 0.254902 0.129412
0.992157 0.254902 0.133333
0.007843 0.372549 0.121569
0.113725 0.376471 0.121569
0.250980 0.368627 0.121569
0.372549 0.372549 0.125490
0.494118 0.372549 0.117647
0.619608 0.376471 0.125490
0.745098 0.372549 0.121569
0.870588 0.376471 0.133333
0.992157 0.380392 0.125490
0.000000 0.498039 0.121569
0.129412 0.501961 0.121569
0.247059 0.498039 0.125490
0.372549 0.498039 0.125490
0.498039 0.498039 0.121569
0.627451 0.498039 0.133333
0.741176 0.501961 0.137255
0.866667 0.501961 0.137255
0.996078 0.501961 0.133333
0.007843 0.623529 0.121569
0.109804 0.623529 0.129412
0.235294 0.623529 0.141176
0.368627 0.623529 0.133333
0.498039 0.623529 0.129412
0.627451 0.623529 0.129412
0.752941 0.623529 0.141176
0.866667 0.623529 0.141176
0.992157 0.627451 0.137255
0.007843 0.749020 0.133333
0.129412 0.749020 0.141176
0.235294 0.749020 0.133333
0.364706 0.749020 0.141176
0.498039 0.752941 0.141176
0.627451 0.749020 0.133333
0.749020 0.752941 0.149020
0.874510 0.749020 0.141176
0.996078 0.752941 0.137255
0.000000 0.878431 0.145098
0.133333 0.874510 0.149020
0.235294 0.874510 0.137255
0.368627 0.874510 0.137255
0.494118 0.874510 0.149020
0.619608 0.874510 0.145098
0.749020 0.874510 0.137255
0.874510 0.874510 0.137255
0.996078 0.874510 0.141176
0.000000 1.000000 0.141176
0.121569 1.000000 0.141176
0.243137 1.000000 0.133333
0.376471 1.000000 0.149020
0.501961 0.996078 0.133333
0.619608 1.000000 0.149020
0.752941 1.000000 0.149020
0.874510 1.000000 0.137255
1.000000 1.000000 0.156863
0.000000 0.000000 0.247059
0.113725 0.007843 0.247059
0.243137 0.007843 0.247059
0.368627 0.011765 0.247059
0.494118 0.007843 0.243137
0.615686 0.023529 0.243137
0.745098 0.031373 0.247059
0.870588 0.023529 0.247059
0.996078 0.050980 0.250980
0.000000 0.121569 0.247059
0.117647 0.121569 0.250980
0.243137 0.129412 0.250980
0.368627 0.121569 0.243137
0.494118 0.129412 0.243137
0.615686 0.133333 0.243137
0.749020 0.129412 0.247059
0.866667 0.133333 0.247059
0.992157 0.137255 0.247059
0.000000 0.247059 0.247059
0.117647 0.247059 0.247059
0.247059 0.247059 0.247059
0.368627 0.250980 0.243137
0.490196 0.250980 0.247059
0.619608 0.250980 0.243137
0.741176 0.250980 0.243137
0.866667 0.254902 0.247059
0.996078 0.254902 0.247059
0.000000 0.372549 0.243137
0.121569 0.372549 0.243137
0.250980 0.372549 0.247059
0.376471 0.372549 0.250980
0.490196 0.372549 0.247059
0.615686 0.372549 0.247059
0.745098 0.376471 0.243137
0.870588 0.380392 0.247059
0.996078 0.380392 0.243137
0.003922 0.498039 0.250980
0.121569 0.498039 0.247059
0.254902 0.498039 0.243137
0.372549 0.498039 0.247059
0.494118 0.498039 0.243137
0.623529 0.498039 0.247059
0.749020 0.501961 0.247059
0.870588 0.501961 0.243137
0.988235 0.501961 0.250980
0.015686 0.623529 0.243137
0.113725 0.627451 0.247059
0.247059 0.627451 0.250980
0.376471 0.623529 0.247059
0.501961 0.623529 0.243137
0.623529 0.627451 0.247059
0.745098 0.623529 0.250980
0.870588 0.627451 0.258824
0.988235 0.627451 0.258824
0.007843 0.749020 0.243137
0.121569 0.749020 0.243137
0.250980 0.749020 0.250980
0.360784 0.749020 0.254902
0.498039 0.749020 0.254902
0.619608 0.749020 0.262745
0.745098 0.749020 0.254902
0.870588 0.749020 0.258824
0.992157 0.749020 0.262745
0.000000 0.874510 0.258824
0.137255 0.874510 0.250980
0.231373 0.874510 0.254902
0.376471 0.878431 0.262745
0.501961 0.878431 0.258824
0.627451 0.878431 0.258824
0.749020 0.878431 0.262745
0.874510 0.878431 0.266667
0.996078 0.874510 0.254902
0.000000 1.000000 0.258824
0.086275 1.000000 0.266667
0.231373 1.000000 0.258824
0.368627 1.000000 0.254902
0.498039 1.000000 0.262745
0.615686 1.000000 0.254902
0.749020 1.000000 0.258824
0.874510 1.000000 0.262745
1.000000 1.000000 0.262745
0.000000 0.007843 0.368627
0.113725 0.011765 0.372549
0.243137 0.007843 0.372549
0.368627 0.011765 0.376471
0.494118 0.023529 0.376471
0.619608 0.023529 0.376471
0.745098 0.035294 0.372549
0.870588 0.050980 0.372549
0.992157 0.058824 0.372549
0.000000 0.125490 0.372549
0.113725 0.125490 0.372549
0.247059 0.125490 0.372549
0.364706 0.125490 0.368627
0.494118 0.129412 0.372549
0.623529 0.129412 0.372549
0.749020 0.133333 0.372549
0.874510 0.133333 0.372549
0.996078 0.149020 0.376471
0.000000 0.247059 0.372549
0.109804 0.250980 0.376471
0.235294 0.250980 0.372549
0.368627 0.250980 0.368627
0.494118 0.247059 0.368627
0.619608 0.250980 0.368627
0.741176 0.254902 0.372549
0.866667 0.254902 0.368627
0.992157 0.258824 0.368627
0.007843 0.372549 0.372549
0.117647 0.372549 0.372549
0.243137 0.372549 0.376471
0.372549 0.372549 0.372549
0.490196 0.376471 0.372549
0.615686 0.376471 0.372549
0.745098 0.372549 0.372549
0.870588 0.376471 0.376471
0.996078 0.376471 0.372549
0.007843 0.498039 0.372549
0.133333 0.498039 0.372549
0.239216 0.498039 0.372549
0.376471 0.498039 0.372549
0.498039 0.501961 0.368627
0.619608 0.501961 0.376471
0.745098 0.501961 0.368627
0.866667 0.501961 0.376471
0.992157 0.501961 0.372549
0.000000 0.623529 0.368627
0.133333 0.623529 0.372549
0.247059 0.623529 0.376471
0.372549 0.623529 0.372549
0.498039 0.627451 0.372549
0.623529 0.627451 0.376471
0.752941 0.623529 0.368627
0.870588 0.627451 0.376471
0.996078 0.627451 0.372549
0.000000 0.752941 0.376471
0.109804 0.749020 0.376471
0.254902 0.749020 0.376471
0.372549 0.749020 0.368627
0.498039 0.749020 0.372549
0.627451 0.749020 0.368627
0.752941 0.749020 0.372549
0.874510 0.749020 0.372549
0.992157 0.752941 0.384314
0.000000 0.878431 0.376471
0.133333 0.874510 0.368627
0.231373 0.874510 0.376471
0.372549 0.874510 0.376471
0.490196 0.874510 0.380392
0.619608 0.874510 0.384314
0.745098 0.874510 0.380392
0.874510 0.874510 0.384314
1.000000 0.874510 0.380392
0.000000 1.000000 0.380392
0.094118 1.000000 0.380392
0.235294 1.000000 0.376471
0.372549 1.000000 0.388235
0.494118 1.000000 0.380392
0.627451 1.000000 0.380392
0.752941 1.000000 0.380392
0.878431 1.000000 0.380392
1.000000 1.000000 0.380392
0.000000 0.007843 0.498039
0.117647 0.007843 0.494118
0.243137 0.007843 0.498039
0.364706 0.019608 0.498039
0.494118 0.007843 0.494118
0.615686 0.035294 0.498039
0.745098 0.039216 0.501961
0.874510 0.027451 0.498039
0.992157 0.058824 0.494118
0.000000 0.125490 0.501961
0.098039 0.125490 0.501961
0.235294 0.129412 0.501961
0.372549 0.125490 0.498039
0.490196 0.129412 0.498039
0.615686 0.133333 0.498039
0.745098 0.129412 0.494118
0.870588 0.141176 0.501961
1.000000 0.137255 0.501961
0.000000 0.250980 0.498039
0.094118 0.250980 0.501961
0.243137 0.250980 0.494118
0.364706 0.250980 0.498039
0.494118 0.254902 0.498039
0.615686 0.254902 0.501961
0.745098 0.250980 0.498039
0.874510 0.254902 0.498039
0.992157 0.258824 0.494118
0.003922 0.372549 0.498039
0.113725 0.376471 0.501961
0.243137 0.372549 0.501961
0.368627 0.376471 0.498039
0.494118 0.376471 0.501961
0.619608 0.372549 0.498039
0.745098 0.380392 0.501961
0.874510 0.376471 0.498039
0.992157 0.376471 0.498039
0.000000 0.498039 0.494118
0.125490 0.498039 0.498039
0.254902 0.498039 0.498039
0.376471 0.498039 0.501961
0.498039 0.498039 0.498039
0.615686 0.501961 0.494118
0.741176 0.498039 0.498039
0.870588 0.505882 0.501961
1.000000 0.501961 0.498039
0.011765 0.623529 0.498039
0.121569 0.627451 0.501961
0.243137 0.623529 0.498039
0.372549 0.627451 0.501961
0.494118 0.623529 0.498039
0.627451 0.623529 0.498039
0.745098 0.623529 0.498039
0.870588 0.627451 0.498039
0.992157 0.627451 0.494118
0.043137 0.749020 0.498039
0.113725 0.752941 0.501961
0.239216 0.749020 0.501961
0.372549 0.752941 0.498039
0.501961 0.749020 0.498039
0.627451 0.749020 0.498039
0.749020 0.749020 0.501961
0.874510 0.749020 0.501961
0.996078 0.752941 0.498039
0.000000 0.878431 0.501961
0.137255 0.874510 0.498039
0.235294 0.874510 0.501961
0.368627 0.874510 0.494118
0.490196 0.874510 0.501961
0.627451 0.874510 0.494118
0.749020 0.874510 0.494118
0.870588 0.874510 0.498039
1.000000 0.878431 0.498039
0.000000 1.000000 0.498039
0.098039 1.000000 0.498039
0.243137 1.000000 0.498039
0.368627 1.000000 0.498039
0.501961 1.000000 0.498039
0.623529 1.000000 0.498039
0.745098 1.000000 0.509804
0.874510 1.000000 0.509804
0.992157 1.000000 0.509804
0.000000 0.007843 0.627451
0.094118 0.015686 0.627451
0.243137 0.019608 0.619608
0.368627 0.019608 0.623529
0.494118 0.019608 0.619608
0.615686 0.027451 0.623529
0.745098 0.019608 0.623529
0.870588 0.035294 0.623529
0.996078 0.058824 0.627451
0.000000 0.125490 0.623529
0.109804 0.125490 0.619608
0.243137 0.129412 0.623529
0.364706 0.133333 0.627451
0.494118 0.129412 0.627451
0.615686 0.129412 0.623529
0.745098 0.129412 0.627451
0.866667 0.141176 0.623529
0.996078 0.141176 0.619608
0.000000 0.250980 0.623529
0.105882 0.250980 0.619608
0.235294 0.250980 0.623529
0.364706 0.250980 0.619608
0.490196 0.250980 0.623529
0.615686 0.254902 0.627451
0.749020 0.254902 0.623529
0.866667 0.254902 0.623529
0.992157 0.258824 0.623529
0.000000 0.376471 0.623529
0.137255 0.372549 0.623529
0.239216 0.372549 0.619608
0.364706 0.372549 0.623529
0.490196 0.376471 0.623529
0.615686 0.376471 0.623529
0.741176 0.376471 0.623529
0.866667 0.380392 0.627451
0.996078 0.380392 0.627451
0.000000 0.498039 0.619608
0.101961 0.498039 0.623529
0.247059 0.501961 0.623529
0.372549 0.501961 0.627451
0.498039 0.498039 0.623529
0.619608 0.501961 0.623529
0.741176 0.505882 0.627451
0.870588 0.501961 0.627451
0.996078 0.501961 0.623529
0.000000 0.623529 0.623529
0.133333 0.623529 0.619608
0.247059 0.627451 0.623529
0.364706 0.627451 0.627451
0.494118 0.623529 0.623529
0.623529 0.623529 0.623529
0.741176 0.623529 0.627451
0.874510 0.627451 0.623529
0.996078 0.627451 0.627451
0.000000 0.749020 0.623529
0.125490 0.749020 0.623529
0.239216 0.752941 0.623529
0.376471 0.749020 0.619608
0.505882 0.749020 0.623529
0.627451 0.752941 0.623529
0.749020 0.745098 0.623529
0.874510 0.749020 0.623529
0.992157 0.752941 0.623529
0.031373 0.874510 0.623529
0.121569 0.878431 0.627451
0.243137 0.878431 0.623529
0.376471 0.878431 0.623529
0.505882 0.878431 0.623529
0.619608 0.874510 0.623529
0.745098 0.874510 0.623529
0.870588 0.874510 0.627451
0.996078 0.878431 0.627451
0.050980 1.000000 0.623529
0.129412 1.000000 0.623529
0.258824 1.000000 0.623529
0.384314 1.000000 0.623529
0.490196 1.000000 0.623529
0.623529 1.000000 0.627451
0.749020 1.000000 0.623529
0.882353 1.000000 0.623529
0.996078 1.000000 0.619608
0.000000 0.011765 0.749020
0.101961 0.015686 0.749020
0.235294 0.019608 0.749020
0.360784 0.019608 0.749020
0.490196 0.023529 0.749020
0.619608 0.039216 0.749020
0.745098 0.039216 0.749020
0.870588 0.058824 0.749020
0.996078 0.062745 0.752941
0.000000 0.129412 0.749020
0.105882 0.129412 0.749020
0.235294 0.129412 0.752941
0.364706 0.129412 0.749020
0.490196 0.133333 0.749020
0.615686 0.141176 0.752941
0.741176 0.137255 0.749020
0.870588 0.145098 0.752941
0.992157 0.149020 0.745098
0.000000 0.250980 0.749020
0.082353 0.250980 0.752941
0.231373 0.254902 0.749020
0.356863 0.250980 0.749020
0.490196 0.250980 0.749020
0.615686 0.250980 0.749020
0.745098 0.254902 0.752941
0.870588 0.258824 0.749020
0.996078 0.254902 0.752941
0.000000 0.376471 0.752941
0.078431 0.376471 0.749020
0.231373 0.376471 0.749020
0.356863 0.376471 0.749020
0.490196 0.376471 0.749020
0.619608 0.376471 0.745098
0.745098 0.380392 0.752941
0.870588 0.376471 0.745098
0.996078 0.376471 0.752941
0.003922 0.498039 0.752941
0.117647 0.498039 0.749020
0.235294 0.498039 0.752941
0.376471 0.498039 0.749020
0.494118 0.501961 0.749020
0.619608 0.501961 0.749020
0.741176 0.501961 0.745098
0.874510 0.501961 0.745098
0.996078 0.501961 0.752941
0.035294 0.623529 0.749020
0.105882 0.627451 0.752941
0.239216 0.623529 0.749020
0.364706 0.623529 0.749020
0.501961 0.623529 0.749020
0.631373 0.623529 0.749020
0.741176 0.631373 0.749020
0.870588 0.627451 0.749020
0.996078 0.627451 0.749020
0.000000 0.749020 0.745098
0.141176 0.749020 0.749020
0.247059 0.749020 0.749020
0.372549 0.749020 0.749020
0.498039 0.749020 0.752941
0.619608 0.752941 0.752941
0.749020 0.749020 0.749020
0.862745 0.752941 0.749020
0.996078 0.752941 0.749020
0.050980 0.874510 0.749020
0.121569 0.874510 0.749020
0.250980 0.874510 0.745098
0.372549 0.874510 0.749020
0.494118 0.874510 0.749020
0.619608 0.874510 0.749020
0.745098 0.874510 0.752941
0.878431 0.874510 0.749020
0.996078 0.874510 0.745098
0.000000 1.000000 0.745098
0.105882 1.000000 0.749020
0.243137 1.000000 0.752941
0.376471 1.000000 0.752941
0.498039 1.000000 0.749020
0.619608 1.000000 0.749020
0.749020 1.000000 0.752941
0.874510 1.000000 0.752941
1.000000 1.000000 0.749020
0.000000 0.031373 0.874510
0.109804 0.019608 0.874510
0.235294 0.007843 0.874510
0.356863 0.023529 0.874510
0.486275 0.043137 0.878431
0.615686 0.031373 0.878431
0.741176 0.031373 0.874510
0.870588 0.031373 0.874510
0.996078 0.062745 0.878431
0.000000 0.129412 0.874510
0.086275 0.133333 0.874510
0.239216 0.125490 0.874510
0.360784 0.129412 0.870588
0.486275 0.133333 0.874510
0.615686 0.141176 0.874510
0.741176 0.137255 0.874510
0.874510 0.133333 0.874510
0.996078 0.149020 0.874510
0.000000 0.250980 0.874510
0.109804 0.250980 0.874510
0.223529 0.250980 0.874510
0.360784 0.250980 0.874510
0.498039 0.250980 0.874510
0.615686 0.258824 0.878431
0.745098 0.250980 0.874510
0.870588 0.258824 0.874510
0.996078 0.258824 0.878431
0.000000 0.372549 0.874510
0.078431 0.376471 0.878431
0.231373 0.376471 0.878431
0.364706 0.376471 0.878431
0.490196 0.372549 0.870588
0.615686 0.380392 0.878431
0.745098 0.380392 0.874510
0.870588 0.380392 0.874510
0.992157 0.376471 0.874510
0.000000 0.498039 0.878431
0.086275 0.501961 0.874510
0.239216 0.501961 0.878431
0.364706 0.498039 0.870588
0.490196 0.501961 0.874510
0.611765 0.505882 0.878431
0.749020 0.501961 0.874510
0.870588 0.501961 0.870588
0.992157 0.501961 0.874510
0.000000 0.627451 0.878431
0.125490 0.623529 0.878431
0.247059 0.623529 0.878431
0.368627 0.623529 0.878431
0.501961 0.623529 0.874510
0.615686 0.627451 0.874510
0.741176 0.623529 0.874510
0.866667 0.627451 0.874510
0.992157 0.627451 0.870588
0.000000 0.749020 0.874510
0.133333 0.749020 0.874510
0.258824 0.749020 0.874510
0.372549 0.749020 0.878431
0.505882 0.752941 0.874510
0.631373 0.749020 0.870588
0.749020 0.752941 0.878431
0.866667 0.749020 0.874510
0.996078 0.752941 0.874510
0.039216 0.874510 0.874510
0.133333 0.878431 0.882353
0.239216 0.878431 0.878431
0.372549 0.878431 0.878431
0.498039 0.874510 0.874510
0.619608 0.874510 0.878431
0.752941 0.874510 0.878431
0.878431 0.878431 0.878431
0.992157 0.878431 0.874510
0.000000 1.000000 0.874510
0.105882 1.000000 0.878431
0.266667 1.000000 0.878431
0.376471 1.000000 0.874510
0.498039 1.000000 0.878431
0.627451 1.000000 0.878431
0.752941 1.000000 0.874510
0.878431 1.000000 0.874510
1.000000 1.000000 0.874510
0.000000 0.023529 1.000000
0.098039 0.007843 1.000000
0.231373 0.023529 1.000000
0.352941 0.035294 1.000000
0.486275 0.039216 1.000000
0.619608 0.027451 1.000000
0.749020 0.011765 0.996078
0.870588 0.023529 1.000000
0.992157 0.062745 1.000000
0.000000 0.129412 1.000000
0.090196 0.129412 0.996078
0.223529 0.133333 1.000000
0.356863 0.129412 1.000000
0.486275 0.141176 1.000000
0.619608 0.137255 1.000000
0.745098 0.133333 0.996078
0.870588 0.133333 1.000000
0.996078 0.133333 0.996078
0.000000 0.254902 0.996078
0.090196 0.250980 0.996078
0.235294 0.250980 0.996078
0.360784 0.250980 1.000000
0.490196 0.250980 1.000000
0.611765 0.258824 1.000000
0.745098 0.254902 1.000000
0.866667 0.258824 1.000000
0.992157 0.262745 1.000000
0.000000 0.376471 1.000000
0.113725 0.376471 1.000000
0.239216 0.372549 0.996078
0.360784 0.376471 1.000000
0.486275 0.376471 1.000000
0.619608 0.376471 1.000000
0.745098 0.376471 0.996078
0.870588 0.380392 1.000000
0.996078 0.380392 1.000000
0.000000 0.501961 1.000000
0.098039 0.501961 1.000000
0.215686 0.501961 1.000000
0.352941 0.501961 0.996078
0.482353 0.501961 1.000000
0.619608 0.501961 1.000000
0.745098 0.501961 1.000000
0.870588 0.501961 1.000000
0.992157 0.505882 1.000000
0.011765 0.627451 1.000000
0.098039 0.623529 1.000000
0.247059 0.623529 1.000000
0.349020 0.627451 1.000000
0.494118 0.627451 1.000000
0.607843 0.627451 1.000000
0.745098 0.627451 1.000000
0.862745 0.627451 1.000000
0.996078 0.627451 1.000000
0.000000 0.749020 1.000000
0.117647 0.752941 1.000000
0.258824 0.749020 0.996078
0.364706 0.749020 1.000000
0.501961 0.752941 1.000000
0.627451 0.749020 1.000000
0.741176 0.756863 1.000000
0.866667 0.752941 1.000000
0.992157 0.756863 1.000000
0.000000 0.878431 1.000000
0.094118 0.874510 1.000000
0.258824 0.874510 0.996078
0.372549 0.874510 1.000000
0.501961 0.874510 1.000000
0.631373 0.874510 1.000000
0.745098 0.874510 1.000000
0.878431 0.874510 0.996078
0.988235 0.878431 0.996078
0.047059 1.000000 1.000000
0.137255 1.000000 1.000000
0.254902 1.000000 1.000000
0.376471 1.000000 0.996078
0.505882 1.000000 1.000000
0.627451 1.000000 1.000000
0.749020 1.000000 1.000000
0.882353 1.000000 1.000000
1.000000 1.000000 1.000000
