test_output_lut/13f_ct.cube
TITLE "Color Transfer LUT - 13f"
LUT_3D_SIZE 33
0.000000 0.000000 0.000000
0.027451 0.000000 0.000000
0.058824 0.000000 0.000000
0.086275 0.007843 0.000000
0.117647 0.007843 0.000000
0.149020 0.007843 0.003922
0.180392 0.007843 0.007843
0.211765 0.007843 0.000000
0.243137 0.003922 0.007843
0.278431 0.000000 0.000000
0.305882 0.011765 0.003922
0.337255 0.007843 0.003922
0.364706 0.019608 0.000000
0.400000 0.011765 0.000000
0.435294 0.007843 0.000000
0.462745 0.023529 0.003922
0.498039 0.015686 0.000000
0.525490 0.011765 0.000000
0.556863 0.019608 0.003922
0.588235 0.023529 0.000000
0.615686 0.023529 0.003922
0.650980 0.031373 0.000000
0.682353 0.007843 0.003922
0.717647 0.011765 0.003922
0.741176 0.039216 0.007843
0.776471 0.047059 0.007843
0.803922 0.043137 0.011765
0.839216 0.050980 0.011765
0.870588 0.050980 0.007843
0.898039 0.047059 0.015686
0.929412 0.043137 0.007843
0.964706 0.054902 0.023529
0.996078 0.050980 0.015686
0.007843 0.023529 0.000000
0.015686 0.035294 0.007843
0.062745 0.027451 0.007843
0.094118 0.019608 0.000000
0.121569 0.023529 0.000000
0.145098 0.039216 0.003922
0.184314 0.023529 0.000000
0.211765 0.023529 0.000000
0.247059 0.027451 0.003922
0.274510 0.035294 0.003922
0.305882 0.035294 0.000000
0.341176 0.031373 0.003922
0.368627 0.023529 0.007843
0.400000 0.047059 0.000000
0.431373 0.035294 0.000000
0.462745 0.043137 0.000000
0.494118 0.050980 0.000000
0.525490 0.035294 0.000000
0.556863 0.043137 0.000000
0.588235 0.050980 0.000000
0.615686 0.050980 0.000000
0.650980 0.031373 0.000000
0.682353 0.039216 0.000000
0.713726 0.039216 0.003922
0.745098 0.047059 0.007843
0.776471 0.047059 0.007843
0.811765 0.054902 0.007843
0.839216 0.050980 0.011765
0.870588 0.050980 0.007843
0.905882 0.058824 0.007843
0.933333 0.058824 0.011765
0.964706 0.054902 0.007843
0.996078 0.050980 0.015686
0.003922 0.058824 0.000000
0.007843 0.062745 0.000000
0.058824 0.058824 0.000000
0.086275 0.058824 0.000000
0.125490 0.058824 0.007843
0.149020 0.062745 0.000000
0.180392 0.058824 0.000000
0.215686 0.062745 0.003922
0.243137 0.066667 0.000000
0.274510 0.070588 0.000000
0.305882 0.066667 0.000000
0.337255 0.062745 0.003922
0.368627 0.070588 0.000000
0.400000 0.070588 0.000000
0.431373 0.066667 0.000000
0.462745 0.074510 0.003922
0.494118 0.066667 0.007843
0.525490 0.074510 0.000000
0.556863 0.066667 0.000000
0.588235 0.074510 0.000000
0.619608 0.074510 0.000000
0.650980 0.082353 0.000000
0.678431 0.082353 0.000000
0.717647 0.078431 0.007843
0.745098 0.078431 0.011765
0.776471 0.078431 0.007843
0.811765 0.086275 0.019608
0.839216 0.086275 0.015686
0.870588 0.086275 0.007843
0.898039 0.082353 0.003922
0.933333 0.094118 0.015686
0.964706 0.090196 0.007843
0.996078 0.090196 0.019608
0.000000 0.090196 0.000000
0.015686 0.090196 0.007843
0.062745 0.086275 0.003922
0.090196 0.090196 0.000000
0.125490 0.086275 0.000000
0.152941 0.090196 0.000000
0.184314 0.090196 0.000000
0.211765 0.094118 0.000000
0.243137 0.094118 0.007843
0.270588 0.098039 0.000000
0.309804 0.090196 0.003922
0.337255 0.090196 0.000000
0.368627 0.098039 0.003922
0.403922 0.094118 0.007843
0.427451 0.098039 0.000000
0.462745 0.098039 0.003922
0.494118 0.094118 0.003922
0.525490 0.090196 0.003922
0.556863 0.098039 0.007843
0.584314 0.098039 0.000000
0.619608 0.094118 0.000000
0.650980 0.098039 0.003922
0.678431 0.101961 0.000000
0.713726 0.109804 0.007843
0.745098 0.098039 0.015686
0.776471 0.101961 0.007843
0.803922 0.101961 0.019608
0.839216 0.109804 0.019608
0.870588 0.109804 0.011765
0.901961 0.109804 0.007843
0.929412 0.109804 0.015686
0.960784 0.109804 0.007843
0.996078 0.121569 0.023529
0.011765 0.121569 0.000000
0.023529 0.125490 0.000000
0.062745 0.121569 0.003922
0.090196 0.125490 0.000000
0.121569 0.121569 0.003922
0.149020 0.125490 0.000000
0.184314 0.117647 0.003922
0.207843 0.125490 0.000000
0.243137 0.125490 0.003922
0.270588 0.121569 0.000000
0.305882 0.121569 0.003922
0.337255 0.121569 0.003922
0.368627 0.125490 0.000000
0.400000 0.125490 0.000000
0.427451 0.125490 0.000000
0.462745 0.129412 0.003922
0.494118 0.129412 0.003922
0.525490 0.125490 0.003922
0.552941 0.129412 0.000000
0.588235 0.125490 0.000000
0.615686 0.129412 0.000000
0.650980 0.129412 0.000000
0.682353 0.133333 0.003922
0.713726 0.125490 0.007843
0.745098 0.129412 0.003922
0.776471 0.137255 0.015686
0.807843 0.141176 0.007843
0.835294 0.141176 0.019608
0.870588 0.133333 0.011765
0.901961 0.133333 0.007843
0.929412 0.133333 0.003922
0.960784 0.133333 0.007843
0.996078 0.145098 0.007843
0.000000 0.152941 0.000000
0.023529 0.152941 0.000000
0.062745 0.152941 0.007843
0.090196 0.152941 0.003922
0.129412 0.152941 0.003922
0.152941 0.152941 0.000000
0.184314 0.152941 0.000000
0.215686 0.152941 0.003922
0.243137 0.156863 0.000000
0.274510 0.156863 0.000000
0.305882 0.156863 0.000000
0.341176 0.156863 0.000000
0.368627 0.152941 0.003922
0.400000 0.156863 0.000000
0.431373 0.160784 0.003922
0.466667 0.156863 0.003922
0.498039 0.156863 0.003922
0.529412 0.156863 0.000000
0.556863 0.160784 0.000000
0.588235 0.160784 0.007843
0.619608 0.160784 0.003922
0.647059 0.164706 0.000000
0.682353 0.160784 0.000000
0.709804 0.164706 0.011765
0.745098 0.160784 0.007843
0.772549 0.160784 0.003922
0.807843 0.156863 0.011765
0.835294 0.160784 0.007843
0.870588 0.168627 0.019608
0.901961 0.168627 0.011765
0.933333 0.172549 0.007843
0.960784 0.172549 0.015686
1.000000 0.164706 0.011765
0.011765 0.184314 0.003922
0.039216 0.180392 0.000000
0.058824 0.188235 0.003922
0.086275 0.184314 0.003922
0.117647 0.180392 0.000000
0.156863 0.180392 0.000000
0.180392 0.184314 0.000000
0.215686 0.184314 0.007843
0.247059 0.184314 0.000000
0.282353 0.184314 0.007843
0.305882 0.188235 0.000000
0.337255 0.188235 0.000000
0.368627 0.184314 0.000000
0.403922 0.188235 0.003922
0.431373 0.188235 0.000000
0.466667 0.188235 0.007843
0.498039 0.188235 0.003922
0.525490 0.188235 0.000000
0.556863 0.188235 0.000000
0.588235 0.188235 0.003922
0.623529 0.188235 0.000000
0.654902 0.188235 0.000000
0.682353 0.192157 0.000000
0.717647 0.192157 0.023529
0.745098 0.196078 0.003922
0.780392 0.192157 0.011765
0.803922 0.192157 0.003922
0.839216 0.188235 0.011765
0.874510 0.196078 0.007843
0.898039 0.196078 0.015686
0.933333 0.188235 0.007843
0.964706 0.192157 0.019608
0.992157 0.192157 0.011765
0.000000 0.215686 0.000000
0.015686 0.215686 0.003922
0.062745 0.215686 0.000000
0.094118 0.215686 0.000000
0.117647 0.219608 0.000000
0.156863 0.215686 0.000000
0.184314 0.215686 0.003922
0.215686 0.215686 0.003922
0.243137 0.215686 0.000000
0.274510 0.215686 0.000000
0.313726 0.215686 0.000000
0.337255 0.215686 0.000000
0.368627 0.215686 0.000000
0.403922 0.219608 0.000000
0.431373 0.219608 0.000000
0.462745 0.219608 0.000000
0.494118 0.223529 0.000000
0.525490 0.219608 0.000000
0.556863 0.223529 0.003922
0.584314 0.219608 0.000000
0.619608 0.223529 0.000000
0.650980 0.223529 0.000000
0.682353 0.223529 0.007843
0.713726 0.219608 0.011765
0.741176 0.223529 0.007843
0.776471 0.223529 0.003922
0.807843 0.219608 0.011765
0.839216 0.227451 0.007843
0.870588 0.231373 0.015686
0.898039 0.223529 0.023529
0.929412 0.227451 0.015686
0.964706 0.223529 0.007843
0.996078 0.223529 0.019608
0.007843 0.243137 0.000000
0.031373 0.247059 0.000000
0.062745 0.247059 0.000000
0.082353 0.247059 0.000000
0.125490 0.247059 0.000000
0.149020 0.247059 0.007843
0.188235 0.247059 0.000000
0.215686 0.247059 0.000000
0.243137 0.247059 0.000000
0.278431 0.250980 0.000000
0.313726 0.247059 0.007843
0.341176 0.247059 0.007843
0.368627 0.250980 0.000000
0.400000 0.250980 0.003922
0.431373 0.250980 0.000000
0.466667 0.250980 0.000000
0.494118 0.250980 0.003922
0.525490 0.247059 0.000000
0.556863 0.250980 0.003922
0.588235 0.247059 0.000000
0.619608 0.254902 0.003922
0.650980 0.250980 0.000000
0.682353 0.250980 0.015686
0.713726 0.258824 0.011765
0.741176 0.254902 0.015686
0.776471 0.254902 0.011765
0.811765 0.254902 0.023529
0.835294 0.254902 0.007843
0.870588 0.254902 0.023529
0.898039 0.258824 0.015686
0.933333 0.254902 0.007843
0.960784 0.254902 0.015686
0.996078 0.250980 0.007843
0.007843 0.278431 0.000000
0.027451 0.278431 0.000000
0.062745 0.278431 0.000000
0.086275 0.278431 0.000000
0.121569 0.278431 0.000000
0.152941 0.278431 0.003922
0.188235 0.278431 0.000000
0.215686 0.282353 0.000000
0.243137 0.278431 0.000000
0.274510 0.278431 0.000000
0.309804 0.278431 0.003922
0.341176 0.278431 0.003922
0.372549 0.278431 0.000000
0.400000 0.278431 0.000000
0.431373 0.282353 0.000000
0.462745 0.282353 0.003922
0.490196 0.282353 0.000000
0.525490 0.282353 0.000000
0.556863 0.282353 0.003922
0.584314 0.282353 0.000000
0.619608 0.286275 0.003922
0.647059 0.286275 0.007843
0.686275 0.282353 0.015686
0.713726 0.282353 0.007843
0.749020 0.286275 0.015686
0.776471 0.282353 0.023529
0.807843 0.290196 0.015686
0.835294 0.286275 0.023529
0.870588 0.286275 0.015686
0.905882 0.286275 0.011765
0.929412 0.286275 0.015686
0.964706 0.282353 0.007843
0.996078 0.290196 0.023529
0.000000 0.309804 0.003922
0.019608 0.309804 0.007843
0.066667 0.309804 0.000000
0.098039 0.309804 0.003922
0.121569 0.309804 0.003922
0.149020 0.309804 0.000000
0.180392 0.313726 0.007843
0.215686 0.309804 0.003922
0.247059 0.309804 0.000000
0.282353 0.309804 0.007843
0.313726 0.309804 0.000000
0.337255 0.313726 0.003922
0.372549 0.309804 0.003922
0.403922 0.309804 0.000000
0.435294 0.309804 0.000000
0.458824 0.309804 0.000000
0.494118 0.313726 0.000000
0.529412 0.313726 0.003922
0.556863 0.313726 0.000000
0.588235 0.313726 0.000000
0.619608 0.313726 0.000000
0.647059 0.313726 0.019608
0.682353 0.309804 0.007843
0.713726 0.313726 0.023529
0.745098 0.313726 0.007843
0.776471 0.317647 0.023529
0.807843 0.317647 0.007843
0.835294 0.313726 0.015686
0.870588 0.313726 0.007843
0.898039 0.317647 0.015686
0.933333 0.317647 0.007843
0.968627 0.317647 0.023529
0.992157 0.317647 0.027451
0.007843 0.341176 0.000000
0.035294 0.341176 0.000000
0.066667 0.341176 0.000000
0.082353 0.341176 0.003922
0.117647 0.341176 0.000000
0.149020 0.341176 0.000000
0.184314 0.341176 0.000000
0.215686 0.341176 0.003922
0.250980 0.341176 0.000000
0.282353 0.337255 0.003922
0.305882 0.341176 0.003922
0.341176 0.341176 0.000000
0.372549 0.341176 0.000000
0.403922 0.341176 0.000000
0.431373 0.341176 0.000000
0.466667 0.341176 0.003922
0.490196 0.341176 0.003922
0.525490 0.345098 0.000000
0.560784 0.345098 0.000000
0.588235 0.345098 0.000000
0.619608 0.345098 0.019608
0.647059 0.345098 0.003922
0.686275 0.345098 0.015686
0.713726 0.345098 0.023529
0.745098 0.345098 0.007843
0.772549 0.345098 0.015686
0.803922 0.345098 0.023529
0.839216 0.349020 0.015686
0.866667 0.345098 0.023529
0.901961 0.349020 0.015686
0.933333 0.345098 0.023529
0.964706 0.341176 0.007843
0.992157 0.349020 0.019608
0.000000 0.372549 0.000000
0.023529 0.372549 0.007843
0.050980 0.372549 0.007843
0.078431 0.372549 0.000000
0.113725 0.372549 0.000000
0.145098 0.372549 0.007843
0.180392 0.372549 0.000000
0.215686 0.372549 0.003922
0.243137 0.372549 0.000000
0.274510 0.372549 0.007843
0.309804 0.372549 0.003922
0.341176 0.368627 0.000000
0.372549 0.372549 0.000000
0.400000 0.372549 0.000000
0.431373 0.372549 0.000000
0.466667 0.376471 0.000000
0.498039 0.372549 0.000000
0.521569 0.372549 0.000000
0.556863 0.376471 0.000000
0.588235 0.376471 0.023529
0.615686 0.376471 0.003922
0.650980 0.376471 0.023529
0.678431 0.376471 0.015686
0.713726 0.376471 0.023529
0.745098 0.376471 0.007843
0.772549 0.376471 0.015686
0.807843 0.372549 0.023529
0.839216 0.372549 0.007843
0.870588 0.376471 0.023529
0.901961 0.376471 0.027451
0.933333 0.372549 0.015686
0.964706 0.380392 0.027451
0.996078 0.376471 0.011765
0.007843 0.403922 0.000000
0.007843 0.403922 0.000000
0.074510 0.403922 0.000000
0.094118 0.403922 0.000000
0.117647 0.407843 0.007843
0.149020 0.403922 0.000000
0.184314 0.403922 0.000000
0.219608 0.403922 0.007843
0.250980 0.403922 0.000000
0.274510 0.403922 0.007843
0.313726 0.403922 0.007843
0.337255 0.403922 0.000000
0.372549 0.403922 0.000000
0.407843 0.407843 0.000000
0.435294 0.403922 0.003922
0.470588 0.403922 0.007843
0.501961 0.403922 0.007843
0.533333 0.403922 0.007843
0.552941 0.407843 0.003922
0.588235 0.407843 0.027451
0.619608 0.403922 0.007843
0.647059 0.407843 0.015686
0.682353 0.407843 0.019608
0.713726 0.411765 0.023529
0.749020 0.407843 0.015686
0.776471 0.411765 0.023529
0.807843 0.411765 0.023529
0.843137 0.407843 0.015686
0.874510 0.407843 0.023529
0.901961 0.407843 0.027451
0.933333 0.407843 0.011765
0.964706 0.407843 0.023529
0.988235 0.411765 0.023529
0.000000 0.439216 0.003922
0.027451 0.435294 0.003922
0.062745 0.435294 0.003922
0.086275 0.435294 0.003922
0.113725 0.435294 0.000000
0.156863 0.435294 0.000000
0.188235 0.435294 0.003922
0.223529 0.435294 0.000000
0.247059 0.435294 0.003922
0.278431 0.435294 0.000000
0.301961 0.435294 0.000000
0.341176 0.435294 0.000000
0.372549 0.435294 0.007843
0.403922 0.435294 0.000000
0.435294 0.439216 0.003922
0.462745 0.435294 0.000000
0.494118 0.435294 0.011765
0.533333 0.435294 0.019608
0.564706 0.435294 0.019608
0.588235 0.435294 0.015686
0.619608 0.439216 0.023529
0.650980 0.439216 0.023529
0.686275 0.439216 0.027451
0.709804 0.439216 0.027451
0.741176 0.439216 0.011765
0.776471 0.439216 0.023529
0.807843 0.439216 0.027451
0.843137 0.439216 0.011765
0.870588 0.439216 0.023529
0.901961 0.439216 0.027451
0.933333 0.439216 0.035294
0.964706 0.439216 0.019608
0.996078 0.439216 0.023529
0.000000 0.466667 0.007843
0.007843 0.466667 0.000000
0.047059 0.466667 0.000000
0.101961 0.462745 0.000000
0.125490 0.466667 0.000000
0.149020 0.470588 0.003922
0.188235 0.466667 0.007843
0.215686 0.466667 0.000000
0.250980 0.466667 0.003922
0.282353 0.466667 0.000000
0.309804 0.466667 0.003922
0.341176 0.466667 0.000000
0.376471 0.466667 0.000000
0.400000 0.466667 0.003922
0.435294 0.466667 0.019608
0.470588 0.466667 0.015686
0.494118 0.466667 0.007843
0.525490 0.466667 0.007843
0.556863 0.466667 0.007843
0.596078 0.466667 0.011765
0.623529 0.466667 0.031373
0.647059 0.470588 0.007843
0.682353 0.470588 0.015686
0.713726 0.466667 0.015686
0.745098 0.470588 0.023529
0.780392 0.470588 0.027451
0.803922 0.470588 0.027451
0.835294 0.470588 0.011765
0.870588 0.470588 0.019608
0.901961 0.470588 0.027451
0.933333 0.470588 0.035294
0.964706 0.474510 0.019608
0.996078 0.474510 0.023529
0.019608 0.498039 0.000000
0.019608 0.498039 0.000000
0.058824 0.498039 0.000000
0.098039 0.498039 0.000000
0.117647 0.498039 0.000000
0.156863 0.498039 0.007843
0.188235 0.498039 0.000000
0.215686 0.498039 0.000000
0.254902 0.498039 0.007843
0.278431 0.501961 0.000000
0.309804 0.501961 0.007843
0.337255 0.498039 0.015686
0.372549 0.498039 0.027451
0.403922 0.501961 0.023529
0.431373 0.498039 0.011765
0.466667 0.501961 0.011765
0.494118 0.498039 0.023529
0.529412 0.498039 0.023529
0.560784 0.498039 0.023529
0.588235 0.498039 0.019608
0.619608 0.498039 0.019608
0.658824 0.501961 0.023529
0.682353 0.501961 0.023529
0.709804 0.501961 0.023529
0.745098 0.501961 0.031373
0.772549 0.501961 0.027451
0.807843 0.501961 0.011765
0.835294 0.501961 0.011765
0.866667 0.501961 0.019608
0.901961 0.501961 0.027451
0.933333 0.501961 0.035294
0.964706 0.505882 0.015686
0.996078 0.505882 0.023529
0.000000 0.529412 0.000000
0.035294 0.529412 0.000000
0.035294 0.529412 0.000000
0.082353 0.529412 0.003922
0.129412 0.529412 0.007843
0.152941 0.533333 0.011765
0.184314 0.529412 0.015686
0.215686 0.529412 0.023529
0.243137 0.533333 0.031373
0.278431 0.529412 0.015686
0.309804 0.529412 0.023529
0.341176 0.529412 0.011765
0.372549 0.529412 0.031373
0.400000 0.529412 0.023529
0.435294 0.529412 0.011765
0.466667 0.529412 0.031373
0.498039 0.529412 0.023529
0.529412 0.529412 0.019608
0.560784 0.529412 0.015686
0.592157 0.529412 0.015686
0.623529 0.529412 0.039216
0.650980 0.529412 0.011765
0.686275 0.529412 0.035294
0.713726 0.529412 0.007843
0.741176 0.533333 0.011765
0.776471 0.533333 0.011765
0.807843 0.537255 0.019608
0.839216 0.533333 0.019608
0.870588 0.533333 0.027451
0.901961 0.529412 0.027451
0.933333 0.533333 0.007843
0.964706 0.533333 0.015686
0.996078 0.537255 0.023529
0.000000 0.560784 0.023529
0.000000 0.560784 0.023529
0.050980 0.564706 0.031373
0.090196 0.560784 0.031373
0.113725 0.560784 0.031373
0.141176 0.560784 0.007843
0.180392 0.560784 0.019608
0.215686 0.564706 0.027451
0.243137 0.560784 0.007843
0.282353 0.560784 0.019608
0.305882 0.560784 0.031373
0.337255 0.560784 0.019608
0.368627 0.560784 0.027451
0.407843 0.560784 0.019608
0.435294 0.560784 0.039216
0.462745 0.560784 0.023529
0.501961 0.564706 0.023529
0.525490 0.560784 0.011765
0.560784 0.560784 0.007843
0.596078 0.560784 0.035294
0.623529 0.564706 0.031373
0.650980 0.560784 0.023529
0.690196 0.560784 0.027451
0.717647 0.564706 0.023529
0.745098 0.564706 0.023529
0.776471 0.560784 0.023529
0.807843 0.564706 0.031373
0.839216 0.564706 0.027451
0.866667 0.560784 0.027451
0.898039 0.564706 0.035294
0.933333 0.564706 0.047059
0.960784 0.564706 0.015686
0.992157 0.564706 0.023529
0.000000 0.592157 0.027451
0.000000 0.592157 0.027451
0.054902 0.592157 0.027451
0.074510 0.596078 0.011765
0.125490 0.592157 0.039216
0.152941 0.592157 0.015686
0.176471 0.592157 0.023529
0.207843 0.592157 0.027451
0.243137 0.592157 0.011765
0.270588 0.596078 0.023529
0.309804 0.596078 0.035294
0.341176 0.592157 0.015686
0.376471 0.592157 0.035294
0.407843 0.592157 0.023529
0.435294 0.592157 0.035294
0.462745 0.592157 0.023529
0.501961 0.592157 0.019608
0.525490 0.592157 0.035294
0.560784 0.592157 0.031373
0.588235 0.592157 0.019608
0.623529 0.592157 0.019608
0.654902 0.592157 0.015686
0.682353 0.592157 0.039216
0.717647 0.592157 0.039216
0.749020 0.592157 0.039216
0.776471 0.592157 0.035294
0.807843 0.596078 0.039216
0.835294 0.596078 0.039216
0.870588 0.592157 0.039216
0.901961 0.596078 0.019608
0.929412 0.596078 0.015686
0.964706 0.596078 0.023529
0.992157 0.596078 0.023529
0.000000 0.623529 0.007843
0.027451 0.623529 0.007843
0.015686 0.623529 0.035294
0.090196 0.627451 0.019608
0.117647 0.623529 0.023529
0.141176 0.623529 0.023529
0.188235 0.623529 0.035294
0.203922 0.623529 0.035294
0.243137 0.627451 0.019608
0.278431 0.623529 0.023529
0.305882 0.623529 0.035294
0.333333 0.623529 0.019608
0.368627 0.623529 0.031373
0.400000 0.623529 0.019608
0.439216 0.623529 0.031373
0.462745 0.627451 0.027451
0.498039 0.623529 0.015686
0.525490 0.623529 0.027451
0.564706 0.623529 0.027451
0.588235 0.623529 0.039216
0.623529 0.623529 0.039216
0.650980 0.627451 0.035294
0.686275 0.627451 0.035294
0.721569 0.627451 0.031373
0.749020 0.627451 0.027451
0.784314 0.627451 0.027451
0.811765 0.627451 0.023529
0.839216 0.627451 0.023529
0.866667 0.627451 0.019608
0.898039 0.623529 0.019608
0.929412 0.627451 0.023529
0.964706 0.623529 0.023529
0.996078 0.627451 0.035294
0.000000 0.654902 0.015686
0.043137 0.654902 0.015686
0.043137 0.654902 0.015686
0.090196 0.654902 0.019608
0.129412 0.654902 0.027451
0.156863 0.654902 0.027451
0.176471 0.654902 0.031373
0.215686 0.654902 0.043137
0.235294 0.654902 0.015686
0.282353 0.654902 0.027451
0.309804 0.654902 0.039216
0.337255 0.658824 0.023529
0.368627 0.654902 0.027451
0.403922 0.654902 0.015686
0.435294 0.650980 0.027451
0.466667 0.654902 0.023529
0.498039 0.654902 0.039216
0.525490 0.654902 0.023529
0.564706 0.654902 0.023529
0.588235 0.654902 0.039216
0.623529 0.654902 0.035294
0.650980 0.654902 0.019608
0.686275 0.654902 0.019608
0.721569 0.654902 0.015686
0.749020 0.654902 0.043137
0.784314 0.654902 0.039216
0.811765 0.654902 0.039216
0.843137 0.654902 0.039216
0.866667 0.658824 0.031373
0.901961 0.654902 0.031373
0.933333 0.658824 0.039216
0.960784 0.658824 0.039216
0.992157 0.654902 0.039216
0.000000 0.686275 0.023529
0.000000 0.686275 0.023529
0.062745 0.686275 0.023529
0.101961 0.686275 0.023529
0.101961 0.686275 0.023529
0.141176 0.690196 0.039216
0.168627 0.686275 0.039216
0.215686 0.690196 0.023529
0.247059 0.686275 0.023529
0.282353 0.686275 0.039216
0.305882 0.686275 0.039216
0.337255 0.686275 0.023529
0.372549 0.686275 0.039216
0.400000 0.686275 0.019608
0.431373 0.686275 0.035294
0.462745 0.686275 0.019608
0.494118 0.686275 0.035294
0.529412 0.686275 0.019608
0.560784 0.686275 0.047059
0.588235 0.686275 0.031373
0.627451 0.686275 0.027451
0.650980 0.686275 0.043137
0.686275 0.686275 0.039216
0.717647 0.690196 0.039216
0.749020 0.686275 0.023529
0.776471 0.686275 0.023529
0.811765 0.686275 0.019608
0.839216 0.686275 0.015686
0.874510 0.686275 0.050980
0.894118 0.690196 0.043137
0.933333 0.690196 0.050980
0.960784 0.690196 0.050980
0.996078 0.690196 0.050980
0.007843 0.721569 0.031373
0.007843 0.721569 0.031373
0.074510 0.717647 0.031373
0.074510 0.717647 0.031373
0.117647 0.717647 0.035294
0.145098 0.717647 0.035294
0.176471 0.721569 0.047059
0.223529 0.717647 0.019608
0.243137 0.721569 0.031373
0.274510 0.717647 0.035294
0.305882 0.717647 0.047059
0.337255 0.721569 0.027451
0.372549 0.717647 0.035294
0.396078 0.717647 0.047059
0.431373 0.717647 0.031373
0.466667 0.717647 0.015686
0.498039 0.717647 0.027451
0.529412 0.721569 0.023529
0.560784 0.721569 0.039216
0.588235 0.717647 0.023529
0.627451 0.721569 0.023529
0.650980 0.717647 0.039216
0.690196 0.721569 0.035294
0.713726 0.717647 0.019608
0.749020 0.717647 0.050980
0.780392 0.721569 0.047059
0.815686 0.721569 0.047059
0.839216 0.717647 0.027451
0.874510 0.717647 0.027451
0.901961 0.717647 0.023529
0.937255 0.721569 0.031373
0.964706 0.721569 0.027451
0.992157 0.721569 0.023529
0.007843 0.749020 0.027451
0.007843 0.749020 0.027451
0.007843 0.749020 0.027451
0.094118 0.752941 0.039216
0.129412 0.749020 0.043137
0.156863 0.749020 0.043137
0.188235 0.749020 0.011765
0.215686 0.749020 0.023529
0.250980 0.749020 0.027451
0.270588 0.752941 0.039216
0.301961 0.749020 0.043137
0.333333 0.749020 0.023529
0.376471 0.749020 0.039216
0.403922 0.752941 0.023529
0.435294 0.749020 0.023529
0.466667 0.749020 0.043137
0.501961 0.745098 0.023529
0.525490 0.752941 0.050980
0.564706 0.749020 0.039216
0.592157 0.749020 0.054902
0.619608 0.749020 0.039216
0.650980 0.752941 0.031373
0.686275 0.749020 0.015686
0.717647 0.749020 0.047059
0.749020 0.745098 0.035294
0.780392 0.749020 0.027451
0.815686 0.749020 0.023529
0.843137 0.752941 0.058824
0.878431 0.749020 0.054902
0.905882 0.752941 0.050980
0.937255 0.752941 0.050980
0.968627 0.752941 0.047059
0.992157 0.752941 0.039216
0.000000 0.784314 0.039216
0.031373 0.780392 0.039216
0.031373 0.780392 0.039216
0.094118 0.780392 0.039216
0.094118 0.780392 0.039216
0.141176 0.784314 0.050980
0.176471 0.780392 0.019608
0.219608 0.780392 0.023529
0.247059 0.784314 0.035294
0.278431 0.780392 0.039216
0.313726 0.780392 0.054902
0.329412 0.780392 0.023529
0.372549 0.780392 0.039216
0.403922 0.780392 0.015686
0.439216 0.780392 0.035294
0.462745 0.784314 0.050980
0.498039 0.784314 0.031373
0.529412 0.784314 0.050980
0.560784 0.780392 0.031373
0.588235 0.780392 0.050980
0.619608 0.780392 0.031373
0.658824 0.780392 0.027451
0.686275 0.780392 0.047059
0.717647 0.784314 0.039216
0.749020 0.780392 0.023529
0.780392 0.784314 0.058824
0.811765 0.780392 0.043137
0.843137 0.780392 0.039216
0.870588 0.784314 0.031373
0.905882 0.780392 0.031373
0.937255 0.784314 0.023529
0.972549 0.780392 0.062745
1.000000 0.784314 0.058824
0.000000 0.811765 0.035294
0.031373 0.811765 0.039216
0.054902 0.815686 0.050980
0.054902 0.815686 0.050980
0.109804 0.811765 0.050980
0.145098 0.811765 0.050980
0.180392 0.811765 0.015686
0.211765 0.815686 0.031373
0.250980 0.811765 0.035294
0.274510 0.815686 0.047059
0.305882 0.811765 0.050980
0.345098 0.811765 0.027451
0.368627 0.811765 0.035294
0.400000 0.811765 0.050980
0.439216 0.811765 0.031373
0.462745 0.811765 0.047059
0.498039 0.811765 0.027451
0.533333 0.811765 0.047059
0.564706 0.811765 0.023529
0.596078 0.811765 0.043137
0.623529 0.811765 0.023529
0.654902 0.815686 0.058824
0.686275 0.811765 0.039216
0.713726 0.811765 0.019608
0.752941 0.811765 0.054902
0.776471 0.811765 0.039216
0.815686 0.811765 0.035294
0.843137 0.815686 0.066667
0.870588 0.811765 0.050980
