test_output_lut/@Yurichtofen oc 従順塵埃  生活_ct.cube
TITLE "Color Transfer LUT - @Yurichtofen oc 従順塵埃  生活"
LUT_3D_SIZE 33
0.000000 0.003922 0.007843
0.015686 0.003922 0.007843
0.047059 0.000000 0.003922
0.074510 0.011765 0.007843
0.109804 0.007843 0.003922
0.141176 0.007843 0.007843
0.172549 0.011765 0.015686
0.200000 0.019608 0.007843
0.235294 0.011765 0.015686
0.266667 0.007843 0.007843
0.294118 0.035294 0.023529
0.325490 0.031373 0.023529
0.352941 0.047059 0.019608
0.388235 0.047059 0.015686
0.419608 0.039216 0.015686
0.447059 0.058824 0.019608
0.478431 0.066667 0.015686
0.505882 0.070588 0.015686
0.537255 0.078431 0.027451
0.572549 0.086275 0.023529
0.600000 0.086275 0.027451
0.627451 0.105882 0.019608
0.658824 0.098039 0.023529
0.694118 0.101961 0.023529
0.717647 0.117647 0.023529
0.752941 0.125490 0.023529
0.780392 0.125490 0.027451
0.811765 0.145098 0.027451
0.843137 0.149020 0.023529
0.870588 0.149020 0.031373
0.901961 0.152941 0.039216
0.937255 0.160784 0.058824
0.960784 0.172549 0.050980
0.003922 0.023529 0.007843
0.011765 0.035294 0.019608
0.050980 0.031373 0.011765
0.086275 0.023529 0.011765
0.117647 0.023529 0.007843
0.137255 0.043137 0.011765
0.180392 0.027451 0.003922
0.200000 0.035294 0.007843
0.235294 0.039216 0.011765
0.266667 0.047059 0.011765
0.298039 0.050980 0.011765
0.325490 0.054902 0.019608
0.356863 0.050980 0.023529
0.388235 0.070588 0.015686
0.419608 0.066667 0.019608
0.447059 0.074510 0.011765
0.474510 0.090196 0.015686
0.505882 0.082353 0.007843
0.537255 0.090196 0.023529
0.572549 0.098039 0.023529
0.600000 0.101961 0.023529
0.627451 0.105882 0.019608
0.662745 0.113725 0.019608
0.690196 0.113725 0.023529
0.721569 0.121569 0.023529
0.752941 0.125490 0.023529
0.788235 0.133333 0.019608
0.811765 0.145098 0.027451
0.843137 0.149020 0.023529
0.874510 0.156863 0.023529
0.905882 0.160784 0.047059
0.937255 0.160784 0.039216
0.960784 0.172549 0.050980
0.000000 0.058824 0.007843
0.007843 0.062745 0.007843
0.054902 0.058824 0.007843
0.078431 0.062745 0.000000
0.117647 0.062745 0.019608
0.145098 0.062745 0.007843
0.176471 0.058824 0.007843
0.211765 0.070588 0.011765
0.239216 0.070588 0.007843
0.266667 0.082353 0.011765
0.298039 0.078431 0.019608
0.329412 0.074510 0.019608
0.352941 0.090196 0.015686
0.388235 0.090196 0.015686
0.419608 0.090196 0.015686
0.450980 0.098039 0.023529
0.478431 0.094118 0.023529
0.509804 0.109804 0.015686
0.541176 0.105882 0.023529
0.572549 0.113725 0.023529
0.600000 0.117647 0.023529
0.631373 0.125490 0.023529
0.654902 0.137255 0.019608
0.694118 0.133333 0.019608
0.725490 0.137255 0.027451
0.752941 0.141176 0.023529
0.788235 0.149020 0.039216
0.811765 0.160784 0.031373
0.843137 0.164706 0.023529
0.870588 0.168627 0.019608
0.905882 0.176471 0.050980
0.937255 0.176471 0.043137
0.968627 0.180392 0.054902
0.000000 0.090196 0.007843
0.011765 0.090196 0.015686
0.058824 0.090196 0.011765
0.086275 0.090196 0.003922
0.117647 0.086275 0.007843
0.145098 0.094118 0.011765
0.180392 0.090196 0.007843
0.207843 0.098039 0.003922
0.235294 0.098039 0.023529
0.266667 0.101961 0.019608
0.298039 0.098039 0.023529
0.329412 0.098039 0.015686
0.356863 0.109804 0.023529
0.388235 0.109804 0.023529
0.415686 0.113725 0.011765
0.450980 0.117647 0.019608
0.482353 0.117647 0.019608
0.509804 0.121569 0.019608
0.541176 0.129412 0.031373
0.568627 0.133333 0.019608
0.600000 0.129412 0.015686
0.631373 0.137255 0.023529
0.658824 0.149020 0.023529
0.690196 0.156863 0.023529
0.725490 0.152941 0.031373
0.752941 0.156863 0.023529
0.780392 0.160784 0.035294
0.815686 0.168627 0.035294
0.843137 0.180392 0.027451
0.870588 0.180392 0.023529
0.901961 0.184314 0.050980
0.933333 0.188235 0.043137
0.968627 0.196078 0.058824
0.019608 0.121569 0.011765
0.027451 0.121569 0.007843
0.066667 0.121569 0.011765
0.090196 0.125490 0.007843
0.117647 0.121569 0.011765
0.149020 0.125490 0.007843
0.180392 0.121569 0.011765
0.207843 0.125490 0.011765
0.235294 0.129412 0.023529
0.266667 0.125490 0.007843
0.298039 0.125490 0.023529
0.329412 0.129412 0.023529
0.360784 0.133333 0.011765
0.388235 0.133333 0.015686
0.415686 0.141176 0.015686
0.450980 0.145098 0.019608
0.482353 0.145098 0.019608
0.513726 0.145098 0.027451
0.541176 0.149020 0.023529
0.568627 0.152941 0.023529
0.596078 0.160784 0.019608
0.635294 0.160784 0.019608
0.662745 0.164706 0.027451
0.690196 0.168627 0.023529
0.721569 0.172549 0.019608
0.752941 0.180392 0.031373
0.784314 0.188235 0.027451
0.811765 0.188235 0.039216
0.843137 0.192157 0.031373
0.874510 0.196078 0.023529
0.901961 0.200000 0.035294
0.933333 0.203922 0.047059
0.968627 0.211765 0.047059
0.007843 0.149020 0.007843
0.031373 0.152941 0.007843
0.070588 0.149020 0.015686
0.094118 0.149020 0.011765
0.125490 0.152941 0.023529
0.149020 0.152941 0.015686
0.180392 0.152941 0.015686
0.207843 0.156863 0.023529
0.239216 0.156863 0.019608
0.266667 0.156863 0.019608
0.298039 0.156863 0.011765
0.333333 0.160784 0.015686
0.360784 0.160784 0.023529
0.388235 0.164706 0.011765
0.419608 0.168627 0.023529
0.450980 0.168627 0.019608
0.482353 0.168627 0.019608
0.513726 0.172549 0.027451
0.541176 0.176471 0.023529
0.572549 0.176471 0.031373
0.600000 0.184314 0.027451
0.631373 0.188235 0.023529
0.662745 0.188235 0.023529
0.690196 0.192157 0.031373
0.721569 0.196078 0.023529
0.749020 0.200000 0.023529
0.784314 0.196078 0.031373
0.811765 0.203922 0.023529
0.847059 0.211765 0.039216
0.874510 0.223529 0.035294
0.901961 0.227451 0.043137
0.933333 0.231373 0.054902
0.968627 0.227451 0.050980
0.027451 0.180392 0.023529
0.047059 0.180392 0.011765
0.062745 0.188235 0.023529
0.090196 0.184314 0.023529
0.121569 0.180392 0.019608
0.152941 0.180392 0.019608
0.180392 0.184314 0.007843
0.215686 0.188235 0.023529
0.239216 0.188235 0.015686
0.274510 0.188235 0.023529
0.301961 0.188235 0.019608
0.333333 0.188235 0.015686
0.364706 0.188235 0.007843
0.392157 0.192157 0.019608
0.419608 0.196078 0.011765
0.454902 0.196078 0.023529
0.486275 0.196078 0.031373
0.509804 0.200000 0.023529
0.541176 0.203922 0.023529
0.572549 0.203922 0.027451
0.607843 0.203922 0.023529
0.635294 0.211765 0.023529
0.662745 0.215686 0.031373
0.698039 0.215686 0.039216
0.725490 0.223529 0.023529
0.756863 0.227451 0.031373
0.780392 0.227451 0.023529
0.815686 0.227451 0.031373
0.847059 0.235294 0.031373
0.874510 0.235294 0.039216
0.901961 0.239216 0.047059
0.933333 0.243137 0.058824
0.964706 0.247059 0.050980
0.003922 0.215686 0.019608
0.035294 0.215686 0.023529
0.078431 0.215686 0.019608
0.098039 0.211765 0.019608
0.121569 0.215686 0.019608
0.160784 0.215686 0.015686
0.180392 0.215686 0.023529
0.211765 0.215686 0.023529
0.243137 0.215686 0.011765
0.270588 0.219608 0.019608
0.305882 0.219608 0.011765
0.333333 0.215686 0.011765
0.360784 0.219608 0.019608
0.396078 0.223529 0.015686
0.423529 0.223529 0.011765
0.450980 0.223529 0.023529
0.482353 0.231373 0.023529
0.513726 0.227451 0.023529
0.541176 0.235294 0.031373
0.568627 0.231373 0.023529
0.603922 0.235294 0.023529
0.635294 0.239216 0.031373
0.666667 0.243137 0.027451
0.694118 0.239216 0.031373
0.721569 0.247059 0.027451
0.756863 0.247059 0.023529
0.784314 0.250980 0.035294
0.815686 0.258824 0.027451
0.843137 0.262745 0.039216
0.874510 0.258824 0.043137
0.905882 0.262745 0.054902
0.933333 0.266667 0.050980
0.964706 0.274510 0.058824
0.035294 0.243137 0.015686
0.058824 0.247059 0.019608
0.082353 0.243137 0.019608
0.098039 0.247059 0.015686
0.129412 0.247059 0.019608
0.152941 0.247059 0.023529
0.192157 0.247059 0.015686
0.211765 0.247059 0.007843
0.243137 0.247059 0.019608
0.278431 0.250980 0.011765
0.305882 0.250980 0.023529
0.333333 0.247059 0.023529
0.368627 0.250980 0.019608
0.396078 0.250980 0.023529
0.427451 0.250980 0.023529
0.458824 0.250980 0.031373
0.482353 0.258824 0.035294
0.513726 0.254902 0.027451
0.545098 0.258824 0.039216
0.576471 0.258824 0.027451
0.603922 0.266667 0.039216
0.635294 0.262745 0.031373
0.670588 0.266667 0.039216
0.694118 0.274510 0.035294
0.721569 0.274510 0.039216
0.756863 0.274510 0.035294
0.792157 0.278431 0.047059
0.811765 0.282353 0.035294
0.843137 0.282353 0.047059
0.874510 0.290196 0.058824
0.909804 0.290196 0.050980
0.937255 0.290196 0.058824
0.964706 0.294118 0.050980
0.039216 0.278431 0.019608
0.058824 0.278431 0.019608
0.086275 0.274510 0.023529
0.101961 0.278431 0.015686
0.137255 0.278431 0.019608
0.164706 0.278431 0.023529
0.192157 0.278431 0.019608
0.219608 0.278431 0.019608
0.247059 0.278431 0.015686
0.274510 0.278431 0.011765
0.309804 0.278431 0.023529
0.333333 0.278431 0.023529
0.368627 0.282353 0.015686
0.396078 0.278431 0.027451
0.423529 0.282353 0.031373
0.458824 0.282353 0.035294
0.486275 0.286275 0.027451
0.513726 0.290196 0.031373
0.545098 0.286275 0.039216
0.576471 0.290196 0.027451
0.607843 0.294118 0.039216
0.631373 0.298039 0.027451
0.670588 0.298039 0.039216
0.698039 0.294118 0.031373
0.729412 0.301961 0.039216
0.756863 0.301961 0.047059
0.788235 0.309804 0.039216
0.815686 0.305882 0.047059
0.847059 0.313726 0.043137
0.882353 0.313726 0.054902
0.905882 0.313726 0.058824
0.941176 0.317647 0.054902
0.972549 0.321569 0.062745
0.050980 0.305882 0.023529
0.070588 0.309804 0.027451
0.090196 0.305882 0.019608
0.117647 0.309804 0.023529
0.137255 0.305882 0.023529
0.164706 0.305882 0.019608
0.192157 0.309804 0.027451
0.219608 0.309804 0.023529
0.250980 0.305882 0.019608
0.286275 0.309804 0.027451
0.309804 0.309804 0.015686
0.337255 0.313726 0.023529
0.372549 0.309804 0.039216
0.396078 0.309804 0.023529
0.431373 0.313726 0.031373
0.454902 0.313726 0.031373
0.486275 0.313726 0.035294
0.521569 0.313726 0.039216
0.549020 0.317647 0.031373
0.576471 0.317647 0.039216
0.607843 0.321569 0.039216
0.635294 0.321569 0.047059
0.666667 0.321569 0.039216
0.698039 0.325490 0.050980
0.729412 0.325490 0.039216
0.760784 0.329412 0.050980
0.788235 0.333333 0.039216
0.815686 0.333333 0.043137
0.850980 0.333333 0.058824
0.874510 0.337255 0.058824
0.905882 0.345098 0.054902
0.941176 0.345098 0.066667
0.968627 0.349020 0.074510
0.070588 0.337255 0.023529
0.086275 0.337255 0.023529
0.109804 0.341176 0.015686
0.117647 0.337255 0.027451
0.137255 0.341176 0.023529
0.168627 0.337255 0.023529
0.196078 0.337255 0.019608
0.227451 0.341176 0.027451
0.254902 0.341176 0.023529
0.286275 0.337255 0.027451
0.309804 0.341176 0.039216
0.337255 0.341176 0.039216
0.368627 0.341176 0.039216
0.400000 0.341176 0.039216
0.423529 0.341176 0.039216
0.458824 0.345098 0.043137
0.490196 0.341176 0.043137
0.517647 0.345098 0.031373
0.552941 0.345098 0.039216
0.580392 0.349020 0.043137
0.611765 0.352941 0.050980
0.635294 0.349020 0.035294
0.674510 0.352941 0.047059
0.698039 0.356863 0.050980
0.729412 0.356863 0.039216
0.756863 0.356863 0.043137
0.788235 0.356863 0.050980
0.815686 0.364706 0.043137
0.847059 0.364706 0.066667
0.882353 0.368627 0.062745
0.913725 0.364706 0.070588
0.937255 0.368627 0.058824
0.968627 0.376471 0.070588
0.070588 0.372549 0.019608
0.086275 0.368627 0.031373
0.101961 0.368627 0.035294
0.117647 0.368627 0.023529
0.149020 0.368627 0.027451
0.164706 0.372549 0.031373
0.196078 0.372549 0.039216
0.227451 0.372549 0.047059
0.254902 0.372549 0.039216
0.278431 0.368627 0.047059
0.313726 0.372549 0.047059
0.345098 0.368627 0.039216
0.372549 0.372549 0.039216
0.396078 0.372549 0.039216
0.431373 0.372549 0.039216
0.458824 0.376471 0.039216
0.490196 0.376471 0.039216
0.521569 0.376471 0.039216
0.549020 0.376471 0.047059
0.584314 0.380392 0.050980
0.607843 0.376471 0.035294
0.639216 0.380392 0.058824
0.666667 0.384314 0.047059
0.701961 0.380392 0.050980
0.725490 0.388235 0.039216
0.756863 0.388235 0.047059
0.792157 0.384314 0.054902
0.823529 0.384314 0.058824
0.850980 0.392157 0.070588
0.882353 0.392157 0.078431
0.913725 0.392157 0.066667
0.941176 0.400000 0.078431
0.968627 0.403922 0.062745
0.078431 0.400000 0.039216
0.078431 0.400000 0.039216
0.117647 0.400000 0.047059
0.133333 0.400000 0.047059
0.149020 0.403922 0.050980
0.176471 0.400000 0.039216
0.200000 0.403922 0.043137
0.231373 0.403922 0.050980
0.258824 0.400000 0.043137
0.286275 0.400000 0.050980
0.317647 0.403922 0.050980
0.341176 0.403922 0.043137
0.376471 0.403922 0.043137
0.403922 0.407843 0.039216
0.431373 0.403922 0.050980
0.466667 0.403922 0.058824
0.494118 0.407843 0.054902
0.525490 0.403922 0.054902
0.552941 0.407843 0.039216
0.580392 0.411765 0.058824
0.611765 0.407843 0.043137
0.639216 0.411765 0.050980
0.670588 0.415686 0.054902
0.701961 0.415686 0.058824
0.737255 0.415686 0.050980
0.764706 0.415686 0.058824
0.792157 0.423529 0.058824
0.827451 0.419608 0.066667
0.854902 0.419608 0.074510
0.882353 0.423529 0.078431
0.913725 0.423529 0.066667
0.941176 0.423529 0.074510
0.968627 0.427451 0.078431
0.094118 0.435294 0.050980
0.094118 0.435294 0.050980
0.113725 0.431373 0.050980
0.129412 0.431373 0.050980
0.149020 0.435294 0.043137
0.188235 0.431373 0.047059
0.211765 0.431373 0.050980
0.235294 0.431373 0.043137
0.258824 0.435294 0.050980
0.290196 0.435294 0.043137
0.313726 0.431373 0.050980
0.345098 0.435294 0.050980
0.376471 0.435294 0.058824
0.403922 0.435294 0.039216
0.431373 0.439216 0.054902
0.462745 0.435294 0.050980
0.494118 0.435294 0.050980
0.525490 0.439216 0.054902
0.556863 0.439216 0.054902
0.588235 0.435294 0.054902
0.611765 0.443137 0.058824
0.643137 0.439216 0.058824
0.678431 0.443137 0.062745
0.705882 0.439216 0.062745
0.729412 0.447059 0.050980
0.764706 0.447059 0.058824
0.796078 0.447059 0.078431
0.823529 0.450980 0.070588
0.854902 0.450980 0.074510
0.886275 0.450980 0.082353
0.917647 0.454902 0.086275
0.941176 0.458824 0.074510
0.972549 0.458824 0.082353
0.105882 0.462745 0.058824
0.109804 0.462745 0.043137
0.129412 0.462745 0.043137
0.145098 0.458824 0.047059
0.164706 0.462745 0.050980
0.180392 0.466667 0.058824
0.215686 0.462745 0.058824
0.239216 0.462745 0.050980
0.274510 0.462745 0.058824
0.294118 0.466667 0.050980
0.321569 0.462745 0.058824
0.349020 0.462745 0.050980
0.380392 0.466667 0.050980
0.403922 0.466667 0.058824
0.439216 0.466667 0.058824
0.466667 0.466667 0.054902
0.490196 0.466667 0.047059
0.525490 0.466667 0.047059
0.556863 0.466667 0.047059
0.588235 0.470588 0.050980
0.619608 0.470588 0.070588
0.647059 0.470588 0.050980
0.674510 0.474510 0.054902
0.705882 0.470588 0.054902
0.737255 0.474510 0.058824
0.768627 0.478431 0.082353
0.792157 0.474510 0.082353
0.823529 0.478431 0.070588
0.854902 0.482353 0.078431
0.886275 0.482353 0.082353
0.917647 0.482353 0.090196
0.949020 0.486275 0.078431
0.972549 0.490196 0.082353
0.121569 0.494118 0.050980
0.121569 0.494118 0.050980
0.137255 0.490196 0.050980
0.160784 0.494118 0.058824
0.172549 0.494118 0.058824
0.192157 0.498039 0.062745
0.219608 0.494118 0.050980
0.243137 0.494118 0.058824
0.278431 0.494118 0.066667
0.301961 0.498039 0.058824
0.321569 0.498039 0.062745
0.352941 0.498039 0.058824
0.384314 0.494118 0.062745
0.415686 0.498039 0.062745
0.435294 0.498039 0.054902
0.470588 0.498039 0.054902
0.498039 0.494118 0.062745
0.525490 0.498039 0.062745
0.560784 0.498039 0.062745
0.588235 0.498039 0.058824
0.615686 0.501961 0.058824
0.650980 0.501961 0.062745
0.682353 0.501961 0.062745
0.701961 0.501961 0.062745
0.737255 0.505882 0.086275
0.764706 0.505882 0.086275
0.796078 0.505882 0.074510
0.823529 0.505882 0.074510
0.854902 0.509804 0.078431
0.882353 0.509804 0.086275
0.913725 0.513726 0.090196
0.945098 0.513726 0.078431
0.976471 0.517647 0.086275
0.109804 0.525490 0.058824
0.133333 0.525490 0.058824
0.133333 0.525490 0.058824
0.156863 0.525490 0.062745
0.184314 0.525490 0.066667
0.203922 0.525490 0.074510
0.231373 0.525490 0.058824
0.247059 0.525490 0.062745
0.270588 0.529412 0.070588
0.301961 0.525490 0.058824
0.333333 0.525490 0.066667
0.352941 0.525490 0.058824
0.388235 0.529412 0.070588
0.415686 0.529412 0.062745
0.447059 0.525490 0.054902
0.470588 0.529412 0.070588
0.501961 0.525490 0.062745
0.537255 0.525490 0.062745
0.556863 0.529412 0.058824
0.592157 0.529412 0.058824
0.623529 0.529412 0.074510
0.647059 0.533333 0.054902
0.678431 0.533333 0.074510
0.709804 0.529412 0.074510
0.737255 0.537255 0.078431
0.768627 0.533333 0.078431
0.800000 0.537255 0.082353
0.823529 0.537255 0.082353
0.854902 0.541176 0.090196
0.886275 0.537255 0.090196
0.921569 0.541176 0.078431
0.945098 0.545098 0.082353
0.976471 0.545098 0.090196
0.121569 0.556863 0.066667
0.121569 0.556863 0.066667
0.149020 0.556863 0.070588
0.168627 0.556863 0.074510
0.184314 0.556863 0.074510
0.200000 0.552941 0.058824
0.231373 0.556863 0.062745
0.258824 0.556863 0.074510
0.274510 0.556863 0.054902
0.305882 0.556863 0.062745
0.329412 0.556863 0.074510
0.360784 0.556863 0.062745
0.384314 0.556863 0.070588
0.419608 0.556863 0.062745
0.450980 0.560784 0.078431
0.474510 0.556863 0.070588
0.505882 0.560784 0.070588
0.529412 0.560784 0.058824
0.564706 0.560784 0.058824
0.592157 0.560784 0.074510
0.619608 0.564706 0.074510
0.650980 0.560784 0.086275
0.682353 0.564706 0.090196
0.709804 0.564706 0.090196
0.741176 0.564706 0.090196
0.768627 0.564706 0.086275
0.800000 0.568627 0.090196
0.831373 0.564706 0.094118
0.858824 0.564706 0.090196
0.886275 0.572549 0.098039
0.921569 0.572549 0.101961
0.949020 0.572549 0.086275
0.976471 0.576471 0.090196
0.133333 0.588235 0.074510
0.133333 0.588235 0.074510
0.156863 0.584314 0.074510
0.164706 0.588235 0.062745
0.196078 0.588235 0.082353
0.211765 0.584314 0.062745
0.231373 0.588235 0.070588
0.254902 0.584314 0.074510
0.286275 0.588235 0.062745
0.309804 0.588235 0.070588
0.333333 0.592157 0.078431
0.364706 0.584314 0.062745
0.400000 0.588235 0.078431
0.419608 0.592157 0.070588
0.447059 0.588235 0.078431
0.474510 0.588235 0.070588
0.513726 0.592157 0.070588
0.529412 0.592157 0.078431
0.568627 0.592157 0.078431
0.592157 0.588235 0.086275
0.619608 0.592157 0.086275
0.654902 0.592157 0.086275
0.682353 0.592157 0.098039
0.709804 0.596078 0.098039
0.741176 0.592157 0.098039
0.768627 0.596078 0.098039
0.800000 0.600000 0.101961
0.827451 0.600000 0.098039
0.862745 0.596078 0.101961
0.894118 0.600000 0.090196
0.913725 0.603922 0.086275
0.952941 0.603922 0.094118
0.980392 0.603922 0.094118
0.149020 0.619608 0.062745
0.168627 0.615686 0.062745
0.164706 0.615686 0.082353
0.192157 0.619608 0.070588
0.192157 0.619608 0.070588
0.207843 0.619608 0.070588
0.243137 0.619608 0.078431
0.254902 0.619608 0.082353
0.286275 0.619608 0.070588
0.321569 0.615686 0.074510
0.345098 0.619608 0.082353
0.360784 0.619608 0.070588
0.392157 0.619608 0.078431
0.423529 0.619608 0.070588
0.450980 0.619608 0.078431
0.478431 0.623529 0.078431
0.509804 0.619608 0.086275
0.537255 0.619608 0.094118
0.568627 0.623529 0.094118
0.592157 0.623529 0.101961
0.627451 0.623529 0.101961
0.650980 0.627451 0.098039
0.686275 0.627451 0.098039
0.717647 0.627451 0.098039
0.749020 0.627451 0.098039
0.776471 0.627451 0.098039
0.803922 0.627451 0.094118
0.835294 0.627451 0.094118
0.858824 0.631373 0.090196
0.890196 0.627451 0.090196
0.921569 0.631373 0.098039
0.949020 0.631373 0.098039
0.980392 0.635294 0.101961
0.160784 0.650980 0.070588
0.180392 0.647059 0.070588
0.180392 0.647059 0.070588
0.200000 0.647059 0.074510
0.223529 0.650980 0.078431
0.235294 0.650980 0.078431
0.235294 0.650980 0.078431
0.270588 0.650980 0.090196
0.286275 0.650980 0.070588
0.325490 0.650980 0.078431
0.349020 0.650980 0.090196
0.376471 0.650980 0.078431
0.392157 0.650980 0.078431
0.423529 0.647059 0.090196
0.454902 0.647059 0.098039
0.486275 0.650980 0.094118
0.509804 0.650980 0.101961
0.537255 0.650980 0.094118
0.572549 0.654902 0.094118
0.592157 0.654902 0.101961
0.627451 0.654902 0.101961
0.654902 0.650980 0.094118
0.682353 0.654902 0.090196
0.717647 0.654902 0.090196
0.745098 0.654902 0.105882
0.780392 0.654902 0.105882
0.803922 0.658824 0.105882
0.835294 0.658824 0.105882
0.866667 0.658824 0.101961
0.894118 0.658824 0.101961
0.925490 0.662745 0.105882
0.952941 0.662745 0.105882
0.980392 0.662745 0.105882
0.172549 0.682353 0.078431
0.172549 0.682353 0.078431
0.192157 0.682353 0.078431
0.211765 0.678431 0.082353
0.211765 0.678431 0.082353
0.231373 0.682353 0.090196
0.250980 0.682353 0.090196
0.282353 0.682353 0.098039
0.294118 0.682353 0.098039
0.325490 0.682353 0.105882
0.345098 0.678431 0.105882
0.372549 0.682353 0.098039
0.407843 0.682353 0.105882
0.423529 0.682353 0.094118
0.454902 0.682353 0.101961
0.486275 0.682353 0.094118
0.513726 0.682353 0.101961
0.541176 0.682353 0.098039
0.572549 0.686275 0.109804
0.600000 0.682353 0.101961
0.631373 0.686275 0.101961
0.654902 0.686275 0.109804
0.690196 0.686275 0.109804
0.721569 0.686275 0.105882
0.745098 0.686275 0.098039
0.776471 0.686275 0.098039
0.807843 0.686275 0.098039
0.831373 0.690196 0.094118
0.866667 0.690196 0.113725
0.894118 0.690196 0.113725
0.925490 0.694118 0.117647
0.952941 0.694118 0.117647
0.988235 0.690196 0.117647
0.180392 0.713726 0.105882
0.180392 0.713726 0.105882
0.200000 0.713726 0.105882
0.200000 0.713726 0.105882
0.219608 0.713726 0.105882
0.235294 0.709804 0.105882
0.258824 0.713726 0.113725
0.290196 0.709804 0.098039
0.305882 0.713726 0.105882
0.321569 0.713726 0.105882
0.349020 0.713726 0.113725
0.376471 0.713726 0.101961
0.407843 0.709804 0.105882
0.431373 0.713726 0.113725
0.454902 0.713726 0.105882
0.486275 0.713726 0.094118
0.517647 0.713726 0.105882
0.552941 0.717647 0.101961
0.572549 0.717647 0.109804
0.600000 0.713726 0.101961
0.639216 0.717647 0.101961
0.662745 0.713726 0.109804
0.694118 0.717647 0.109804
0.717647 0.717647 0.098039
0.752941 0.717647 0.117647
0.776471 0.721569 0.113725
0.811765 0.721569 0.113725
0.835294 0.717647 0.105882
0.866667 0.717647 0.105882
0.894118 0.721569 0.101961
0.933333 0.721569 0.109804
0.956863 0.725490 0.105882
0.984314 0.725490 0.105882
0.184314 0.741176 0.105882
0.184314 0.741176 0.105882
0.184314 0.741176 0.105882
0.211765 0.745098 0.113725
0.231373 0.745098 0.113725
0.250980 0.741176 0.113725
0.266667 0.741176 0.098039
0.290196 0.745098 0.105882
0.317647 0.741176 0.105882
0.333333 0.745098 0.113725
0.356863 0.741176 0.113725
0.376471 0.745098 0.105882
0.411765 0.745098 0.113725
0.439216 0.745098 0.101961
0.466667 0.741176 0.105882
0.490196 0.741176 0.113725
0.521569 0.741176 0.105882
0.545098 0.749020 0.121569
0.584314 0.745098 0.113725
0.603922 0.745098 0.121569
0.631373 0.745098 0.113725
0.662745 0.749020 0.109804
0.698039 0.745098 0.101961
0.721569 0.749020 0.117647
0.752941 0.745098 0.109804
0.784314 0.749020 0.109804
0.811765 0.749020 0.105882
0.839216 0.752941 0.121569
0.874510 0.749020 0.121569
0.898039 0.752941 0.121569
0.925490 0.756863 0.117647
0.960784 0.752941 0.117647
0.992157 0.752941 0.117647
0.196078 0.776471 0.113725
0.219608 0.772549 0.113725
0.219608 0.772549 0.113725
0.239216 0.772549 0.117647
0.239216 0.772549 0.117647
0.243137 0.776471 0.121569
0.262745 0.776471 0.105882
0.294118 0.772549 0.105882
0.317647 0.776471 0.113725
0.341176 0.772549 0.113725
0.372549 0.776471 0.121569
0.384314 0.772549 0.105882
0.411765 0.776471 0.113725
0.439216 0.776471 0.105882
0.474510 0.776471 0.113725
0.498039 0.776471 0.121569
0.529412 0.776471 0.113725
0.549020 0.776471 0.121569
0.580392 0.776471 0.113725
0.607843 0.776471 0.121569
0.631373 0.776471 0.113725
0.670588 0.780392 0.109804
0.698039 0.776471 0.121569
0.729412 0.780392 0.117647
0.752941 0.776471 0.109804
0.784314 0.780392 0.125490
0.815686 0.776471 0.117647
0.839216 0.780392 0.117647
0.870588 0.784314 0.113725
0.905882 0.780392 0.113725
0.933333 0.784314 0.113725
0.960784 0.784314 0.129412
0.992157 0.784314 0.129412
0.203922 0.803922 0.117647
0.223529 0.803922 0.117647
0.231373 0.807843 0.121569
0.231373 0.807843 0.121569
0.250980 0.803922 0.125490
0.266667 0.803922 0.125490
0.286275 0.803922 0.105882
0.294118 0.807843 0.113725
0.321569 0.803922 0.117647
0.341176 0.807843 0.121569
0.368627 0.803922 0.125490
0.400000 0.807843 0.113725
0.423529 0.803922 0.117647
0.439216 0.807843 0.121569
0.474510 0.807843 0.113725
0.498039 0.807843 0.121569
0.533333 0.807843 0.113725
0.564706 0.807843 0.121569
0.584314 0.807843 0.113725
0.615686 0.807843 0.121569
0.643137 0.807843 0.113725
0.666667 0.811765 0.129412
0.698039 0.811765 0.121569
0.725490 0.807843 0.109804
0.760784 0.807843 0.129412
0.780392 0.811765 0.117647
0.819608 0.811765 0.117647
0.847059 0.811765 0.133333
