test_output_lut/@Yurichtofen oc 従順塵埃  生活_ct.cube
TITLE "Color Transfer LUT - @Yurichtofen oc 従順塵埃  生活"
LUT_3D_SIZE 9
0.000000 0.003922 0.007843
0.109804 0.007843 0.003922
0.235294 0.011765 0.015686
0.352941 0.047059 0.019608
0.478431 0.066667 0.015686
0.600000 0.086275 0.027451
0.717647 0.117647 0.023529
0.843137 0.149020 0.023529
0.960784 0.172549 0.050980
0.019608 0.121569 0.011765
0.117647 0.121569 0.011765
0.235294 0.129412 0.023529
0.360784 0.133333 0.011765
0.482353 0.145098 0.019608
0.596078 0.160784 0.019608
0.721569 0.172549 0.019608
0.843137 0.192157 0.031373
0.968627 0.211765 0.047059
0.035294 0.243137 0.015686
0.129412 0.247059 0.019608
0.243137 0.247059 0.019608
0.368627 0.250980 0.019608
0.482353 0.258824 0.035294
0.603922 0.266667 0.039216
0.721569 0.274510 0.039216
0.843137 0.282353 0.047059
0.964706 0.294118 0.050980
0.070588 0.372549 0.019608
0.149020 0.368627 0.027451
0.254902 0.372549 0.039216
0.372549 0.372549 0.039216
0.490196 0.376471 0.039216
0.607843 0.376471 0.035294
0.725490 0.388235 0.039216
0.850980 0.392157 0.070588
0.968627 0.403922 0.062745
0.121569 0.494118 0.050980
0.172549 0.494118 0.058824
0.278431 0.494118 0.066667
0.384314 0.494118 0.062745
0.498039 0.494118 0.062745
0.615686 0.501961 0.058824
0.737255 0.505882 0.086275
0.854902 0.509804 0.078431
0.976471 0.517647 0.086275
0.149020 0.619608 0.062745
0.192157 0.619608 0.070588
0.286275 0.619608 0.070588
0.392157 0.619608 0.078431
0.509804 0.619608 0.086275
0.627451 0.623529 0.101961
0.749020 0.627451 0.098039
0.858824 0.631373 0.090196
0.980392 0.635294 0.101961
0.184314 0.741176 0.105882
0.231373 0.745098 0.113725
0.317647 0.741176 0.105882
0.411765 0.745098 0.113725
0.521569 0.741176 0.105882
0.631373 0.745098 0.113725
0.752941 0.745098 0.109804
0.874510 0.749020 0.121569
0.992157 0.752941 0.117647
0.219608 0.866667 0.125490
0.270588 0.866667 0.133333
0.345098 0.866667 0.125490
0.423529 0.870588 0.125490
0.537255 0.870588 0.133333
0.647059 0.870588 0.133333
0.756863 0.870588 0.117647
0.882353 0.870588 0.137255
0.996078 0.874510 0.141176
0.278431 0.992157 0.145098
0.301961 0.992157 0.149020
0.364706 0.992157 0.137255
0.450980 0.992157 0.133333
0.549020 0.992157 0.133333
0.658824 0.996078 0.168627
0.776471 0.996078 0.168627
0.882353 1.000000 0.160784
1.000000 1.000000 0.156863
0.000000 0.003922 0.117647
0.109804 0.007843 0.117647
0.235294 0.023529 0.125490
0.349020 0.050980 0.129412
0.474510 0.062745 0.129412
0.600000 0.094118 0.129412
0.721569 0.113725 0.133333
0.843137 0.141176 0.137255
0.960784 0.176471 0.137255
0.000000 0.121569 0.125490
0.113725 0.125490 0.125490
0.235294 0.129412 0.129412
0.356863 0.133333 0.125490
0.478431 0.141176 0.129412
0.600000 0.160784 0.133333
0.721569 0.180392 0.137255
0.839216 0.196078 0.137255
0.964706 0.215686 0.145098
0.039216 0.243137 0.125490
0.125490 0.247059 0.129412
0.243137 0.247059 0.133333
0.364706 0.250980 0.133333
0.478431 0.254902 0.133333
0.603922 0.262745 0.129412
0.721569 0.270588 0.141176
0.843137 0.286275 0.141176
0.964706 0.298039 0.145098
0.070588 0.368627 0.137255
0.133333 0.372549 0.137255
0.254902 0.368627 0.133333
0.372549 0.372549 0.141176
0.490196 0.376471 0.133333
0.611765 0.380392 0.149020
0.729412 0.384314 0.145098
0.847059 0.396078 0.149020
0.964706 0.403922 0.152941
0.101961 0.494118 0.141176
0.168627 0.498039 0.152941
0.270588 0.494118 0.152941
0.380392 0.494118 0.156863
0.498039 0.501961 0.149020
0.619608 0.501961 0.152941
0.733333 0.505882 0.156863
0.854902 0.505882 0.156863
0.980392 0.513726 0.164706
0.160784 0.615686 0.156863
0.188235 0.619608 0.152941
0.282353 0.619608 0.164706
0.392157 0.619608 0.160784
0.513726 0.619608 0.152941
0.631373 0.619608 0.152941
0.741176 0.627451 0.176471
0.858824 0.627451 0.176471
0.980392 0.635294 0.172549
0.188235 0.741176 0.164706
0.235294 0.745098 0.168627
0.305882 0.741176 0.164706
0.403922 0.745098 0.180392
0.517647 0.745098 0.180392
0.639216 0.749020 0.176471
0.752941 0.749020 0.188235
0.874510 0.749020 0.180392
0.988235 0.756863 0.180392
0.231373 0.870588 0.192157
0.270588 0.866667 0.192157
0.333333 0.866667 0.188235
0.423529 0.866667 0.188235
0.529412 0.870588 0.192157
0.639216 0.870588 0.192157
0.760784 0.870588 0.188235
0.878431 0.870588 0.184314
0.996078 0.874510 0.192157
0.262745 0.992157 0.196078
0.305882 0.988235 0.196078
0.352941 0.992157 0.188235
0.454902 0.992157 0.203922
0.552941 0.992157 0.188235
0.654902 0.996078 0.203922
0.772549 0.996078 0.203922
0.886275 0.996078 0.211765
1.000000 1.000000 0.223529
0.000000 0.007843 0.239216
0.105882 0.011765 0.243137
0.227451 0.027451 0.247059
0.352941 0.043137 0.247059
0.474510 0.062745 0.250980
0.592157 0.098039 0.250980
0.721569 0.117647 0.258824
0.843137 0.141176 0.258824
0.960784 0.176471 0.258824
0.000000 0.121569 0.247059
0.109804 0.125490 0.250980
0.235294 0.129412 0.250980
0.356863 0.133333 0.243137
0.478431 0.145098 0.250980
0.596078 0.164706 0.247059
0.721569 0.176471 0.258824
0.839216 0.196078 0.258824
0.960784 0.211765 0.266667
0.019608 0.247059 0.247059
0.117647 0.247059 0.247059
0.235294 0.250980 0.250980
0.360784 0.250980 0.250980
0.478431 0.258824 0.250980
0.603922 0.262745 0.254902
0.721569 0.274510 0.254902
0.843137 0.286275 0.258824
0.964706 0.298039 0.266667
0.050980 0.368627 0.250980
0.141176 0.372549 0.250980
0.254902 0.372549 0.250980
0.376471 0.372549 0.254902
0.490196 0.372549 0.262745
0.603922 0.380392 0.258824
0.725490 0.388235 0.258824
0.847059 0.396078 0.266667
0.968627 0.403922 0.266667
0.090196 0.494118 0.262745
0.164706 0.494118 0.262745
0.270588 0.494118 0.258824
0.376471 0.494118 0.262745
0.490196 0.498039 0.254902
0.615686 0.498039 0.258824
0.737255 0.505882 0.270588
0.854902 0.509804 0.266667
0.972549 0.513726 0.266667
0.141176 0.619608 0.262745
0.188235 0.619608 0.266667
0.290196 0.619608 0.266667
0.396078 0.619608 0.270588
0.513726 0.623529 0.270588
0.627451 0.623529 0.270588
0.737255 0.627451 0.270588
0.862745 0.631373 0.274510
0.976471 0.635294 0.274510
0.184314 0.745098 0.270588
0.223529 0.741176 0.270588
0.317647 0.745098 0.270588
0.403922 0.745098 0.274510
0.517647 0.745098 0.274510
0.631373 0.745098 0.282353
0.749020 0.749020 0.274510
0.870588 0.749020 0.290196
0.984314 0.752941 0.290196
0.231373 0.866667 0.282353
0.278431 0.866667 0.274510
0.333333 0.866667 0.278431
0.431373 0.870588 0.294118
0.537255 0.870588 0.290196
0.647059 0.870588 0.290196
0.760784 0.874510 0.298039
0.878431 0.874510 0.298039
0.992157 0.874510 0.290196
0.266667 0.992157 0.298039
0.294118 0.992157 0.301961
0.345098 0.996078 0.298039
0.447059 0.992157 0.294118
0.549020 0.996078 0.298039
0.650980 0.996078 0.294118
0.772549 0.992157 0.294118
0.882353 0.996078 0.301961
1.000000 0.996078 0.301961
0.000000 0.019608 0.356863
0.101961 0.027451 0.360784
0.231373 0.027451 0.368627
0.352941 0.054902 0.368627
0.474510 0.078431 0.376471
0.596078 0.101961 0.372549
0.721569 0.121569 0.376471
0.839216 0.152941 0.380392
0.956863 0.180392 0.384314
0.000000 0.125490 0.368627
0.109804 0.129412 0.364706
0.239216 0.129412 0.364706
0.349020 0.141176 0.368627
0.474510 0.152941 0.372549
0.603922 0.160784 0.372549
0.721569 0.180392 0.380392
0.843137 0.196078 0.376471
0.964706 0.219608 0.388235
0.000000 0.247059 0.372549
0.109804 0.250980 0.376471
0.235294 0.250980 0.372549
0.360784 0.250980 0.368627
0.482353 0.254902 0.368627
0.600000 0.262745 0.376471
0.721569 0.278431 0.380392
0.843137 0.286275 0.376471
0.960784 0.301961 0.380392
0.047059 0.372549 0.372549
0.133333 0.368627 0.372549
0.243137 0.372549 0.376471
0.364706 0.376471 0.380392
0.482353 0.376471 0.380392
0.603922 0.380392 0.380392
0.729412 0.384314 0.376471
0.847059 0.396078 0.388235
0.968627 0.403922 0.384314
0.105882 0.494118 0.380392
0.160784 0.494118 0.376471
0.258824 0.494118 0.380392
0.380392 0.498039 0.380392
0.494118 0.501961 0.376471
0.615686 0.501961 0.388235
0.737255 0.505882 0.384314
0.850980 0.513726 0.388235
0.968627 0.517647 0.384314
0.129412 0.619608 0.384314
0.200000 0.619608 0.388235
0.274510 0.619608 0.388235
0.384314 0.619608 0.388235
0.501961 0.623529 0.388235
0.619608 0.627451 0.392157
0.741176 0.627451 0.384314
0.858824 0.631373 0.400000
0.980392 0.635294 0.392157
0.180392 0.745098 0.392157
0.223529 0.741176 0.392157
0.305882 0.745098 0.392157
0.411765 0.745098 0.384314
0.517647 0.745098 0.396078
0.635294 0.749020 0.396078
0.752941 0.749020 0.396078
0.866667 0.752941 0.396078
0.984314 0.756863 0.400000
0.219608 0.870588 0.403922
0.270588 0.866667 0.396078
0.313726 0.866667 0.400000
0.427451 0.866667 0.403922
0.525490 0.870588 0.400000
0.643137 0.870588 0.400000
0.756863 0.870588 0.400000
0.878431 0.874510 0.400000
0.996078 0.874510 0.407843
0.258824 0.992157 0.400000
0.282353 0.992157 0.400000
0.352941 0.992157 0.396078
0.454902 0.992157 0.407843
0.541176 0.992157 0.407843
0.658824 0.996078 0.407843
0.772549 0.996078 0.411765
0.890196 0.996078 0.407843
1.000000 1.000000 0.411765
0.000000 0.039216 0.486275
0.090196 0.039216 0.482353
0.227451 0.047059 0.486275
0.345098 0.066667 0.490196
0.470588 0.082353 0.490196
0.592157 0.105882 0.490196
0.713726 0.133333 0.501961
0.843137 0.145098 0.494118
0.956863 0.184314 0.501961
0.000000 0.133333 0.486275
0.086275 0.133333 0.486275
0.223529 0.141176 0.490196
0.356863 0.141176 0.490196
0.474510 0.152941 0.494118
0.592157 0.172549 0.498039
0.721569 0.176471 0.494118
0.839216 0.203922 0.498039
0.964706 0.223529 0.505882
0.000000 0.250980 0.494118
0.090196 0.250980 0.494118
0.243137 0.250980 0.490196
0.352941 0.258824 0.490196
0.474510 0.262745 0.498039
0.596078 0.270588 0.501961
0.717647 0.278431 0.494118
0.847059 0.290196 0.505882
0.960784 0.305882 0.501961
0.003922 0.372549 0.498039
0.113725 0.376471 0.501961
0.243137 0.372549 0.501961
0.368627 0.376471 0.498039
0.486275 0.380392 0.501961
0.607843 0.380392 0.498039
0.725490 0.392157 0.505882
0.850980 0.396078 0.501961
0.964706 0.403922 0.505882
0.090196 0.494118 0.494118
0.168627 0.494118 0.498039
0.266667 0.498039 0.498039
0.376471 0.498039 0.501961
0.490196 0.501961 0.505882
0.603922 0.501961 0.501961
0.729412 0.505882 0.505882
0.850980 0.513726 0.509804
0.976471 0.517647 0.513726
0.129412 0.619608 0.505882
0.184314 0.619608 0.509804
0.282353 0.619608 0.505882
0.388235 0.623529 0.509804
0.498039 0.623529 0.505882
0.623529 0.623529 0.501961
0.737255 0.627451 0.509804
0.858824 0.631373 0.513726
0.976471 0.635294 0.509804
0.172549 0.745098 0.513726
0.203922 0.745098 0.517647
0.294118 0.745098 0.517647
0.400000 0.749020 0.513726
0.513726 0.745098 0.513726
0.627451 0.749020 0.513726
0.745098 0.749020 0.517647
0.866667 0.752941 0.517647
0.988235 0.756863 0.513726
0.200000 0.870588 0.521569
0.258824 0.866667 0.513726
0.321569 0.866667 0.517647
0.415686 0.870588 0.509804
0.525490 0.870588 0.517647
0.647059 0.870588 0.509804
0.756863 0.870588 0.517647
0.874510 0.874510 0.521569
0.996078 0.878431 0.521569
0.250980 0.992157 0.525490
0.278431 0.992157 0.525490
0.352941 0.992157 0.521569
0.431373 0.996078 0.521569
0.549020 0.992157 0.525490
0.654902 0.992157 0.521569
0.764706 1.000000 0.529412
0.886275 1.000000 0.525490
0.996078 0.996078 0.525490
0.000000 0.043137 0.607843
0.082353 0.050980 0.607843
0.211765 0.074510 0.607843
0.345098 0.082353 0.611765
0.470588 0.090196 0.607843
0.588235 0.121569 0.619608
0.713726 0.129412 0.615686
0.835294 0.164706 0.623529
0.960784 0.184314 0.623529
0.000000 0.137255 0.611765
0.090196 0.137255 0.603922
0.223529 0.145098 0.607843
0.349020 0.152941 0.611765
0.470588 0.164706 0.611765
0.592157 0.172549 0.615686
0.717647 0.188235 0.619608
0.839216 0.207843 0.623529
0.956863 0.227451 0.619608
0.000000 0.250980 0.611765
0.105882 0.250980 0.607843
0.231373 0.254902 0.607843
0.349020 0.258824 0.611765
0.474510 0.262745 0.615686
0.596078 0.274510 0.619608
0.717647 0.282353 0.623529
0.835294 0.294118 0.623529
0.960784 0.301961 0.623529
0.000000 0.376471 0.615686
0.133333 0.372549 0.615686
0.250980 0.372549 0.615686
0.360784 0.372549 0.615686
0.478431 0.380392 0.615686
0.596078 0.384314 0.623529
0.717647 0.392157 0.619608
0.843137 0.400000 0.623529
0.968627 0.407843 0.631373
0.050980 0.498039 0.619608
0.129412 0.498039 0.623529
0.247059 0.501961 0.623529
0.372549 0.501961 0.627451
0.490196 0.498039 0.623529
0.611765 0.505882 0.623529
0.729412 0.509804 0.627451
0.850980 0.513726 0.635294
0.968627 0.517647 0.627451
0.101961 0.619608 0.623529
0.188235 0.619608 0.619608
0.278431 0.623529 0.623529
0.376471 0.623529 0.627451
0.494118 0.623529 0.623529
0.611765 0.627451 0.631373
0.733333 0.627451 0.631373
0.858824 0.635294 0.627451
0.976471 0.635294 0.631373
0.176471 0.745098 0.631373
0.203922 0.745098 0.631373
0.286275 0.745098 0.631373
0.407843 0.745098 0.627451
0.521569 0.745098 0.631373
0.631373 0.749020 0.631373
0.749020 0.749020 0.631373
0.862745 0.749020 0.639216
0.984314 0.752941 0.639216
0.231373 0.866667 0.631373
0.262745 0.870588 0.635294
0.309804 0.870588 0.639216
0.419608 0.870588 0.639216
0.529412 0.870588 0.639216
0.631373 0.870588 0.639216
0.749020 0.874510 0.639216
0.866667 0.874510 0.643137
0.988235 0.878431 0.643137
0.274510 0.992157 0.643137
0.298039 0.992157 0.643137
0.352941 0.992157 0.639216
0.450980 0.992157 0.639216
0.533333 0.992157 0.639216
0.658824 0.996078 0.643137
0.772549 0.996078 0.639216
0.890196 0.996078 0.647059
0.996078 0.996078 0.647059
0.000000 0.062745 0.729412
0.058824 0.070588 0.729412
0.215686 0.078431 0.729412
0.345098 0.086275 0.729412
0.458824 0.113725 0.733333
0.592157 0.129412 0.737255
0.717647 0.141176 0.737255
0.835294 0.176471 0.741176
0.960784 0.188235 0.745098
0.000000 0.145098 0.729412
0.090196 0.149020 0.729412
0.207843 0.156863 0.733333
0.345098 0.160784 0.729412
0.462745 0.168627 0.737255
0.584314 0.188235 0.737255
0.709804 0.196078 0.741176
0.831373 0.219608 0.745098
0.956863 0.231373 0.737255
0.000000 0.258824 0.729412
0.047059 0.262745 0.741176
0.215686 0.262745 0.737255
0.345098 0.262745 0.737255
0.470588 0.266667 0.737255
0.592157 0.274510 0.737255
0.717647 0.286275 0.745098
0.839216 0.301961 0.741176
0.956863 0.309804 0.749020
0.007843 0.376471 0.737255
0.109804 0.376471 0.737255
0.243137 0.376471 0.737255
0.352941 0.380392 0.737255
0.470588 0.384314 0.741176
0.603922 0.384314 0.737255
0.721569 0.396078 0.745098
0.843137 0.400000 0.741176
0.960784 0.411765 0.749020
0.062745 0.498039 0.745098
0.141176 0.498039 0.741176
0.231373 0.498039 0.745098
0.372549 0.498039 0.741176
0.490196 0.505882 0.741176
0.607843 0.505882 0.745098
0.721569 0.509804 0.745098
0.847059 0.513726 0.745098
0.972549 0.521569 0.752941
0.125490 0.619608 0.741176
0.164706 0.623529 0.745098
0.258824 0.619608 0.749020
0.364706 0.623529 0.749020
0.501961 0.623529 0.749020
0.623529 0.627451 0.749020
0.733333 0.631373 0.749020
0.858824 0.631373 0.749020
0.976471 0.639216 0.752941
0.168627 0.745098 0.745098
0.231373 0.745098 0.752941
0.290196 0.745098 0.749020
0.400000 0.745098 0.749020
0.509804 0.749020 0.752941
0.619608 0.752941 0.752941
0.737255 0.749020 0.756863
0.854902 0.756863 0.756863
0.980392 0.756863 0.756863
0.215686 0.870588 0.756863
0.243137 0.866667 0.756863
0.325490 0.866667 0.752941
0.407843 0.870588 0.756863
0.525490 0.870588 0.756863
0.635294 0.870588 0.756863
0.749020 0.874510 0.756863
0.878431 0.874510 0.756863
0.984314 0.878431 0.760784
0.243137 0.992157 0.752941
0.278431 0.996078 0.756863
0.352941 0.996078 0.760784
0.435294 0.992157 0.760784
0.541176 0.996078 0.764706
0.643137 0.996078 0.764706
0.760784 0.996078 0.768627
0.878431 1.000000 0.768627
0.996078 1.000000 0.764706
0.000000 0.094118 0.847059
0.062745 0.090196 0.847059
0.211765 0.090196 0.847059
0.325490 0.105882 0.854902
0.458824 0.125490 0.854902
0.584314 0.141176 0.854902
0.705882 0.156863 0.858824
0.835294 0.168627 0.858824
0.952941 0.203922 0.870588
0.000000 0.152941 0.847059
0.000000 0.160784 0.854902
0.211765 0.156863 0.850980
0.341176 0.164706 0.850980
0.458824 0.180392 0.854902
0.588235 0.192157 0.858824
0.705882 0.207843 0.858824
0.839216 0.215686 0.858824
0.956863 0.235294 0.866667
0.000000 0.262745 0.854902
0.082353 0.262745 0.854902
0.211765 0.262745 0.854902
0.349020 0.262745 0.854902
0.478431 0.274510 0.854902
0.588235 0.282353 0.862745
0.717647 0.286275 0.858824
0.843137 0.301961 0.862745
0.960784 0.313726 0.870588
0.062745 0.376471 0.850980
0.117647 0.376471 0.854902
0.231373 0.380392 0.862745
0.352941 0.384314 0.866667
0.478431 0.384314 0.858824
0.596078 0.392157 0.862745
0.721569 0.400000 0.858824
0.843137 0.403922 0.866667
0.960784 0.411765 0.866667
0.062745 0.501961 0.862745
0.152941 0.501961 0.858824
0.250980 0.501961 0.862745
0.372549 0.501961 0.854902
0.486275 0.505882 0.862745
0.600000 0.509804 0.870588
0.733333 0.509804 0.866667
0.847059 0.517647 0.862745
0.960784 0.521569 0.866667
0.066667 0.627451 0.870588
0.156863 0.623529 0.870588
0.262745 0.623529 0.870588
0.380392 0.623529 0.870588
0.501961 0.623529 0.866667
0.615686 0.631373 0.866667
0.729412 0.631373 0.866667
0.847059 0.635294 0.874510
0.972549 0.639216 0.870588
0.160784 0.745098 0.866667
0.223529 0.745098 0.866667
0.313726 0.745098 0.870588
0.388235 0.749020 0.878431
0.505882 0.752941 0.874510
0.631373 0.749020 0.870588
0.741176 0.752941 0.878431
0.858824 0.752941 0.874510
0.980392 0.756863 0.874510
0.203922 0.870588 0.874510
0.239216 0.870588 0.882353
0.309804 0.870588 0.878431
0.403922 0.874510 0.878431
0.525490 0.870588 0.874510
0.631373 0.870588 0.878431
0.752941 0.874510 0.878431
0.866667 0.878431 0.882353
0.980392 0.878431 0.882353
0.215686 0.992157 0.882353
0.254902 0.996078 0.886275
0.349020 0.996078 0.886275
0.439216 0.992157 0.882353
0.533333 0.996078 0.890196
0.643137 1.000000 0.886275
0.768627 0.996078 0.882353
0.882353 1.000000 0.882353
0.996078 1.000000 0.882353
0.000000 0.101961 0.972549
0.000000 0.105882 0.972549
0.180392 0.117647 0.972549
0.321569 0.129412 0.976471
0.454902 0.137255 0.976471
0.584314 0.145098 0.976471
0.713726 0.152941 0.976471
0.827451 0.184314 0.984314
0.952941 0.207843 0.988235
0.000000 0.168627 0.972549
0.007843 0.168627 0.968627
0.196078 0.172549 0.972549
0.333333 0.172549 0.972549
0.454902 0.188235 0.980392
0.588235 0.200000 0.980392
0.709804 0.207843 0.976471
0.835294 0.219608 0.984314
0.956863 0.239216 0.980392
0.000000 0.270588 0.968627
0.070588 0.270588 0.968627
0.223529 0.266667 0.968627
0.337255 0.274510 0.980392
0.466667 0.274510 0.976471
0.584314 0.290196 0.980392
0.721569 0.294118 0.984314
0.827451 0.309804 0.984314
0.956863 0.317647 0.988235
0.000000 0.384314 0.980392
0.117647 0.380392 0.980392
0.239216 0.380392 0.972549
0.345098 0.388235 0.984314
0.474510 0.388235 0.980392
0.592157 0.396078 0.984314
0.717647 0.396078 0.984314
0.839216 0.407843 0.992157
0.964706 0.411765 0.984314
0.078431 0.501961 0.976471
0.168627 0.501961 0.980392
0.211765 0.505882 0.992157
0.352941 0.505882 0.984314
0.478431 0.505882 0.984314
0.603922 0.509804 0.988235
0.725490 0.513726 0.988235
0.843137 0.521569 0.988235
0.964706 0.529412 0.992157
0.082353 0.627451 0.988235
0.133333 0.623529 0.988235
0.258824 0.627451 0.988235
0.376471 0.627451 0.988235
0.498039 0.627451 0.984314
0.611765 0.627451 0.988235
0.733333 0.635294 0.992157
0.843137 0.635294 0.996078
0.972549 0.639216 0.992157
0.105882 0.749020 0.996078
0.192157 0.749020 0.992157
0.294118 0.749020 0.992157
0.376471 0.749020 0.992157
0.509804 0.749020 0.996078
0.623529 0.749020 0.992157
0.737255 0.756863 0.992157
0.854902 0.756863 0.992157
0.976471 0.760784 1.000000
0.184314 0.874510 0.992157
0.219608 0.870588 0.992157
0.321569 0.870588 0.992157
0.419608 0.870588 0.992157
0.513726 0.874510 1.000000
0.631373 0.874510 1.000000
0.745098 0.874510 1.000000
0.866667 0.878431 0.996078
0.980392 0.878431 0.996078
0.258824 0.996078 1.000000
0.290196 0.996078 1.000000
0.337255 0.996078 1.000000
0.435294 0.992157 0.996078
0.533333 0.996078 1.000000
0.650980 0.996078 1.000000
0.760784 1.000000 1.000000
0.878431 1.000000 1.000000
0.988235 1.000000 1.000000
