test_output_lut/@Yurichtofen oc 従順塵埃  生活_ct.cube
TITLE "Color Transfer LUT - @Yurichtofen oc 従順塵埃  生活"
LUT_3D_SIZE 5
0.000000 0.003922 0.007843
0.235294 0.011765 0.015686
0.478431 0.066667 0.015686
0.717647 0.117647 0.023529
0.960784 0.172549 0.050980
0.035294 0.243137 0.015686
0.243137 0.247059 0.019608
0.482353 0.258824 0.035294
0.721569 0.274510 0.039216
0.964706 0.294118 0.050980
0.121569 0.494118 0.050980
0.278431 0.494118 0.066667
0.498039 0.494118 0.062745
0.737255 0.505882 0.086275
0.976471 0.517647 0.086275
0.184314 0.741176 0.105882
0.317647 0.741176 0.105882
0.521569 0.741176 0.105882
0.752941 0.745098 0.109804
0.992157 0.752941 0.117647
0.278431 0.992157 0.145098
0.364706 0.992157 0.137255
0.549020 0.992157 0.133333
0.776471 0.996078 0.168627
1.000000 1.000000 0.156863
0.000000 0.007843 0.239216
0.227451 0.027451 0.247059
0.474510 0.062745 0.250980
0.721569 0.117647 0.258824
0.960784 0.176471 0.258824
0.019608 0.247059 0.247059
0.235294 0.250980 0.250980
0.478431 0.258824 0.250980
0.721569 0.274510 0.254902
0.964706 0.298039 0.266667
0.090196 0.494118 0.262745
0.270588 0.494118 0.258824
0.490196 0.498039 0.254902
0.737255 0.505882 0.270588
0.972549 0.513726 0.266667
0.184314 0.745098 0.270588
0.317647 0.745098 0.270588
0.517647 0.745098 0.274510
0.749020 0.749020 0.274510
0.984314 0.752941 0.290196
0.266667 0.992157 0.298039
0.345098 0.996078 0.298039
0.549020 0.996078 0.298039
0.772549 0.992157 0.294118
1.000000 0.996078 0.301961
0.000000 0.039216 0.486275
0.227451 0.047059 0.486275
0.470588 0.082353 0.490196
0.713726 0.133333 0.501961
0.956863 0.184314 0.501961
0.000000 0.250980 0.494118
0.243137 0.250980 0.490196
0.474510 0.262745 0.498039
0.717647 0.278431 0.494118
0.960784 0.305882 0.501961
0.090196 0.494118 0.494118
0.266667 0.498039 0.498039
0.490196 0.501961 0.505882
0.729412 0.505882 0.505882
0.976471 0.517647 0.513726
0.172549 0.745098 0.513726
0.294118 0.745098 0.517647
0.513726 0.745098 0.513726
0.745098 0.749020 0.517647
0.988235 0.756863 0.513726
0.250980 0.992157 0.525490
0.352941 0.992157 0.521569
0.549020 0.992157 0.525490
0.764706 1.000000 0.529412
0.996078 0.996078 0.525490
0.000000 0.062745 0.729412
0.215686 0.078431 0.729412
0.458824 0.113725 0.733333
0.717647 0.141176 0.737255
0.960784 0.188235 0.745098
0.000000 0.258824 0.729412
0.215686 0.262745 0.737255
0.470588 0.266667 0.737255
0.717647 0.286275 0.745098
0.956863 0.309804 0.749020
0.062745 0.498039 0.745098
0.231373 0.498039 0.745098
0.490196 0.505882 0.741176
0.721569 0.509804 0.745098
0.972549 0.521569 0.752941
0.168627 0.745098 0.745098
0.290196 0.745098 0.749020
0.509804 0.749020 0.752941
0.737255 0.749020 0.756863
0.980392 0.756863 0.756863
0.243137 0.992157 0.752941
0.352941 0.996078 0.760784
0.541176 0.996078 0.764706
0.760784 0.996078 0.768627
0.996078 1.000000 0.764706
0.000000 0.101961 0.972549
0.180392 0.117647 0.972549
0.454902 0.137255 0.976471
0.713726 0.152941 0.976471
0.952941 0.207843 0.988235
0.000000 0.270588 0.968627
0.223529 0.266667 0.968627
0.466667 0.274510 0.976471
0.721569 0.294118 0.984314
0.956863 0.317647 0.988235
0.078431 0.501961 0.976471
0.211765 0.505882 0.992157
0.478431 0.505882 0.984314
0.725490 0.513726 0.988235
0.964706 0.529412 0.992157
0.105882 0.749020 0.996078
0.294118 0.749020 0.992157
0.509804 0.749020 0.996078
0.737255 0.756863 0.992157
0.976471 0.760784 1.000000
0.258824 0.996078 1.000000
0.337255 0.996078 1.000000
0.533333 0.996078 1.000000
0.760784 1.000000 1.000000
0.988235 1.000000 1.000000
