test_output_lut/bedroom(20)_ct.cube
TITLE "Color Transfer LUT - bedroom(20)"
LUT_3D_SIZE 5
0.000000 0.007843 0.007843
0.247059 0.007843 0.011765
0.501961 0.023529 0.003922
0.745098 0.047059 0.000000
1.000000 0.027451 0.007843
0.000000 0.250980 0.000000
0.243137 0.250980 0.003922
0.498039 0.254902 0.007843
0.749020 0.258824 0.007843
1.000000 0.250980 0.000000
0.000000 0.501961 0.000000
0.247059 0.505882 0.011765
0.494118 0.501961 0.007843
0.752941 0.505882 0.015686
1.000000 0.509804 0.007843
0.000000 0.752941 0.007843
0.243137 0.752941 0.003922
0.498039 0.752941 0.000000
0.749020 0.752941 0.007843
1.000000 0.756863 0.011765
0.000000 1.000000 0.027451
0.215686 1.000000 0.003922
0.490196 1.000000 0.000000
0.745098 1.000000 0.039216
0.996078 1.000000 0.000000
0.000000 0.007843 0.250980
0.247059 0.011765 0.250980
0.498039 0.015686 0.247059
0.749020 0.047059 0.250980
1.000000 0.031373 0.250980
0.000000 0.254902 0.250980
0.243137 0.250980 0.250980
0.494118 0.254902 0.250980
0.745098 0.254902 0.247059
1.000000 0.250980 0.250980
0.000000 0.501961 0.250980
0.250980 0.501961 0.247059
0.494118 0.501961 0.247059
0.752941 0.505882 0.250980
0.996078 0.505882 0.247059
0.000000 0.756863 0.247059
0.243137 0.756863 0.247059
0.494118 0.756863 0.250980
0.745098 0.756863 0.247059
1.000000 0.752941 0.254902
0.000000 1.000000 0.250980
0.215686 1.000000 0.250980
0.494118 1.000000 0.254902
0.749020 1.000000 0.250980
1.000000 1.000000 0.254902
0.000000 0.015686 0.501961
0.247059 0.015686 0.501961
0.498039 0.019608 0.498039
0.756863 0.023529 0.505882
1.000000 0.043137 0.498039
0.000000 0.254902 0.501961
0.247059 0.250980 0.498039
0.498039 0.258824 0.501961
0.749020 0.254902 0.501961
1.000000 0.258824 0.501961
0.000000 0.501961 0.498039
0.247059 0.505882 0.501961
0.494118 0.505882 0.501961
0.749020 0.501961 0.501961
1.000000 0.505882 0.501961
0.000000 0.752941 0.501961
0.223529 0.756863 0.505882
0.494118 0.752941 0.501961
0.745098 0.756863 0.505882
1.000000 0.756863 0.501961
0.000000 1.000000 0.501961
0.219608 1.000000 0.501961
0.494118 1.000000 0.501961
0.741176 1.000000 0.505882
0.992157 1.000000 0.505882
0.000000 0.015686 0.752941
0.243137 0.023529 0.752941
0.501961 0.007843 0.752941
0.752941 0.023529 0.752941
1.000000 0.043137 0.756863
0.000000 0.254902 0.756863
0.235294 0.258824 0.752941
0.494118 0.250980 0.752941
0.749020 0.258824 0.756863
1.000000 0.250980 0.756863
0.000000 0.501961 0.756863
0.223529 0.501961 0.756863
0.498039 0.505882 0.752941
0.745098 0.505882 0.749020
1.000000 0.505882 0.756863
0.000000 0.756863 0.749020
0.231373 0.756863 0.752941
0.494118 0.756863 0.756863
0.745098 0.752941 0.752941
1.000000 0.756863 0.752941
0.000000 1.000000 0.749020
0.219608 1.000000 0.756863
0.490196 1.000000 0.752941
0.741176 1.000000 0.756863
0.996078 1.000000 0.752941
0.000000 0.019608 1.000000
0.235294 0.015686 1.000000
0.498039 0.019608 1.000000
0.756863 0.000000 1.000000
1.000000 0.043137 1.000000
0.000000 0.258824 1.000000
0.243137 0.254902 1.000000
0.494118 0.254902 1.000000
0.756863 0.250980 1.000000
1.000000 0.258824 1.000000
0.000000 0.505882 1.000000
0.223529 0.505882 1.000000
0.486275 0.505882 1.000000
0.749020 0.505882 1.000000
1.000000 0.509804 1.000000
0.000000 0.756863 1.000000
0.235294 0.756863 1.000000
0.494118 0.756863 1.000000
0.745098 0.760784 1.000000
0.996078 0.760784 1.000000
0.000000 1.000000 1.000000
0.227451 1.000000 1.000000
0.494118 1.000000 1.000000
0.745098 1.000000 1.000000
0.992157 1.000000 1.000000
