test_output_lut/Daily sketch, Sin jong hun_ct.cube
TITLE "Color Transfer LUT - Daily sketch, Sin jong hun"
LUT_3D_SIZE 9
0.000000 0.000000 0.000000
0.117647 0.000000 0.000000
0.243137 0.000000 0.003922
0.364706 0.003922 0.000000
0.498039 0.000000 0.000000
0.615686 0.000000 0.000000
0.741176 0.000000 0.000000
0.870588 0.003922 0.000000
0.996078 0.000000 0.000000
0.007843 0.117647 0.000000
0.117647 0.117647 0.000000
0.243137 0.117647 0.000000
0.368627 0.117647 0.000000
0.494118 0.117647 0.000000
0.615686 0.117647 0.000000
0.741176 0.113725 0.000000
0.870588 0.109804 0.000000
0.996078 0.117647 0.000000
0.007843 0.239216 0.000000
0.121569 0.243137 0.000000
0.243137 0.243137 0.000000
0.368627 0.243137 0.000000
0.494118 0.243137 0.000000
0.619608 0.247059 0.000000
0.741176 0.243137 0.000000
0.870588 0.243137 0.003922
0.996078 0.239216 0.000000
0.000000 0.368627 0.000000
0.109804 0.368627 0.000000
0.239216 0.368627 0.000000
0.368627 0.368627 0.000000
0.494118 0.368627 0.000000
0.615686 0.368627 0.000000
0.745098 0.368627 0.000000
0.874510 0.368627 0.000000
0.996078 0.368627 0.000000
0.007843 0.494118 0.000000
0.113725 0.494118 0.000000
0.250980 0.494118 0.003922
0.368627 0.494118 0.000000
0.490196 0.494118 0.000000
0.615686 0.494118 0.000000
0.749020 0.494118 0.000000
0.866667 0.494118 0.000000
0.996078 0.498039 0.000000
0.000000 0.619608 0.000000
0.113725 0.619608 0.000000
0.239216 0.619608 0.000000
0.364706 0.619608 0.000000
0.498039 0.619608 0.000000
0.619608 0.619608 0.003922
0.745098 0.623529 0.000000
0.866667 0.619608 0.000000
0.996078 0.619608 0.000000
0.003922 0.745098 0.000000
0.125490 0.745098 0.000000
0.247059 0.745098 0.000000
0.372549 0.745098 0.000000
0.498039 0.741176 0.000000
0.615686 0.745098 0.000000
0.745098 0.741176 0.000000
0.874510 0.745098 0.007843
0.996078 0.749020 0.000000
0.000000 0.870588 0.000000
0.121569 0.870588 0.007843
0.247059 0.870588 0.000000
0.360784 0.870588 0.000000
0.498039 0.870588 0.000000
0.619608 0.870588 0.000000
0.741176 0.870588 0.000000
0.874510 0.870588 0.003922
0.996078 0.870588 0.000000
0.000000 0.996078 0.000000
0.094118 0.996078 0.000000
0.227451 0.996078 0.000000
0.368627 0.996078 0.000000
0.494118 0.996078 0.000000
0.623529 0.996078 0.007843
0.745098 0.996078 0.003922
0.866667 0.996078 0.000000
0.992157 0.996078 0.000000
0.000000 0.000000 0.117647
0.113725 0.000000 0.121569
0.243137 0.003922 0.117647
0.364706 0.007843 0.121569
0.494118 0.000000 0.113725
0.619608 0.000000 0.117647
0.745098 0.000000 0.117647
0.870588 0.000000 0.113725
0.992157 0.000000 0.113725
0.000000 0.121569 0.129412
0.117647 0.117647 0.117647
0.243137 0.121569 0.121569
0.368627 0.117647 0.117647
0.494118 0.113725 0.117647
0.619608 0.117647 0.117647
0.745098 0.121569 0.113725
0.866667 0.113725 0.113725
0.996078 0.121569 0.121569
0.003922 0.243137 0.113725
0.117647 0.243137 0.117647
0.239216 0.243137 0.113725
0.368627 0.247059 0.117647
0.490196 0.243137 0.117647
0.619608 0.243137 0.113725
0.741176 0.239216 0.113725
0.866667 0.243137 0.117647
0.992157 0.239216 0.117647
0.000000 0.368627 0.117647
0.109804 0.372549 0.117647
0.247059 0.364706 0.117647
0.368627 0.368627 0.121569
0.490196 0.368627 0.113725
0.619608 0.368627 0.121569
0.745098 0.364706 0.117647
0.870588 0.368627 0.121569
0.992157 0.368627 0.109804
0.000000 0.494118 0.117647
0.125490 0.498039 0.117647
0.243137 0.494118 0.121569
0.368627 0.494118 0.121569
0.494118 0.494118 0.117647
0.623529 0.494118 0.117647
0.745098 0.494118 0.121569
0.866667 0.494118 0.121569
1.000000 0.494118 0.117647
0.000000 0.619608 0.117647
0.109804 0.619608 0.109804
0.235294 0.619608 0.121569
0.364706 0.619608 0.117647
0.498039 0.619608 0.109804
0.623529 0.619608 0.109804
0.749020 0.619608 0.121569
0.870588 0.619608 0.121569
0.992157 0.619608 0.117647
0.003922 0.745098 0.113725
0.125490 0.745098 0.121569
0.231373 0.745098 0.113725
0.360784 0.745098 0.121569
0.494118 0.749020 0.121569
0.623529 0.745098 0.109804
0.745098 0.749020 0.125490
0.870588 0.745098 0.117647
0.996078 0.745098 0.113725
0.000000 0.874510 0.121569
0.133333 0.870588 0.121569
0.231373 0.870588 0.113725
0.364706 0.870588 0.113725
0.490196 0.870588 0.121569
0.615686 0.870588 0.121569
0.745098 0.870588 0.109804
0.870588 0.870588 0.105882
0.992157 0.870588 0.113725
0.000000 0.996078 0.113725
0.117647 0.996078 0.113725
0.239216 0.996078 0.098039
0.372549 0.996078 0.121569
0.498039 0.992157 0.098039
0.615686 0.996078 0.121569
0.749020 0.996078 0.121569
0.870588 0.996078 0.105882
0.996078 0.996078 0.125490
0.000000 0.000000 0.247059
0.109804 0.000000 0.250980
0.243137 0.000000 0.247059
0.364706 0.000000 0.250980
0.494118 0.000000 0.243137
0.615686 0.000000 0.239216
0.745098 0.000000 0.243137
0.870588 0.000000 0.243137
0.996078 0.000000 0.247059
0.000000 0.117647 0.250980
0.113725 0.117647 0.250980
0.239216 0.121569 0.250980
0.368627 0.113725 0.247059
0.494118 0.117647 0.239216
0.615686 0.121569 0.239216
0.745098 0.113725 0.247059
0.866667 0.113725 0.247059
0.992157 0.113725 0.243137
0.000000 0.247059 0.250980
0.105882 0.243137 0.250980
0.243137 0.243137 0.243137
0.368627 0.243137 0.239216
0.490196 0.247059 0.243137
0.619608 0.243137 0.239216
0.741176 0.243137 0.239216
0.866667 0.243137 0.243137
0.996078 0.239216 0.243137
0.000000 0.368627 0.239216
0.117647 0.368627 0.239216
0.243137 0.368627 0.243137
0.372549 0.368627 0.247059
0.494118 0.368627 0.243137
0.615686 0.364706 0.243137
0.745098 0.368627 0.239216
0.870588 0.368627 0.243137
0.996078 0.368627 0.243137
0.000000 0.494118 0.247059
0.117647 0.494118 0.243137
0.250980 0.494118 0.239216
0.368627 0.494118 0.243137
0.490196 0.494118 0.239216
0.619608 0.494118 0.243137
0.749020 0.494118 0.243137
0.870588 0.494118 0.239216
0.992157 0.494118 0.239216
0.000000 0.619608 0.239216
0.105882 0.619608 0.243137
0.239216 0.623529 0.243137
0.372549 0.619608 0.243137
0.498039 0.619608 0.239216
0.619608 0.619608 0.243137
0.745098 0.619608 0.239216
0.870588 0.619608 0.247059
0.992157 0.619608 0.243137
0.000000 0.745098 0.239216
0.113725 0.745098 0.239216
0.250980 0.745098 0.239216
0.360784 0.745098 0.239216
0.494118 0.745098 0.239216
0.619608 0.745098 0.247059
0.741176 0.745098 0.239216
0.870588 0.745098 0.247059
0.996078 0.745098 0.247059
0.000000 0.870588 0.247059
0.141176 0.866667 0.235294
0.231373 0.870588 0.239216
0.372549 0.874510 0.247059
0.498039 0.870588 0.243137
0.623529 0.870588 0.243137
0.749020 0.874510 0.247059
0.870588 0.874510 0.250980
0.992157 0.870588 0.239216
0.000000 0.996078 0.243137
0.086275 1.000000 0.250980
0.227451 1.000000 0.243137
0.364706 0.996078 0.239216
0.498039 0.996078 0.243137
0.615686 0.996078 0.239216
0.745098 0.996078 0.239216
0.870588 0.996078 0.247059
0.996078 0.996078 0.247059
0.000000 0.000000 0.372549
0.105882 0.003922 0.376471
0.239216 0.000000 0.376471
0.368627 0.000000 0.376471
0.494118 0.000000 0.376471
0.619608 0.000000 0.376471
0.745098 0.000000 0.368627
0.870588 0.003922 0.372549
0.992157 0.000000 0.368627
0.000000 0.117647 0.376471
0.105882 0.121569 0.372549
0.247059 0.117647 0.372549
0.364706 0.117647 0.372549
0.490196 0.117647 0.376471
0.623529 0.113725 0.376471
0.749020 0.113725 0.368627
0.874510 0.113725 0.368627
0.992157 0.125490 0.372549
0.000000 0.243137 0.372549
0.090196 0.247059 0.380392
0.235294 0.243137 0.372549
0.368627 0.243137 0.372549
0.494118 0.243137 0.372549
0.619608 0.243137 0.364706
0.741176 0.247059 0.368627
0.866667 0.243137 0.364706
0.992157 0.243137 0.364706
0.000000 0.368627 0.376471
0.098039 0.368627 0.372549
0.235294 0.372549 0.376471
0.368627 0.368627 0.368627
0.494118 0.368627 0.368627
0.619608 0.368627 0.368627
0.745098 0.364706 0.368627
0.870588 0.368627 0.372549
0.996078 0.368627 0.368627
0.000000 0.494118 0.368627
0.129412 0.494118 0.368627
0.235294 0.494118 0.368627
0.372549 0.494118 0.368627
0.494118 0.498039 0.364706
0.623529 0.498039 0.372549
0.745098 0.498039 0.364706
0.870588 0.494118 0.372549
0.992157 0.494118 0.368627
0.000000 0.619608 0.364706
0.125490 0.619608 0.368627
0.239216 0.619608 0.372549
0.368627 0.619608 0.368627
0.494118 0.623529 0.368627
0.619608 0.619608 0.372549
0.749020 0.619608 0.364706
0.870588 0.623529 0.372549
0.996078 0.619608 0.368627
0.000000 0.745098 0.372549
0.098039 0.745098 0.372549
0.247059 0.745098 0.372549
0.368627 0.745098 0.364706
0.494118 0.745098 0.368627
0.623529 0.745098 0.364706
0.749020 0.745098 0.368627
0.870588 0.745098 0.368627
0.992157 0.745098 0.372549
0.000000 0.874510 0.372549
0.125490 0.870588 0.364706
0.227451 0.870588 0.368627
0.368627 0.870588 0.372549
0.486275 0.870588 0.368627
0.615686 0.870588 0.368627
0.745098 0.870588 0.368627
0.870588 0.870588 0.372549
0.996078 0.870588 0.368627
0.000000 0.996078 0.368627
0.094118 0.996078 0.368627
0.235294 0.996078 0.364706
0.372549 0.996078 0.372549
0.490196 0.996078 0.364706
0.627451 0.996078 0.364706
0.749020 0.996078 0.368627
0.874510 0.996078 0.364706
0.996078 0.996078 0.364706
0.000000 0.003922 0.498039
0.105882 0.000000 0.498039
0.239216 0.000000 0.501961
0.360784 0.003922 0.498039
0.494118 0.000000 0.498039
0.611765 0.003922 0.498039
0.745098 0.000000 0.505882
0.870588 0.000000 0.498039
0.992157 0.003922 0.490196
0.000000 0.121569 0.501961
0.090196 0.121569 0.501961
0.231373 0.121569 0.501961
0.368627 0.117647 0.498039
0.490196 0.117647 0.501961
0.615686 0.117647 0.498039
0.745098 0.109804 0.498039
0.866667 0.117647 0.501961
1.000000 0.109804 0.498039
0.000000 0.247059 0.501961
0.090196 0.247059 0.501961
0.243137 0.243137 0.498039
0.360784 0.247059 0.498039
0.490196 0.247059 0.498039
0.615686 0.247059 0.505882
0.741176 0.239216 0.498039
0.874510 0.243137 0.494118
0.996078 0.247059 0.490196
0.000000 0.368627 0.501961
0.090196 0.372549 0.505882
0.231373 0.368627 0.501961
0.368627 0.368627 0.501961
0.494118 0.368627 0.501961
0.615686 0.364706 0.501961
0.745098 0.372549 0.498039
0.874510 0.368627 0.494118
0.992157 0.368627 0.494118
0.000000 0.494118 0.498039
0.101961 0.494118 0.501961
0.243137 0.494118 0.501961
0.364706 0.494118 0.501961
0.494118 0.494118 0.494118
0.615686 0.494118 0.490196
0.745098 0.494118 0.494118
0.870588 0.498039 0.498039
1.000000 0.494118 0.498039
0.000000 0.619608 0.494118
0.113725 0.619608 0.498039
0.239216 0.619608 0.494118
0.368627 0.623529 0.498039
0.490196 0.619608 0.494118
0.623529 0.619608 0.490196
0.741176 0.619608 0.494118
0.870588 0.619608 0.498039
0.992157 0.619608 0.490196
0.023529 0.745098 0.494118
0.101961 0.749020 0.498039
0.231373 0.745098 0.498039
0.368627 0.749020 0.494118
0.498039 0.745098 0.494118
0.623529 0.745098 0.494118
0.745098 0.745098 0.498039
0.870588 0.745098 0.498039
0.996078 0.745098 0.494118
0.000000 0.874510 0.498039
0.129412 0.870588 0.494118
0.231373 0.870588 0.498039
0.364706 0.870588 0.490196
0.486275 0.870588 0.498039
0.623529 0.870588 0.490196
0.745098 0.870588 0.490196
0.866667 0.870588 0.494118
0.996078 0.870588 0.494118
0.000000 0.996078 0.494118
0.082353 0.996078 0.494118
0.235294 0.996078 0.494118
0.364706 1.000000 0.494118
0.498039 0.996078 0.494118
0.619608 0.992157 0.494118
0.741176 1.000000 0.498039
0.870588 1.000000 0.498039
0.992157 0.996078 0.498039
0.000000 0.000000 0.627451
0.078431 0.003922 0.627451
0.235294 0.003922 0.623529
0.364706 0.000000 0.627451
0.490196 0.000000 0.623529
0.615686 0.000000 0.627451
0.741176 0.000000 0.627451
0.870588 0.000000 0.627451
0.996078 0.000000 0.627451
0.000000 0.117647 0.623529
0.098039 0.117647 0.619608
0.239216 0.117647 0.623529
0.360784 0.121569 0.627451
0.490196 0.117647 0.627451
0.615686 0.117647 0.623529
0.745098 0.113725 0.627451
0.866667 0.121569 0.627451
0.992157 0.117647 0.623529
0.000000 0.243137 0.627451
0.098039 0.243137 0.623529
0.231373 0.247059 0.623529
0.360784 0.243137 0.623529
0.490196 0.243137 0.623529
0.611765 0.247059 0.631373
0.745098 0.243137 0.627451
0.866667 0.243137 0.627451
0.992157 0.243137 0.627451
0.000000 0.372549 0.627451
0.113725 0.368627 0.623529
0.239216 0.368627 0.623529
0.364706 0.364706 0.623529
0.490196 0.368627 0.627451
0.611765 0.368627 0.623529
0.737255 0.368627 0.623529
0.866667 0.372549 0.627451
0.996078 0.372549 0.623529
0.000000 0.494118 0.623529
0.062745 0.494118 0.627451
0.231373 0.498039 0.627451
0.360784 0.498039 0.631373
0.490196 0.494118 0.623529
0.619608 0.494118 0.623529
0.741176 0.498039 0.627451
0.874510 0.494118 0.623529
0.996078 0.490196 0.619608
0.000000 0.619608 0.627451
0.101961 0.619608 0.623529
0.231373 0.623529 0.623529
0.352941 0.623529 0.631373
0.486275 0.619608 0.627451
0.619608 0.619608 0.619608
0.745098 0.619608 0.619608
0.874510 0.619608 0.619608
1.000000 0.619608 0.623529
0.000000 0.745098 0.619608
0.117647 0.745098 0.619608
0.231373 0.749020 0.619608
0.372549 0.745098 0.615686
0.501961 0.745098 0.619608
0.623529 0.749020 0.619608
0.745098 0.741176 0.619608
0.870588 0.745098 0.619608
0.996078 0.745098 0.619608
0.007843 0.870588 0.619608
0.109804 0.874510 0.623529
0.235294 0.874510 0.619608
0.368627 0.870588 0.619608
0.501961 0.870588 0.619608
0.615686 0.870588 0.619608
0.741176 0.870588 0.619608
0.866667 0.870588 0.623529
0.992157 0.870588 0.623529
0.027451 0.996078 0.619608
0.117647 0.996078 0.619608
0.254902 0.996078 0.619608
0.380392 0.996078 0.619608
0.486275 0.996078 0.619608
0.619608 1.000000 0.623529
0.745098 1.000000 0.619608
0.878431 0.996078 0.615686
0.992157 0.996078 0.615686
0.000000 0.000000 0.752941
0.086275 0.000000 0.752941
0.231373 0.000000 0.752941
0.356863 0.000000 0.749020
0.486275 0.000000 0.749020
0.615686 0.003922 0.752941
0.741176 0.000000 0.752941
0.866667 0.011765 0.749020
0.992157 0.007843 0.752941
0.000000 0.121569 0.752941
0.090196 0.121569 0.752941
0.227451 0.121569 0.752941
0.360784 0.117647 0.749020
0.486275 0.121569 0.752941
0.611765 0.125490 0.756863
0.737255 0.117647 0.752941
0.866667 0.125490 0.756863
0.992157 0.121569 0.749020
0.000000 0.243137 0.752941
0.070588 0.247059 0.756863
0.227451 0.247059 0.752941
0.352941 0.247059 0.752941
0.486275 0.239216 0.752941
0.615686 0.239216 0.752941
0.745098 0.247059 0.756863
0.870588 0.247059 0.752941
0.992157 0.239216 0.752941
0.000000 0.368627 0.752941
0.070588 0.368627 0.752941
0.227451 0.368627 0.752941
0.352941 0.368627 0.752941
0.486275 0.368627 0.749020
0.615686 0.368627 0.749020
0.745098 0.372549 0.756863
0.870588 0.368627 0.749020
0.992157 0.368627 0.752941
0.000000 0.494118 0.752941
0.074510 0.494118 0.752941
0.215686 0.494118 0.752941
0.364706 0.494118 0.752941
0.490196 0.498039 0.749020
0.615686 0.494118 0.752941
0.741176 0.494118 0.749020
0.870588 0.494118 0.749020
0.996078 0.494118 0.756863
0.000000 0.619608 0.749020
0.058824 0.623529 0.752941
0.219608 0.619608 0.752941
0.352941 0.619608 0.752941
0.490196 0.619608 0.752941
0.623529 0.619608 0.749020
0.741176 0.623529 0.752941
0.870588 0.619608 0.752941
1.000000 0.619608 0.745098
0.000000 0.745098 0.749020
0.101961 0.745098 0.752941
0.231373 0.745098 0.752941
0.356863 0.745098 0.752941
0.490196 0.745098 0.756863
0.611765 0.749020 0.756863
0.745098 0.745098 0.745098
0.866667 0.745098 0.745098
0.996078 0.745098 0.745098
0.031373 0.870588 0.745098
0.113725 0.870588 0.745098
0.243137 0.866667 0.741176
0.364706 0.870588 0.745098
0.490196 0.870588 0.741176
0.615686 0.870588 0.745098
0.741176 0.870588 0.745098
0.874510 0.870588 0.745098
0.992157 0.870588 0.741176
0.000000 0.996078 0.741176
0.094118 0.996078 0.745098
0.235294 0.996078 0.749020
0.368627 0.996078 0.749020
0.494118 0.996078 0.745098
0.615686 0.996078 0.745098
0.745098 0.996078 0.749020
0.870588 0.996078 0.749020
0.996078 0.996078 0.745098
0.000000 0.011765 0.874510
0.090196 0.000000 0.878431
0.223529 0.000000 0.874510
0.352941 0.000000 0.878431
0.482353 0.011765 0.878431
0.615686 0.000000 0.878431
0.741176 0.000000 0.874510
0.866667 0.000000 0.878431
0.996078 0.000000 0.882353
0.000000 0.117647 0.874510
0.058824 0.125490 0.878431
0.227451 0.117647 0.874510
0.356863 0.117647 0.874510
0.482353 0.121569 0.878431
0.615686 0.125490 0.874510
0.737255 0.117647 0.874510
0.870588 0.109804 0.874510
0.992157 0.121569 0.874510
0.000000 0.243137 0.874510
0.090196 0.243137 0.878431
0.219608 0.243137 0.878431
0.356863 0.243137 0.878431
0.494118 0.243137 0.878431
0.611765 0.247059 0.882353
0.745098 0.239216 0.874510
0.870588 0.247059 0.878431
0.996078 0.243137 0.882353
0.000000 0.368627 0.874510
0.058824 0.368627 0.878431
0.227451 0.368627 0.878431
0.360784 0.368627 0.882353
0.490196 0.368627 0.874510
0.611765 0.372549 0.878431
0.745098 0.372549 0.878431
0.870588 0.372549 0.878431
0.992157 0.368627 0.878431
0.000000 0.498039 0.878431
0.074510 0.498039 0.878431
0.235294 0.494118 0.878431
0.360784 0.494118 0.870588
0.490196 0.498039 0.878431
0.611765 0.498039 0.882353
0.745098 0.494118 0.874510
0.870588 0.494118 0.874510
0.988235 0.494118 0.878431
0.000000 0.623529 0.878431
0.074510 0.619608 0.878431
0.223529 0.619608 0.882353
0.352941 0.619608 0.882353
0.490196 0.619608 0.878431
0.615686 0.623529 0.878431
0.741176 0.619608 0.874510
0.866667 0.619608 0.874510
0.992157 0.619608 0.874510
0.000000 0.745098 0.878431
0.082353 0.745098 0.878431
0.235294 0.745098 0.878431
0.356863 0.745098 0.882353
0.494118 0.749020 0.878431
0.623529 0.745098 0.874510
0.737255 0.749020 0.878431
0.866667 0.745098 0.878431
0.996078 0.745098 0.878431
0.000000 0.870588 0.878431
0.078431 0.870588 0.882353
0.211765 0.874510 0.882353
0.352941 0.874510 0.882353
0.490196 0.870588 0.878431
0.611765 0.870588 0.882353
0.745098 0.870588 0.882353
0.870588 0.870588 0.870588
0.996078 0.870588 0.870588
0.000000 0.996078 0.870588
0.090196 1.000000 0.874510
0.258824 0.996078 0.870588
0.372549 0.996078 0.870588
0.494118 1.000000 0.874510
0.623529 0.996078 0.874510
0.749020 0.996078 0.870588
0.874510 0.996078 0.870588
0.996078 0.996078 0.870588
0.000000 0.003922 1.000000
0.066667 0.000000 1.000000
0.219608 0.000000 1.000000
0.349020 0.007843 1.000000
0.478431 0.000000 1.000000
0.615686 0.000000 1.000000
0.745098 0.000000 1.000000
0.866667 0.000000 1.000000
0.992157 0.003922 1.000000
0.000000 0.117647 1.000000
0.062745 0.121569 1.000000
0.211765 0.121569 1.000000
0.349020 0.117647 1.000000
0.482353 0.125490 1.000000
0.619608 0.121569 1.000000
0.741176 0.113725 1.000000
0.870588 0.109804 1.000000
0.996078 0.105882 1.000000
0.000000 0.247059 1.000000
0.066667 0.243137 0.996078
0.227451 0.243137 0.996078
0.356863 0.243137 1.000000
0.486275 0.239216 1.000000
0.611765 0.247059 1.000000
0.745098 0.243137 1.000000
0.862745 0.247059 1.000000
0.992157 0.247059 1.000000
0.000000 0.368627 1.000000
0.094118 0.368627 1.000000
0.231373 0.368627 0.996078
0.356863 0.368627 1.000000
0.482353 0.368627 1.000000
0.615686 0.368627 1.000000
0.741176 0.364706 1.000000
0.866667 0.368627 1.000000
0.992157 0.368627 1.000000
0.000000 0.498039 1.000000
0.086275 0.494118 1.000000
0.207843 0.498039 1.000000
0.352941 0.494118 1.000000
0.478431 0.494118 1.000000
0.615686 0.494118 1.000000
0.741176 0.494118 1.000000
0.866667 0.494118 1.000000
0.992157 0.498039 1.000000
0.000000 0.623529 1.000000
0.000000 0.619608 1.000000
0.215686 0.619608 1.000000
0.349020 0.623529 1.000000
0.490196 0.619608 1.000000
0.607843 0.619608 1.000000
0.741176 0.619608 1.000000
0.858824 0.619608 1.000000
0.992157 0.619608 1.000000
0.000000 0.745098 1.000000
0.039216 0.749020 1.000000
0.227451 0.745098 1.000000
0.345098 0.745098 1.000000
0.490196 0.749020 1.000000
0.619608 0.745098 1.000000
0.741176 0.749020 1.000000
0.866667 0.745098 1.000000
0.992157 0.749020 1.000000
0.000000 0.870588 1.000000
0.000000 0.870588 1.000000
0.231373 0.870588 1.000000
0.356863 0.870588 1.000000
0.486275 0.870588 1.000000
0.619608 0.870588 1.000000
0.733333 0.870588 1.000000
0.866667 0.870588 1.000000
0.988235 0.870588 1.000000
0.000000 1.000000 1.000000
0.070588 0.996078 1.000000
0.227451 0.996078 1.000000
0.356863 0.996078 1.000000
0.494118 0.996078 1.000000
0.615686 0.996078 1.000000
0.741176 0.996078 1.000000
0.878431 0.996078 0.996078
0.996078 0.996078 0.996078
