test_output_lut/Daily sketch, Sin jong hun_ct.cube
TITLE "Color Transfer LUT - Daily sketch, Sin jong hun"
LUT_3D_SIZE 5
0.000000 0.000000 0.000000
0.243137 0.000000 0.003922
0.498039 0.000000 0.000000
0.741176 0.000000 0.000000
0.996078 0.000000 0.000000
0.007843 0.239216 0.000000
0.243137 0.243137 0.000000
0.494118 0.243137 0.000000
0.741176 0.243137 0.000000
0.996078 0.239216 0.000000
0.007843 0.494118 0.000000
0.250980 0.494118 0.003922
0.490196 0.494118 0.000000
0.749020 0.494118 0.000000
0.996078 0.498039 0.000000
0.003922 0.745098 0.000000
0.247059 0.745098 0.000000
0.498039 0.741176 0.000000
0.745098 0.741176 0.000000
0.996078 0.749020 0.000000
0.000000 0.996078 0.000000
0.227451 0.996078 0.000000
0.494118 0.996078 0.000000
0.745098 0.996078 0.003922
0.992157 0.996078 0.000000
0.000000 0.000000 0.247059
0.243137 0.000000 0.247059
0.494118 0.000000 0.243137
0.745098 0.000000 0.243137
0.996078 0.000000 0.247059
0.000000 0.247059 0.250980
0.243137 0.243137 0.243137
0.490196 0.247059 0.243137
0.741176 0.243137 0.239216
0.996078 0.239216 0.243137
0.000000 0.494118 0.247059
0.250980 0.494118 0.239216
0.490196 0.494118 0.239216
0.749020 0.494118 0.243137
0.992157 0.494118 0.239216
0.000000 0.745098 0.239216
0.250980 0.745098 0.239216
0.494118 0.745098 0.239216
0.741176 0.745098 0.239216
0.996078 0.745098 0.247059
0.000000 0.996078 0.243137
0.227451 1.000000 0.243137
0.498039 0.996078 0.243137
0.745098 0.996078 0.239216
0.996078 0.996078 0.247059
0.000000 0.003922 0.498039
0.239216 0.000000 0.501961
0.494118 0.000000 0.498039
0.745098 0.000000 0.505882
0.992157 0.003922 0.490196
0.000000 0.247059 0.501961
0.243137 0.243137 0.498039
0.490196 0.247059 0.498039
0.741176 0.239216 0.498039
0.996078 0.247059 0.490196
0.000000 0.494118 0.498039
0.243137 0.494118 0.501961
0.494118 0.494118 0.494118
0.745098 0.494118 0.494118
1.000000 0.494118 0.498039
0.023529 0.745098 0.494118
0.231373 0.745098 0.498039
0.498039 0.745098 0.494118
0.745098 0.745098 0.498039
0.996078 0.745098 0.494118
0.000000 0.996078 0.494118
0.235294 0.996078 0.494118
0.498039 0.996078 0.494118
0.741176 1.000000 0.498039
0.992157 0.996078 0.498039
0.000000 0.000000 0.752941
0.231373 0.000000 0.752941
0.486275 0.000000 0.749020
0.741176 0.000000 0.752941
0.992157 0.007843 0.752941
0.000000 0.243137 0.752941
0.227451 0.247059 0.752941
0.486275 0.239216 0.752941
0.745098 0.247059 0.756863
0.992157 0.239216 0.752941
0.000000 0.494118 0.752941
0.215686 0.494118 0.752941
0.490196 0.498039 0.749020
0.741176 0.494118 0.749020
0.996078 0.494118 0.756863
0.000000 0.745098 0.749020
0.231373 0.745098 0.752941
0.490196 0.745098 0.756863
0.745098 0.745098 0.745098
0.996078 0.745098 0.745098
0.000000 0.996078 0.741176
0.235294 0.996078 0.749020
0.494118 0.996078 0.745098
0.745098 0.996078 0.749020
0.996078 0.996078 0.745098
0.000000 0.003922 1.000000
0.219608 0.000000 1.000000
0.478431 0.000000 1.000000
0.745098 0.000000 1.000000
0.992157 0.003922 1.000000
0.000000 0.247059 1.000000
0.227451 0.243137 0.996078
0.486275 0.239216 1.000000
0.745098 0.243137 1.000000
0.992157 0.247059 1.000000
0.000000 0.498039 1.000000
0.207843 0.498039 1.000000
0.478431 0.494118 1.000000
0.741176 0.494118 1.000000
0.992157 0.498039 1.000000
0.000000 0.745098 1.000000
0.227451 0.745098 1.000000
0.490196 0.749020 1.000000
0.741176 0.749020 1.000000
0.992157 0.749020 1.000000
0.000000 1.000000 1.000000
0.227451 0.996078 1.000000
0.494118 0.996078 1.000000
0.741176 0.996078 1.000000
0.996078 0.996078 0.996078
