test_output_lut/twitter_Dini(@_ddini)_20230603-094812_1664931984441843713_photo (1)_ct.cube
TITLE "Color Transfer LUT - twitter_Dini(@_ddini)_20230603-094812_1664931984441843713_photo (1)"
LUT_3D_SIZE 5
0.000000 0.000000 0.007843
0.243137 0.003922 0.019608
0.498039 0.015686 0.007843
0.737255 0.058824 0.007843
0.992157 0.078431 0.011765
0.007843 0.243137 0.007843
0.243137 0.247059 0.007843
0.490196 0.250980 0.011765
0.741176 0.254902 0.015686
0.992157 0.258824 0.007843
0.011765 0.498039 0.007843
0.250980 0.498039 0.027451
0.494118 0.498039 0.023529
0.745098 0.501961 0.031373
0.996078 0.505882 0.023529
0.082353 0.749020 0.031373
0.266667 0.749020 0.031373
0.501961 0.745098 0.023529
0.749020 0.745098 0.035294
0.992157 0.752941 0.039216
0.098039 1.000000 0.062745
0.258824 1.000000 0.039216
0.509804 0.996078 0.039216
0.749020 1.000000 0.070588
0.996078 1.000000 0.027451
0.000000 0.000000 0.247059
0.243137 0.007843 0.247059
0.494118 0.007843 0.250980
0.741176 0.058824 0.254902
0.988235 0.082353 0.254902
0.000000 0.250980 0.250980
0.243137 0.247059 0.250980
0.490196 0.250980 0.250980
0.741176 0.250980 0.250980
0.992157 0.262745 0.254902
0.000000 0.498039 0.254902
0.250980 0.498039 0.250980
0.494118 0.498039 0.250980
0.745098 0.501961 0.254902
0.988235 0.501961 0.250980
0.062745 0.749020 0.250980
0.266667 0.749020 0.250980
0.498039 0.749020 0.254902
0.745098 0.749020 0.254902
0.992157 0.749020 0.262745
0.066667 1.000000 0.262745
0.258824 1.000000 0.258824
0.509804 1.000000 0.262745
0.749020 1.000000 0.258824
1.000000 1.000000 0.262745
0.000000 0.007843 0.498039
0.243137 0.007843 0.498039
0.490196 0.023529 0.494118
0.741176 0.062745 0.501961
0.988235 0.090196 0.501961
0.000000 0.250980 0.498039
0.243137 0.250980 0.494118
0.494118 0.254902 0.498039
0.741176 0.250980 0.501961
0.988235 0.266667 0.501961
0.000000 0.498039 0.501961
0.250980 0.498039 0.505882
0.498039 0.498039 0.505882
0.741176 0.501961 0.505882
1.000000 0.501961 0.505882
0.003922 0.749020 0.505882
0.231373 0.749020 0.509804
0.498039 0.749020 0.505882
0.745098 0.749020 0.509804
0.996078 0.752941 0.505882
0.074510 1.000000 0.509804
0.258824 1.000000 0.505882
0.509804 1.000000 0.505882
0.745098 1.000000 0.509804
0.992157 1.000000 0.509804
0.000000 0.023529 0.749020
0.227451 0.035294 0.749020
0.482353 0.047059 0.749020
0.737255 0.066667 0.749020
0.988235 0.094118 0.752941
0.000000 0.250980 0.749020
0.231373 0.254902 0.749020
0.490196 0.250980 0.749020
0.741176 0.262745 0.752941
0.988235 0.262745 0.752941
0.003922 0.498039 0.752941
0.235294 0.498039 0.752941
0.494118 0.501961 0.749020
0.741176 0.501961 0.745098
0.996078 0.501961 0.760784
0.000000 0.749020 0.752941
0.235294 0.749020 0.756863
0.494118 0.749020 0.760784
0.745098 0.749020 0.756863
0.992157 0.752941 0.756863
0.043137 0.996078 0.752941
0.258824 1.000000 0.760784
0.494118 1.000000 0.756863
0.745098 1.000000 0.760784
1.000000 1.000000 0.756863
0.000000 0.047059 1.000000
0.211765 0.050980 1.000000
0.474510 0.062745 1.000000
0.741176 0.050980 0.996078
0.988235 0.094118 1.000000
0.000000 0.258824 0.996078
0.215686 0.254902 0.996078
0.478431 0.254902 1.000000
0.741176 0.262745 1.000000
0.988235 0.270588 1.000000
0.000000 0.501961 1.000000
0.215686 0.501961 1.000000
0.482353 0.501961 1.000000
0.745098 0.501961 1.000000
0.988235 0.509804 1.000000
0.000000 0.749020 1.000000
0.258824 0.749020 0.996078
0.501961 0.752941 1.000000
0.741176 0.756863 1.000000
0.992157 0.756863 1.000000
0.047059 1.000000 1.000000
0.254902 1.000000 1.000000
0.498039 1.000000 1.000000
0.745098 1.000000 1.000000
0.996078 1.000000 1.000000
