test_output_lut/twitter_Dini(@_ddini)_20230603-094812_1664931984441843713_photo (1)_ct.cube
TITLE "Color Transfer LUT - twitter_Dini(@_ddini)_20230603-094812_1664931984441843713_photo (1)"
LUT_3D_SIZE 9
0.000000 0.000000 0.007843
0.113725 0.007843 0.003922
0.243137 0.003922 0.019608
0.364706 0.019608 0.007843
0.498039 0.015686 0.007843
0.615686 0.023529 0.011765
0.737255 0.058824 0.007843
0.866667 0.074510 0.007843
0.992157 0.078431 0.011765
0.007843 0.121569 0.007843
0.117647 0.121569 0.011765
0.243137 0.125490 0.011765
0.368627 0.125490 0.007843
0.494118 0.129412 0.011765
0.615686 0.133333 0.007843
0.737255 0.141176 0.003922
0.866667 0.145098 0.011765
0.992157 0.156863 0.007843
0.007843 0.243137 0.007843
0.121569 0.247059 0.007843
0.243137 0.247059 0.007843
0.368627 0.250980 0.007843
0.490196 0.250980 0.011765
0.619608 0.254902 0.015686
0.741176 0.254902 0.015686
0.866667 0.258824 0.019608
0.992157 0.258824 0.007843
0.000000 0.372549 0.007843
0.113725 0.372549 0.011765
0.239216 0.372549 0.007843
0.372549 0.372549 0.007843
0.490196 0.376471 0.007843
0.615686 0.376471 0.003922
0.745098 0.376471 0.007843
0.870588 0.376471 0.023529
0.988235 0.384314 0.007843
0.011765 0.498039 0.007843
0.113725 0.498039 0.019608
0.250980 0.498039 0.027451
0.372549 0.498039 0.027451
0.494118 0.498039 0.023529
0.615686 0.498039 0.019608
0.745098 0.501961 0.031373
0.866667 0.501961 0.019608
0.996078 0.505882 0.023529
0.027451 0.623529 0.007843
0.141176 0.623529 0.023529
0.243137 0.627451 0.019608
0.368627 0.623529 0.031373
0.498039 0.623529 0.015686
0.623529 0.623529 0.039216
0.749020 0.627451 0.027451
0.866667 0.627451 0.019608
0.996078 0.627451 0.035294
0.082353 0.749020 0.031373
0.156863 0.749020 0.043137
0.266667 0.749020 0.031373
0.376471 0.749020 0.039216
0.501961 0.745098 0.023529
0.619608 0.749020 0.039216
0.749020 0.745098 0.035294
0.878431 0.749020 0.054902
0.992157 0.752941 0.039216
0.058824 0.870588 0.047059
0.160784 0.874510 0.058824
0.270588 0.874510 0.043137
0.380392 0.874510 0.039216
0.501961 0.874510 0.058824
0.623529 0.874510 0.050980
0.745098 0.874510 0.023529
0.878431 0.874510 0.062745
1.000000 0.874510 0.027451
0.098039 1.000000 0.062745
0.149020 1.000000 0.062745
0.258824 1.000000 0.039216
0.388235 1.000000 0.039216
0.509804 0.996078 0.039216
0.635294 1.000000 0.074510
0.749020 1.000000 0.070588
0.870588 1.000000 0.039216
0.996078 1.000000 0.027451
0.000000 0.003922 0.117647
0.109804 0.007843 0.125490
0.243137 0.011765 0.125490
0.360784 0.023529 0.129412
0.494118 0.007843 0.125490
0.619608 0.019608 0.125490
0.741176 0.054902 0.129412
0.866667 0.054902 0.125490
0.988235 0.082353 0.125490
0.000000 0.121569 0.133333
0.117647 0.121569 0.125490
0.243137 0.129412 0.129412
0.368627 0.125490 0.125490
0.494118 0.125490 0.125490
0.619608 0.129412 0.125490
0.741176 0.149020 0.125490
0.862745 0.145098 0.125490
0.988235 0.160784 0.133333
0.000000 0.247059 0.125490
0.117647 0.247059 0.129412
0.243137 0.247059 0.125490
0.364706 0.250980 0.129412
0.490196 0.247059 0.129412
0.615686 0.250980 0.125490
0.741176 0.250980 0.125490
0.862745 0.262745 0.129412
0.988235 0.262745 0.129412
0.000000 0.372549 0.129412
0.109804 0.376471 0.129412
0.247059 0.368627 0.129412
0.372549 0.372549 0.133333
0.490196 0.376471 0.125490
0.619608 0.376471 0.133333
0.745098 0.372549 0.129412
0.870588 0.376471 0.133333
0.988235 0.384314 0.125490
0.000000 0.498039 0.133333
0.125490 0.501961 0.133333
0.247059 0.498039 0.133333
0.368627 0.498039 0.133333
0.498039 0.498039 0.129412
0.619608 0.501961 0.133333
0.741176 0.501961 0.137255
0.866667 0.501961 0.137255
0.996078 0.501961 0.133333
0.054902 0.619608 0.133333
0.137255 0.623529 0.129412
0.235294 0.623529 0.141176
0.368627 0.623529 0.133333
0.498039 0.623529 0.129412
0.627451 0.623529 0.129412
0.752941 0.623529 0.141176
0.866667 0.623529 0.141176
0.992157 0.627451 0.137255
0.078431 0.745098 0.137255
0.156863 0.749020 0.141176
0.250980 0.749020 0.133333
0.364706 0.749020 0.141176
0.498039 0.752941 0.141176
0.627451 0.749020 0.133333
0.749020 0.752941 0.149020
0.874510 0.749020 0.141176
0.996078 0.752941 0.137255
0.086275 0.874510 0.145098
0.168627 0.874510 0.149020
0.254902 0.874510 0.137255
0.384314 0.874510 0.141176
0.494118 0.874510 0.149020
0.619608 0.874510 0.145098
0.749020 0.874510 0.137255
0.874510 0.874510 0.137255
0.996078 0.874510 0.141176
0.050980 1.000000 0.141176
0.164706 0.996078 0.141176
0.266667 1.000000 0.133333
0.392157 1.000000 0.152941
0.513726 0.996078 0.133333
0.631373 1.000000 0.149020
0.752941 1.000000 0.149020
0.874510 1.000000 0.137255
1.000000 1.000000 0.156863
0.000000 0.000000 0.247059
0.113725 0.007843 0.247059
0.243137 0.007843 0.247059
0.364706 0.011765 0.254902
0.494118 0.007843 0.250980
0.611765 0.047059 0.250980
0.741176 0.058824 0.254902
0.866667 0.058824 0.250980
0.988235 0.082353 0.254902
0.000000 0.121569 0.247059
0.117647 0.121569 0.250980
0.243137 0.129412 0.250980
0.364706 0.125490 0.250980
0.494118 0.129412 0.250980
0.615686 0.133333 0.247059
0.741176 0.141176 0.254902
0.862745 0.149020 0.254902
0.988235 0.152941 0.254902
0.000000 0.250980 0.250980
0.109804 0.247059 0.254902
0.243137 0.247059 0.250980
0.364706 0.250980 0.250980
0.490196 0.250980 0.250980
0.619608 0.250980 0.250980
0.741176 0.250980 0.250980
0.862745 0.262745 0.254902
0.992157 0.262745 0.254902
0.000000 0.372549 0.250980
0.113725 0.372549 0.250980
0.247059 0.372549 0.250980
0.376471 0.372549 0.254902
0.490196 0.372549 0.254902
0.615686 0.372549 0.250980
0.741176 0.376471 0.250980
0.870588 0.380392 0.250980
0.988235 0.384314 0.250980
0.000000 0.498039 0.254902
0.113725 0.498039 0.254902
0.250980 0.498039 0.250980
0.372549 0.498039 0.254902
0.494118 0.498039 0.250980
0.619608 0.498039 0.250980
0.745098 0.501961 0.254902
0.870588 0.501961 0.250980
0.988235 0.501961 0.250980
0.000000 0.623529 0.250980
0.105882 0.627451 0.254902
0.239216 0.627451 0.258824
0.372549 0.623529 0.254902
0.501961 0.623529 0.250980
0.623529 0.627451 0.254902
0.741176 0.627451 0.250980
0.870588 0.627451 0.258824
0.988235 0.627451 0.258824
0.062745 0.749020 0.250980
0.145098 0.745098 0.250980
0.266667 0.749020 0.250980
0.360784 0.749020 0.254902
0.498039 0.749020 0.254902
0.619608 0.749020 0.262745
0.745098 0.749020 0.254902
0.870588 0.749020 0.258824
0.992157 0.749020 0.262745
0.078431 0.874510 0.262745
0.172549 0.870588 0.250980
0.254902 0.870588 0.258824
0.388235 0.874510 0.262745
0.501961 0.878431 0.258824
0.627451 0.878431 0.258824
0.749020 0.878431 0.262745
0.874510 0.878431 0.266667
0.996078 0.874510 0.254902
0.066667 1.000000 0.262745
0.145098 1.000000 0.266667
0.258824 1.000000 0.258824
0.384314 1.000000 0.254902
0.509804 1.000000 0.262745
0.627451 1.000000 0.254902
0.749020 1.000000 0.258824
0.874510 1.000000 0.262745
1.000000 1.000000 0.262745
0.000000 0.007843 0.368627
0.113725 0.011765 0.372549
0.243137 0.007843 0.372549
0.368627 0.011765 0.376471
0.494118 0.023529 0.376471
0.611765 0.050980 0.380392
0.741176 0.062745 0.376471
0.866667 0.078431 0.380392
0.988235 0.090196 0.376471
0.000000 0.125490 0.372549
0.113725 0.125490 0.372549
0.247059 0.125490 0.372549
0.364706 0.125490 0.368627
0.494118 0.129412 0.372549
0.619608 0.129412 0.380392
0.741176 0.141176 0.380392
0.866667 0.149020 0.376471
0.988235 0.164706 0.380392
0.000000 0.247059 0.372549
0.109804 0.250980 0.376471
0.235294 0.250980 0.372549
0.368627 0.250980 0.368627
0.490196 0.250980 0.376471
0.615686 0.250980 0.376471
0.741176 0.254902 0.380392
0.862745 0.258824 0.376471
0.988235 0.266667 0.376471
0.000000 0.372549 0.380392
0.105882 0.372549 0.376471
0.239216 0.372549 0.380392
0.368627 0.372549 0.380392
0.490196 0.376471 0.380392
0.615686 0.376471 0.380392
0.745098 0.372549 0.376471
0.870588 0.376471 0.380392
0.992157 0.384314 0.380392
0.000000 0.498039 0.380392
0.121569 0.498039 0.376471
0.235294 0.498039 0.380392
0.372549 0.498039 0.380392
0.494118 0.501961 0.376471
0.619608 0.501961 0.380392
0.745098 0.501961 0.376471
0.866667 0.501961 0.384314
0.992157 0.501961 0.376471
0.000000 0.623529 0.376471
0.121569 0.623529 0.380392
0.239216 0.627451 0.384314
0.368627 0.623529 0.380392
0.494118 0.627451 0.380392
0.619608 0.627451 0.384314
0.745098 0.623529 0.376471
0.870588 0.627451 0.384314
0.992157 0.627451 0.376471
0.027451 0.749020 0.384314
0.133333 0.749020 0.384314
0.247059 0.749020 0.384314
0.368627 0.749020 0.376471
0.494118 0.749020 0.380392
0.623529 0.749020 0.376471
0.749020 0.749020 0.380392
0.874510 0.749020 0.380392
0.992157 0.752941 0.384314
0.039216 0.874510 0.388235
0.160784 0.874510 0.380392
0.247059 0.874510 0.384314
0.384314 0.874510 0.384314
0.490196 0.874510 0.380392
0.619608 0.874510 0.384314
0.745098 0.874510 0.380392
0.874510 0.874510 0.384314
1.000000 0.874510 0.380392
0.094118 1.000000 0.380392
0.149020 1.000000 0.380392
0.262745 1.000000 0.376471
0.388235 1.000000 0.388235
0.505882 1.000000 0.380392
0.627451 1.000000 0.380392
0.752941 1.000000 0.380392
0.878431 1.000000 0.380392
1.000000 1.000000 0.380392
0.000000 0.007843 0.498039
0.117647 0.007843 0.494118
0.243137 0.007843 0.498039
0.364706 0.019608 0.498039
0.490196 0.023529 0.494118
0.607843 0.054902 0.498039
0.741176 0.062745 0.501961
0.866667 0.062745 0.501961
0.988235 0.090196 0.501961
0.000000 0.125490 0.501961
0.098039 0.125490 0.501961
0.235294 0.129412 0.501961
0.372549 0.125490 0.498039
0.490196 0.129412 0.498039
0.611765 0.141176 0.498039
0.741176 0.141176 0.494118
0.862745 0.152941 0.505882
0.992157 0.152941 0.505882
0.000000 0.250980 0.498039
0.094118 0.250980 0.501961
0.243137 0.250980 0.494118
0.364706 0.250980 0.498039
0.494118 0.254902 0.498039
0.615686 0.254902 0.501961
0.741176 0.250980 0.501961
0.866667 0.262745 0.505882
0.988235 0.266667 0.501961
0.003922 0.372549 0.498039
0.113725 0.376471 0.501961
0.243137 0.372549 0.501961
0.368627 0.376471 0.498039
0.494118 0.376471 0.501961
0.615686 0.372549 0.505882
0.745098 0.380392 0.505882
0.870588 0.376471 0.501961
0.984314 0.384314 0.505882
0.000000 0.498039 0.501961
0.109804 0.498039 0.505882
0.250980 0.498039 0.505882
0.368627 0.498039 0.505882
0.498039 0.498039 0.505882
0.611765 0.501961 0.501961
0.741176 0.501961 0.505882
0.870588 0.505882 0.509804
1.000000 0.501961 0.505882
0.000000 0.623529 0.505882
0.105882 0.627451 0.509804
0.235294 0.623529 0.505882
0.368627 0.627451 0.509804
0.490196 0.623529 0.505882
0.623529 0.623529 0.501961
0.737255 0.623529 0.505882
0.866667 0.627451 0.505882
0.988235 0.627451 0.501961
0.003922 0.749020 0.505882
0.090196 0.752941 0.509804
0.231373 0.749020 0.509804
0.368627 0.752941 0.505882
0.498039 0.749020 0.505882
0.623529 0.749020 0.505882
0.745098 0.749020 0.509804
0.866667 0.752941 0.509804
0.996078 0.752941 0.505882
0.019608 0.874510 0.513726
0.160784 0.874510 0.505882
0.250980 0.874510 0.509804
0.364706 0.874510 0.501961
0.486275 0.874510 0.509804
0.623529 0.874510 0.501961
0.745098 0.874510 0.501961
0.870588 0.878431 0.505882
1.000000 0.878431 0.505882
0.074510 1.000000 0.509804
0.137255 1.000000 0.509804
0.258824 1.000000 0.505882
0.380392 1.000000 0.505882
0.509804 1.000000 0.505882
0.619608 1.000000 0.505882
0.745098 1.000000 0.509804
0.874510 1.000000 0.509804
0.992157 1.000000 0.509804
0.000000 0.007843 0.627451
0.094118 0.015686 0.627451
0.243137 0.019608 0.619608
0.360784 0.039216 0.623529
0.486275 0.039216 0.619608
0.611765 0.050980 0.623529
0.737255 0.050980 0.623529
0.866667 0.062745 0.623529
0.992157 0.090196 0.627451
0.000000 0.125490 0.623529
0.109804 0.125490 0.619608
0.243137 0.129412 0.623529
0.364706 0.133333 0.627451
0.490196 0.137255 0.627451
0.611765 0.141176 0.623529
0.741176 0.141176 0.627451
0.862745 0.156863 0.623529
0.988235 0.160784 0.627451
0.000000 0.250980 0.623529
0.105882 0.250980 0.619608
0.235294 0.250980 0.623529
0.364706 0.250980 0.619608
0.490196 0.250980 0.623529
0.615686 0.254902 0.627451
0.741176 0.258824 0.623529
0.862745 0.262745 0.623529
0.984314 0.266667 0.631373
0.000000 0.376471 0.623529
0.113725 0.372549 0.619608
0.239216 0.372549 0.619608
0.364706 0.372549 0.623529
0.490196 0.376471 0.623529
0.615686 0.376471 0.623529
0.741176 0.376471 0.623529
0.862745 0.380392 0.631373
0.988235 0.388235 0.631373
0.000000 0.498039 0.619608
0.101961 0.498039 0.623529
0.247059 0.501961 0.623529
0.372549 0.501961 0.627451
0.490196 0.498039 0.623529
0.615686 0.501961 0.627451
0.737255 0.505882 0.631373
0.870588 0.505882 0.635294
0.992157 0.501961 0.627451
0.000000 0.623529 0.631373
0.113725 0.623529 0.627451
0.235294 0.627451 0.631373
0.356863 0.627451 0.635294
0.490196 0.623529 0.631373
0.619608 0.623529 0.631373
0.737255 0.623529 0.631373
0.870588 0.627451 0.627451
0.996078 0.627451 0.631373
0.000000 0.749020 0.631373
0.101961 0.749020 0.631373
0.227451 0.752941 0.631373
0.368627 0.749020 0.627451
0.501961 0.749020 0.631373
0.623529 0.752941 0.631373
0.749020 0.749020 0.631373
0.866667 0.749020 0.631373
0.992157 0.752941 0.631373
0.082353 0.874510 0.631373
0.145098 0.874510 0.635294
0.231373 0.878431 0.631373
0.368627 0.878431 0.631373
0.498039 0.878431 0.631373
0.615686 0.874510 0.631373
0.741176 0.874510 0.631373
0.870588 0.874510 0.635294
0.988235 0.878431 0.635294
0.105882 1.000000 0.631373
0.156863 0.996078 0.631373
0.274510 0.996078 0.631373
0.396078 1.000000 0.631373
0.486275 1.000000 0.631373
0.619608 1.000000 0.635294
0.745098 1.000000 0.631373
0.878431 1.000000 0.631373
0.992157 1.000000 0.627451
0.000000 0.023529 0.749020
0.074510 0.035294 0.749020
0.227451 0.035294 0.749020
0.352941 0.039216 0.749020
0.482353 0.047059 0.749020
0.615686 0.062745 0.749020
0.737255 0.066667 0.749020
0.862745 0.086275 0.749020
0.988235 0.094118 0.752941
0.000000 0.129412 0.749020
0.105882 0.129412 0.749020
0.235294 0.129412 0.752941
0.356863 0.137255 0.749020
0.482353 0.141176 0.749020
0.607843 0.149020 0.752941
0.737255 0.149020 0.749020
0.862745 0.160784 0.752941
0.988235 0.164706 0.745098
0.000000 0.250980 0.749020
0.082353 0.250980 0.752941
0.231373 0.254902 0.749020
0.356863 0.250980 0.749020
0.490196 0.250980 0.749020
0.611765 0.254902 0.749020
0.741176 0.262745 0.752941
0.866667 0.266667 0.749020
0.988235 0.262745 0.752941
0.000000 0.376471 0.752941
0.078431 0.376471 0.749020
0.231373 0.376471 0.749020
0.356863 0.376471 0.749020
0.490196 0.376471 0.749020
0.619608 0.376471 0.745098
0.745098 0.380392 0.752941
0.866667 0.384314 0.745098
0.988235 0.384314 0.749020
0.003922 0.498039 0.752941
0.117647 0.498039 0.749020
0.235294 0.498039 0.752941
0.364706 0.498039 0.749020
0.494118 0.501961 0.749020
0.619608 0.501961 0.749020
0.741176 0.501961 0.745098
0.874510 0.501961 0.745098
0.996078 0.501961 0.760784
0.035294 0.623529 0.749020
0.105882 0.627451 0.752941
0.239216 0.623529 0.749020
0.364706 0.623529 0.749020
0.501961 0.623529 0.749020
0.623529 0.627451 0.749020
0.737255 0.631373 0.756863
0.870588 0.627451 0.756863
0.996078 0.627451 0.756863
0.000000 0.749020 0.752941
0.113725 0.749020 0.756863
0.235294 0.749020 0.756863
0.364706 0.749020 0.756863
0.494118 0.749020 0.760784
0.615686 0.752941 0.760784
0.745098 0.749020 0.756863
0.862745 0.752941 0.756863
0.992157 0.752941 0.756863
0.000000 0.874510 0.756863
0.090196 0.874510 0.756863
0.235294 0.874510 0.752941
0.360784 0.874510 0.756863
0.490196 0.874510 0.752941
0.615686 0.874510 0.756863
0.741176 0.878431 0.756863
0.878431 0.874510 0.756863
0.988235 0.878431 0.752941
0.043137 0.996078 0.752941
0.137255 1.000000 0.756863
0.258824 1.000000 0.760784
0.368627 1.000000 0.760784
0.494118 1.000000 0.756863
0.615686 1.000000 0.756863
0.745098 1.000000 0.760784
0.874510 1.000000 0.760784
1.000000 1.000000 0.756863
0.000000 0.050980 0.874510
0.074510 0.039216 0.874510
0.219608 0.031373 0.874510
0.345098 0.047059 0.874510
0.478431 0.066667 0.878431
0.611765 0.058824 0.878431
0.737255 0.062745 0.874510
0.862745 0.066667 0.874510
0.992157 0.094118 0.878431
0.000000 0.133333 0.874510
0.031373 0.141176 0.874510
0.223529 0.133333 0.874510
0.352941 0.137255 0.870588
0.478431 0.145098 0.874510
0.611765 0.152941 0.874510
0.733333 0.149020 0.870588
0.866667 0.149020 0.874510
0.988235 0.164706 0.874510
0.000000 0.250980 0.874510
0.109804 0.250980 0.874510
0.223529 0.250980 0.874510
0.360784 0.250980 0.874510
0.490196 0.258824 0.874510
0.607843 0.262745 0.878431
0.741176 0.258824 0.874510
0.866667 0.266667 0.874510
0.992157 0.266667 0.878431
0.000000 0.372549 0.874510
0.078431 0.376471 0.878431
0.231373 0.376471 0.878431
0.364706 0.376471 0.878431
0.490196 0.372549 0.870588
0.615686 0.380392 0.878431
0.741176 0.384314 0.874510
0.866667 0.384314 0.874510
0.984314 0.384314 0.874510
0.000000 0.501961 0.878431
0.086275 0.501961 0.874510
0.239216 0.501961 0.878431
0.364706 0.498039 0.870588
0.490196 0.501961 0.874510
0.611765 0.505882 0.878431
0.749020 0.501961 0.874510
0.870588 0.501961 0.870588
0.984314 0.505882 0.874510
0.000000 0.627451 0.878431
0.125490 0.623529 0.878431
0.247059 0.623529 0.878431
0.368627 0.623529 0.878431
0.494118 0.623529 0.874510
0.615686 0.627451 0.874510
0.741176 0.623529 0.874510
0.866667 0.627451 0.874510
0.992157 0.627451 0.870588
0.000000 0.749020 0.874510
0.133333 0.749020 0.874510
0.258824 0.749020 0.874510
0.372549 0.749020 0.878431
0.505882 0.752941 0.874510
0.631373 0.749020 0.870588
0.741176 0.752941 0.878431
0.862745 0.749020 0.882353
0.992157 0.752941 0.882353
0.039216 0.874510 0.874510
0.133333 0.878431 0.882353
0.219608 0.878431 0.886275
0.360784 0.878431 0.886275
0.494118 0.874510 0.882353
0.615686 0.874510 0.886275
0.749020 0.874510 0.886275
0.874510 0.878431 0.882353
0.988235 0.878431 0.882353
0.019608 1.000000 0.882353
0.054902 1.000000 0.886275
0.247059 1.000000 0.886275
0.364706 1.000000 0.882353
0.490196 1.000000 0.886275
0.623529 1.000000 0.886275
0.749020 1.000000 0.882353
0.874510 1.000000 0.882353
0.996078 1.000000 0.882353
0.000000 0.047059 1.000000
0.047059 0.035294 1.000000
0.211765 0.050980 1.000000
0.341176 0.058824 1.000000
0.474510 0.062745 1.000000
0.611765 0.058824 1.000000
0.741176 0.050980 0.996078
0.862745 0.062745 1.000000
0.988235 0.094118 1.000000
0.000000 0.137255 1.000000
0.031373 0.141176 0.996078
0.203922 0.141176 1.000000
0.345098 0.141176 1.000000
0.474510 0.149020 1.000000
0.611765 0.149020 1.000000
0.737255 0.149020 0.996078
0.866667 0.149020 1.000000
0.992157 0.152941 0.996078
0.000000 0.258824 0.996078
0.027451 0.254902 0.996078
0.215686 0.254902 0.996078
0.349020 0.258824 1.000000
0.478431 0.254902 1.000000
0.603922 0.262745 1.000000
0.741176 0.262745 1.000000
0.858824 0.266667 1.000000
0.988235 0.270588 1.000000
0.000000 0.376471 1.000000
0.113725 0.376471 1.000000
0.239216 0.372549 0.996078
0.360784 0.376471 1.000000
0.486275 0.376471 1.000000
0.611765 0.380392 0.996078
0.737255 0.380392 0.996078
0.862745 0.384314 1.000000
0.988235 0.384314 1.000000
0.000000 0.501961 1.000000
0.098039 0.501961 1.000000
0.215686 0.501961 1.000000
0.352941 0.501961 0.996078
0.482353 0.501961 1.000000
0.619608 0.501961 1.000000
0.745098 0.501961 1.000000
0.870588 0.501961 1.000000
0.988235 0.509804 1.000000
0.011765 0.627451 1.000000
0.011765 0.627451 1.000000
0.219608 0.627451 1.000000
0.349020 0.627451 1.000000
0.494118 0.627451 1.000000
0.607843 0.627451 1.000000
0.745098 0.627451 1.000000
0.862745 0.627451 1.000000
0.996078 0.627451 1.000000
0.000000 0.749020 1.000000
0.117647 0.752941 1.000000
0.258824 0.749020 0.996078
0.364706 0.749020 1.000000
0.501961 0.752941 1.000000
0.619608 0.752941 1.000000
0.741176 0.756863 1.000000
0.866667 0.752941 1.000000
0.992157 0.756863 1.000000
0.000000 0.878431 1.000000
0.094118 0.874510 1.000000
0.258824 0.874510 0.996078
0.372549 0.874510 1.000000
0.501961 0.874510 1.000000
0.631373 0.874510 1.000000
0.745098 0.874510 1.000000
0.866667 0.878431 0.996078
0.984314 0.878431 1.000000
0.047059 1.000000 1.000000
0.137255 1.000000 1.000000
0.254902 1.000000 1.000000
0.364706 1.000000 1.000000
0.498039 1.000000 1.000000
0.619608 1.000000 1.000000
0.745098 1.000000 1.000000
0.878431 1.000000 1.000000
0.996078 1.000000 1.000000
