test_output_lut/Your-Name-013_ct.cube
TITLE "Color Transfer LUT - Your-Name-013"
LUT_3D_SIZE 33
0.000000 0.000000 0.007843
0.015686 0.003922 0.007843
0.047059 0.000000 0.003922
0.074510 0.011765 0.007843
0.113725 0.007843 0.003922
0.145098 0.007843 0.007843
0.180392 0.007843 0.015686
0.207843 0.007843 0.007843
0.243137 0.003922 0.019608
0.274510 0.000000 0.007843
0.305882 0.011765 0.011765
0.337255 0.007843 0.011765
0.364706 0.019608 0.007843
0.400000 0.011765 0.007843
0.435294 0.007843 0.007843
0.462745 0.023529 0.011765
0.498039 0.015686 0.007843
0.525490 0.015686 0.007843
0.556863 0.019608 0.011765
0.588235 0.023529 0.007843
0.611765 0.043137 0.011765
0.647059 0.050980 0.003922
0.678431 0.031373 0.011765
0.713726 0.039216 0.011765
0.737255 0.058824 0.007843
0.772549 0.070588 0.007843
0.800000 0.066667 0.011765
0.835294 0.074510 0.007843
0.866667 0.074510 0.007843
0.894118 0.074510 0.011765
0.925490 0.070588 0.007843
0.960784 0.082353 0.023529
0.992157 0.078431 0.011765
0.003922 0.023529 0.007843
0.011765 0.035294 0.019608
0.050980 0.031373 0.011765
0.086275 0.023529 0.011765
0.117647 0.023529 0.007843
0.141176 0.039216 0.011765
0.184314 0.023529 0.003922
0.207843 0.023529 0.007843
0.243137 0.027451 0.015686
0.274510 0.035294 0.011765
0.305882 0.035294 0.003922
0.341176 0.031373 0.011765
0.368627 0.023529 0.015686
0.400000 0.047059 0.007843
0.431373 0.039216 0.007843
0.462745 0.043137 0.007843
0.494118 0.050980 0.011765
0.525490 0.039216 0.003922
0.556863 0.043137 0.007843
0.588235 0.050980 0.007843
0.615686 0.050980 0.007843
0.647059 0.050980 0.003922
0.678431 0.058824 0.003922
0.705882 0.058824 0.007843
0.741176 0.070588 0.007843
0.772549 0.070588 0.007843
0.803922 0.078431 0.003922
0.835294 0.074510 0.007843
0.866667 0.074510 0.007843
0.898039 0.082353 0.003922
0.929412 0.082353 0.011765
0.960784 0.082353 0.007843
0.992157 0.078431 0.011765
0.000000 0.058824 0.007843
0.007843 0.062745 0.007843
0.054902 0.058824 0.007843
0.082353 0.058824 0.000000
0.117647 0.062745 0.019608
0.149020 0.062745 0.007843
0.180392 0.058824 0.007843
0.215686 0.066667 0.011765
0.243137 0.066667 0.007843
0.274510 0.070588 0.007843
0.305882 0.066667 0.007843
0.337255 0.062745 0.011765
0.364706 0.070588 0.007843
0.400000 0.070588 0.007843
0.431373 0.070588 0.007843
0.462745 0.074510 0.011765
0.494118 0.070588 0.015686
0.525490 0.074510 0.007843
0.556863 0.066667 0.007843
0.588235 0.074510 0.011765
0.619608 0.074510 0.007843
0.647059 0.094118 0.007843
0.674510 0.098039 0.003922
0.713726 0.090196 0.007843
0.741176 0.090196 0.007843
0.772549 0.094118 0.007843
0.803922 0.101961 0.019608
0.835294 0.101961 0.011765
0.866667 0.101961 0.007843
0.894118 0.101961 0.003922
0.929412 0.109804 0.015686
0.960784 0.109804 0.007843
0.992157 0.109804 0.019608
0.000000 0.090196 0.007843
0.011765 0.090196 0.015686
0.058824 0.090196 0.011765
0.086275 0.090196 0.003922
0.117647 0.086275 0.007843
0.145098 0.094118 0.011765
0.180392 0.090196 0.007843
0.211765 0.094118 0.003922
0.243137 0.094118 0.015686
0.270588 0.098039 0.007843
0.305882 0.090196 0.011765
0.337255 0.090196 0.007843
0.368627 0.098039 0.011765
0.400000 0.094118 0.015686
0.427451 0.098039 0.007843
0.462745 0.098039 0.011765
0.494118 0.094118 0.011765
0.525490 0.090196 0.011765
0.556863 0.098039 0.015686
0.584314 0.098039 0.003922
0.619608 0.094118 0.003922
0.650980 0.098039 0.011765
0.674510 0.113725 0.007843
0.709804 0.121569 0.007843
0.741176 0.113725 0.011765
0.772549 0.113725 0.007843
0.800000 0.113725 0.015686
0.835294 0.125490 0.015686
0.866667 0.125490 0.007843
0.894118 0.125490 0.003922
0.925490 0.125490 0.011765
0.956863 0.125490 0.007843
0.992157 0.137255 0.023529
0.007843 0.121569 0.007843
0.019608 0.125490 0.007843
0.058824 0.121569 0.011765
0.090196 0.125490 0.007843
0.117647 0.121569 0.011765
0.149020 0.125490 0.007843
0.180392 0.121569 0.011765
0.207843 0.125490 0.003922
0.243137 0.125490 0.011765
0.270588 0.121569 0.000000
0.305882 0.121569 0.011765
0.337255 0.121569 0.015686
0.368627 0.125490 0.007843
0.400000 0.125490 0.007843
0.427451 0.125490 0.007843
0.462745 0.129412 0.011765
0.494118 0.129412 0.011765
0.525490 0.125490 0.011765
0.552941 0.129412 0.007843
0.588235 0.125490 0.007843
0.615686 0.133333 0.007843
0.650980 0.129412 0.007843
0.682353 0.133333 0.011765
0.709804 0.137255 0.007843
0.737255 0.141176 0.003922
0.772549 0.149020 0.011765
0.803922 0.149020 0.007843
0.831373 0.152941 0.015686
0.866667 0.145098 0.011765
0.898039 0.145098 0.007843
0.925490 0.149020 0.000000
0.956863 0.149020 0.007843
0.992157 0.156863 0.007843
0.000000 0.152941 0.003922
0.023529 0.152941 0.007843
0.058824 0.152941 0.015686
0.090196 0.152941 0.011765
0.125490 0.152941 0.015686
0.149020 0.152941 0.007843
0.184314 0.152941 0.007843
0.207843 0.156863 0.015686
0.239216 0.156863 0.007843
0.274510 0.156863 0.007843
0.305882 0.156863 0.003922
0.337255 0.156863 0.007843
0.368627 0.152941 0.011765
0.400000 0.156863 0.003922
0.427451 0.160784 0.011765
0.462745 0.156863 0.011765
0.498039 0.156863 0.011765
0.529412 0.156863 0.007843
0.556863 0.160784 0.007843
0.588235 0.160784 0.015686
0.619608 0.160784 0.011765
0.647059 0.164706 0.007843
0.682353 0.160784 0.007843
0.709804 0.164706 0.011765
0.741176 0.168627 0.007843
0.768627 0.168627 0.003922
0.803922 0.164706 0.011765
0.831373 0.168627 0.007843
0.866667 0.176471 0.019608
0.898039 0.180392 0.011765
0.929412 0.180392 0.007843
0.956863 0.184314 0.015686
0.992157 0.176471 0.007843
0.007843 0.184314 0.007843
0.039216 0.180392 0.003922
0.054902 0.188235 0.011765
0.082353 0.184314 0.011765
0.117647 0.180392 0.007843
0.156863 0.180392 0.007843
0.180392 0.184314 0.000000
0.215686 0.184314 0.015686
0.239216 0.188235 0.007843
0.274510 0.188235 0.015686
0.305882 0.188235 0.007843
0.337255 0.188235 0.007843
0.368627 0.188235 0.003922
0.403922 0.188235 0.011765
0.431373 0.188235 0.007843
0.466667 0.188235 0.015686
0.498039 0.188235 0.011765
0.525490 0.188235 0.007843
0.556863 0.188235 0.007843
0.588235 0.188235 0.011765
0.619608 0.188235 0.007843
0.654902 0.188235 0.007843
0.682353 0.192157 0.011765
0.717647 0.192157 0.023529
0.745098 0.196078 0.003922
0.776471 0.200000 0.007843
0.800000 0.200000 0.000000
0.831373 0.196078 0.007843
0.866667 0.203922 0.007843
0.894118 0.203922 0.011765
0.929412 0.196078 0.007843
0.956863 0.200000 0.019608
0.988235 0.203922 0.007843
0.000000 0.215686 0.007843
0.007843 0.215686 0.011765
0.058824 0.215686 0.007843
0.090196 0.215686 0.007843
0.117647 0.219608 0.007843
0.156863 0.215686 0.007843
0.184314 0.215686 0.011765
0.215686 0.215686 0.011765
0.243137 0.215686 0.003922
0.270588 0.219608 0.007843
0.309804 0.219608 0.003922
0.337255 0.215686 0.007843
0.364706 0.215686 0.007843
0.403922 0.219608 0.007843
0.427451 0.223529 0.003922
0.462745 0.219608 0.007843
0.494118 0.223529 0.003922
0.525490 0.219608 0.007843
0.556863 0.223529 0.015686
0.584314 0.219608 0.007843
0.619608 0.223529 0.003922
0.650980 0.223529 0.011765
0.682353 0.223529 0.007843
0.713726 0.219608 0.011765
0.741176 0.223529 0.007843
0.776471 0.223529 0.003922
0.803922 0.227451 0.007843
0.835294 0.231373 0.007843
0.862745 0.239216 0.011765
0.894118 0.231373 0.019608
0.925490 0.235294 0.011765
0.960784 0.231373 0.007843
0.988235 0.235294 0.019608
0.007843 0.243137 0.007843
0.023529 0.247059 0.007843
0.058824 0.247059 0.007843
0.078431 0.247059 0.003922
0.121569 0.247059 0.007843
0.149020 0.247059 0.015686
0.184314 0.247059 0.007843
0.215686 0.247059 0.000000
0.243137 0.247059 0.007843
0.278431 0.250980 0.007843
0.305882 0.250980 0.015686
0.333333 0.247059 0.015686
0.368627 0.250980 0.007843
0.400000 0.250980 0.011765
0.431373 0.250980 0.007843
0.466667 0.250980 0.007843
0.490196 0.250980 0.011765
0.525490 0.247059 0.007843
0.556863 0.250980 0.011765
0.588235 0.247059 0.007843
0.619608 0.254902 0.015686
0.650980 0.250980 0.007843
0.682353 0.250980 0.015686
0.713726 0.258824 0.011765
0.741176 0.254902 0.015686
0.776471 0.254902 0.011765
0.811765 0.254902 0.023529
0.831373 0.262745 0.007843
0.866667 0.258824 0.019608
0.894118 0.266667 0.011765
0.929412 0.262745 0.007843
0.956863 0.262745 0.011765
0.992157 0.258824 0.007843
0.003922 0.282353 0.007843
0.023529 0.278431 0.007843
0.062745 0.278431 0.007843
0.082353 0.278431 0.007843
0.117647 0.278431 0.007843
0.149020 0.278431 0.015686
0.184314 0.278431 0.007843
0.215686 0.282353 0.007843
0.243137 0.278431 0.007843
0.274510 0.278431 0.007843
0.309804 0.278431 0.015686
0.341176 0.278431 0.015686
0.368627 0.282353 0.007843
0.396078 0.278431 0.007843
0.431373 0.282353 0.007843
0.462745 0.282353 0.011765
0.490196 0.282353 0.007843
0.525490 0.282353 0.007843
0.556863 0.282353 0.015686
0.584314 0.282353 0.007843
0.619608 0.286275 0.015686
0.647059 0.286275 0.007843
0.686275 0.282353 0.015686
0.713726 0.282353 0.007843
0.749020 0.286275 0.015686
0.776471 0.282353 0.023529
0.807843 0.290196 0.015686
0.835294 0.286275 0.023529
0.866667 0.290196 0.015686
0.901961 0.290196 0.007843
0.925490 0.290196 0.011765
0.960784 0.290196 0.007843
0.992157 0.294118 0.019608
0.000000 0.309804 0.011765
0.015686 0.309804 0.015686
0.062745 0.309804 0.007843
0.098039 0.309804 0.011765
0.121569 0.309804 0.011765
0.145098 0.309804 0.007843
0.180392 0.313726 0.015686
0.215686 0.309804 0.011765
0.247059 0.309804 0.007843
0.278431 0.309804 0.015686
0.313726 0.309804 0.007843
0.337255 0.313726 0.015686
0.372549 0.309804 0.015686
0.396078 0.309804 0.003922
0.431373 0.313726 0.007843
0.458824 0.309804 0.007843
0.494118 0.313726 0.007843
0.525490 0.313726 0.015686
0.556863 0.313726 0.007843
0.588235 0.313726 0.007843
0.615686 0.313726 0.015686
0.647059 0.313726 0.019608
0.682353 0.309804 0.007843
0.713726 0.313726 0.023529
0.745098 0.313726 0.007843
0.776471 0.317647 0.023529
0.807843 0.317647 0.007843
0.835294 0.313726 0.015686
0.870588 0.313726 0.007843
0.890196 0.321569 0.011765
0.925490 0.321569 0.007843
0.960784 0.321569 0.019608
0.988235 0.325490 0.023529
0.003922 0.341176 0.007843
0.027451 0.341176 0.007843
0.062745 0.341176 0.003922
0.078431 0.341176 0.015686
0.117647 0.341176 0.007843
0.149020 0.341176 0.007843
0.180392 0.341176 0.003922
0.215686 0.341176 0.011765
0.247059 0.341176 0.007843
0.278431 0.337255 0.015686
0.305882 0.341176 0.011765
0.341176 0.341176 0.011765
0.372549 0.341176 0.011765
0.400000 0.341176 0.011765
0.427451 0.341176 0.007843
0.462745 0.345098 0.015686
0.490196 0.341176 0.015686
0.525490 0.345098 0.007843
0.556863 0.345098 0.007843
0.588235 0.345098 0.015686
0.619608 0.345098 0.019608
0.647059 0.345098 0.003922
0.686275 0.345098 0.015686
0.713726 0.345098 0.023529
0.745098 0.345098 0.007843
0.772549 0.345098 0.015686
0.803922 0.345098 0.023529
0.839216 0.349020 0.015686
0.866667 0.345098 0.023529
0.901961 0.349020 0.015686
0.929412 0.352941 0.019608
0.956863 0.349020 0.007843
0.988235 0.352941 0.019608
0.000000 0.372549 0.007843
0.019608 0.372549 0.019608
0.047059 0.372549 0.019608
0.074510 0.372549 0.007843
0.113725 0.372549 0.011765
0.141176 0.372549 0.019608
0.180392 0.372549 0.007843
0.211765 0.372549 0.015686
0.239216 0.372549 0.007843
0.274510 0.372549 0.019608
0.309804 0.372549 0.015686
0.341176 0.368627 0.011765
0.372549 0.372549 0.007843
0.400000 0.372549 0.007843
0.431373 0.372549 0.007843
0.458824 0.376471 0.007843
0.490196 0.376471 0.007843
0.521569 0.372549 0.007843
0.556863 0.376471 0.015686
0.588235 0.376471 0.023529
0.615686 0.376471 0.003922
0.650980 0.376471 0.023529
0.678431 0.376471 0.015686
0.713726 0.376471 0.023529
0.745098 0.376471 0.007843
0.772549 0.376471 0.015686
0.807843 0.372549 0.023529
0.839216 0.372549 0.007843
0.870588 0.376471 0.023529
0.901961 0.376471 0.027451
0.933333 0.372549 0.015686
0.964706 0.380392 0.027451
0.988235 0.384314 0.007843
0.003922 0.403922 0.007843
0.003922 0.403922 0.007843
0.070588 0.403922 0.015686
0.090196 0.403922 0.015686
0.113725 0.407843 0.023529
0.145098 0.403922 0.007843
0.184314 0.403922 0.015686
0.215686 0.403922 0.023529
0.247059 0.403922 0.015686
0.274510 0.403922 0.023529
0.313726 0.403922 0.019608
0.337255 0.403922 0.011765
0.372549 0.403922 0.011765
0.407843 0.407843 0.007843
0.435294 0.403922 0.019608
0.470588 0.403922 0.023529
0.494118 0.407843 0.023529
0.525490 0.403922 0.023529
0.552941 0.407843 0.003922
0.588235 0.407843 0.027451
0.619608 0.403922 0.007843
0.647059 0.407843 0.015686
0.682353 0.407843 0.019608
0.713726 0.411765 0.023529
0.749020 0.407843 0.015686
0.776471 0.411765 0.023529
0.807843 0.411765 0.023529
0.843137 0.407843 0.015686
0.874510 0.407843 0.023529
0.901961 0.407843 0.027451
0.933333 0.407843 0.011765
0.964706 0.407843 0.023529
0.988235 0.411765 0.023529
0.000000 0.439216 0.019608
0.019608 0.435294 0.019608
0.058824 0.435294 0.019608
0.082353 0.435294 0.019608
0.113725 0.435294 0.007843
0.156863 0.435294 0.011765
0.184314 0.435294 0.019608
0.223529 0.435294 0.007843
0.243137 0.435294 0.015686
0.274510 0.435294 0.007843
0.301961 0.435294 0.015686
0.341176 0.439216 0.015686
0.372549 0.435294 0.023529
0.400000 0.439216 0.007843
0.435294 0.439216 0.023529
0.462745 0.435294 0.015686
0.494118 0.435294 0.011765
0.533333 0.435294 0.019608
0.556863 0.439216 0.019608
0.588235 0.435294 0.015686
0.619608 0.439216 0.023529
0.650980 0.439216 0.023529
0.686275 0.439216 0.027451
0.709804 0.439216 0.027451
0.741176 0.439216 0.011765
0.776471 0.439216 0.023529
0.807843 0.439216 0.027451
0.843137 0.439216 0.011765
0.870588 0.439216 0.023529
0.901961 0.439216 0.027451
0.933333 0.439216 0.035294
0.964706 0.439216 0.019608
0.996078 0.439216 0.023529
0.000000 0.466667 0.023529
0.000000 0.466667 0.007843
0.039216 0.466667 0.007843
0.098039 0.462745 0.007843
0.121569 0.466667 0.015686
0.145098 0.470588 0.023529
0.184314 0.466667 0.023529
0.215686 0.466667 0.015686
0.247059 0.466667 0.023529
0.282353 0.466667 0.011765
0.309804 0.466667 0.023529
0.337255 0.466667 0.011765
0.376471 0.466667 0.007843
0.400000 0.466667 0.023529
0.435294 0.466667 0.019608
0.470588 0.466667 0.015686
0.494118 0.466667 0.007843
0.525490 0.466667 0.007843
0.556863 0.466667 0.007843
0.588235 0.470588 0.011765
0.619608 0.470588 0.031373
0.647059 0.470588 0.007843
0.682353 0.470588 0.015686
0.713726 0.466667 0.015686
0.745098 0.470588 0.023529
0.780392 0.470588 0.027451
0.803922 0.470588 0.027451
0.835294 0.470588 0.011765
0.870588 0.470588 0.019608
0.901961 0.470588 0.027451
0.933333 0.470588 0.035294
0.964706 0.474510 0.019608
0.996078 0.474510 0.023529
0.011765 0.498039 0.007843
0.011765 0.498039 0.007843
0.050980 0.498039 0.011765
0.090196 0.498039 0.019608
0.113725 0.498039 0.019608
0.156863 0.501961 0.027451
0.188235 0.498039 0.007843
0.215686 0.498039 0.019608
0.250980 0.498039 0.027451
0.278431 0.501961 0.015686
0.309804 0.501961 0.023529
0.337255 0.498039 0.015686
0.372549 0.498039 0.027451
0.403922 0.501961 0.023529
0.431373 0.498039 0.011765
0.466667 0.501961 0.011765
0.494118 0.498039 0.023529
0.529412 0.498039 0.023529
0.560784 0.498039 0.023529
0.588235 0.498039 0.019608
0.615686 0.498039 0.019608
0.650980 0.501961 0.023529
0.682353 0.501961 0.023529
0.709804 0.501961 0.023529
0.745098 0.501961 0.031373
0.772549 0.501961 0.027451
0.807843 0.501961 0.011765
0.835294 0.501961 0.011765
0.866667 0.501961 0.019608
0.901961 0.501961 0.027451
0.933333 0.501961 0.035294
0.964706 0.505882 0.015686
0.996078 0.505882 0.023529
0.000000 0.529412 0.015686
0.023529 0.529412 0.015686
0.023529 0.529412 0.015686
0.078431 0.529412 0.023529
0.125490 0.529412 0.023529
0.149020 0.533333 0.035294
0.184314 0.529412 0.015686
0.215686 0.529412 0.023529
0.243137 0.533333 0.031373
0.278431 0.529412 0.015686
0.309804 0.529412 0.023529
0.341176 0.529412 0.011765
0.372549 0.529412 0.031373
0.400000 0.529412 0.023529
0.435294 0.529412 0.011765
0.466667 0.529412 0.031373
0.498039 0.529412 0.023529
0.529412 0.529412 0.019608
0.560784 0.529412 0.015686
0.592157 0.529412 0.015686
0.623529 0.529412 0.039216
0.647059 0.533333 0.007843
0.678431 0.533333 0.031373
0.713726 0.529412 0.007843
0.741176 0.533333 0.011765
0.776471 0.533333 0.011765
0.807843 0.537255 0.019608
0.839216 0.533333 0.019608
0.870588 0.533333 0.027451
0.901961 0.529412 0.027451
0.933333 0.533333 0.007843
0.964706 0.533333 0.015686
0.996078 0.537255 0.023529
0.039216 0.560784 0.023529
0.039216 0.560784 0.023529
0.090196 0.560784 0.031373
0.090196 0.560784 0.031373
0.113725 0.560784 0.031373
0.141176 0.560784 0.007843
0.180392 0.560784 0.019608
0.215686 0.564706 0.027451
0.243137 0.560784 0.007843
0.282353 0.560784 0.019608
0.305882 0.560784 0.031373
0.337255 0.560784 0.019608
0.368627 0.560784 0.027451
0.407843 0.560784 0.019608
0.435294 0.560784 0.039216
0.462745 0.560784 0.023529
0.501961 0.564706 0.023529
0.525490 0.560784 0.011765
0.560784 0.560784 0.007843
0.596078 0.560784 0.035294
0.623529 0.564706 0.031373
0.650980 0.560784 0.023529
0.682353 0.564706 0.027451
0.709804 0.564706 0.023529
0.745098 0.564706 0.023529
0.776471 0.560784 0.023529
0.807843 0.564706 0.031373
0.839216 0.564706 0.027451
0.866667 0.560784 0.027451
0.898039 0.564706 0.035294
0.933333 0.564706 0.047059
0.960784 0.564706 0.015686
0.992157 0.564706 0.023529
0.054902 0.592157 0.027451
0.054902 0.592157 0.027451
0.090196 0.588235 0.031373
0.105882 0.592157 0.011765
0.149020 0.592157 0.039216
0.152941 0.592157 0.015686
0.176471 0.592157 0.023529
0.207843 0.592157 0.027451
0.243137 0.592157 0.011765
0.270588 0.596078 0.023529
0.309804 0.596078 0.035294
0.341176 0.592157 0.015686
0.376471 0.592157 0.035294
0.407843 0.592157 0.023529
0.435294 0.592157 0.035294
0.462745 0.592157 0.023529
0.501961 0.592157 0.019608
0.525490 0.592157 0.035294
0.560784 0.592157 0.031373
0.588235 0.592157 0.019608
0.623529 0.592157 0.019608
0.654902 0.592157 0.015686
0.682353 0.592157 0.039216
0.717647 0.592157 0.039216
0.745098 0.592157 0.035294
0.772549 0.596078 0.031373
0.807843 0.596078 0.039216
0.835294 0.596078 0.039216
0.870588 0.592157 0.039216
0.901961 0.596078 0.019608
0.929412 0.596078 0.015686
0.964706 0.596078 0.023529
0.992157 0.596078 0.023529
0.027451 0.623529 0.007843
0.078431 0.623529 0.011765
0.070588 0.623529 0.039216
0.117647 0.623529 0.023529
0.141176 0.623529 0.023529
0.164706 0.623529 0.023529
0.203922 0.623529 0.035294
0.203922 0.623529 0.035294
0.243137 0.627451 0.019608
0.278431 0.623529 0.023529
0.305882 0.623529 0.035294
0.333333 0.623529 0.019608
0.368627 0.623529 0.031373
0.400000 0.623529 0.019608
0.439216 0.623529 0.031373
0.462745 0.627451 0.027451
0.498039 0.623529 0.015686
0.525490 0.623529 0.027451
0.564706 0.623529 0.027451
0.588235 0.623529 0.039216
0.623529 0.623529 0.039216
0.650980 0.627451 0.035294
0.686275 0.627451 0.035294
0.721569 0.627451 0.031373
0.749020 0.627451 0.027451
0.776471 0.627451 0.023529
0.803922 0.627451 0.023529
0.839216 0.627451 0.023529
0.866667 0.627451 0.019608
0.898039 0.623529 0.019608
0.929412 0.627451 0.023529
0.964706 0.623529 0.023529
0.996078 0.627451 0.035294
0.043137 0.654902 0.015686
0.090196 0.654902 0.019608
0.090196 0.654902 0.019608
0.121569 0.650980 0.019608
0.156863 0.654902 0.027451
0.176471 0.654902 0.031373
0.192157 0.650980 0.031373
0.231373 0.654902 0.043137
0.250980 0.654902 0.019608
0.282353 0.654902 0.027451
0.309804 0.654902 0.039216
0.337255 0.658824 0.023529
0.368627 0.654902 0.027451
0.403922 0.654902 0.015686
0.435294 0.650980 0.027451
0.466667 0.654902 0.023529
0.498039 0.654902 0.039216
0.525490 0.654902 0.023529
0.564706 0.654902 0.023529
0.588235 0.654902 0.039216
0.623529 0.654902 0.035294
0.650980 0.654902 0.019608
0.686275 0.654902 0.019608
0.721569 0.654902 0.015686
0.749020 0.654902 0.043137
0.784314 0.654902 0.039216
0.803922 0.658824 0.035294
0.839216 0.658824 0.035294
0.866667 0.658824 0.031373
0.901961 0.654902 0.031373
0.933333 0.658824 0.039216
0.960784 0.658824 0.039216
0.992157 0.654902 0.039216
0.062745 0.686275 0.023529
0.062745 0.686275 0.023529
0.101961 0.686275 0.023529
0.133333 0.682353 0.027451
0.133333 0.682353 0.027451
0.168627 0.686275 0.039216
0.188235 0.686275 0.039216
0.231373 0.686275 0.023529
0.262745 0.686275 0.023529
0.294118 0.686275 0.039216
0.305882 0.686275 0.039216
0.337255 0.686275 0.023529
0.372549 0.686275 0.039216
0.400000 0.686275 0.019608
0.431373 0.686275 0.035294
0.462745 0.686275 0.019608
0.494118 0.686275 0.035294
0.529412 0.686275 0.019608
0.560784 0.686275 0.047059
0.588235 0.686275 0.031373
0.627451 0.686275 0.027451
0.650980 0.686275 0.043137
0.686275 0.686275 0.039216
0.717647 0.690196 0.039216
0.749020 0.686275 0.023529
0.776471 0.686275 0.023529
0.811765 0.686275 0.019608
0.835294 0.690196 0.011765
0.866667 0.686275 0.047059
0.894118 0.690196 0.043137
0.933333 0.690196 0.050980
0.960784 0.690196 0.050980
0.996078 0.690196 0.050980
0.074510 0.717647 0.031373
0.074510 0.717647 0.031373
0.117647 0.717647 0.035294
0.117647 0.717647 0.035294
0.145098 0.717647 0.035294
0.168627 0.713726 0.039216
0.200000 0.717647 0.050980
0.239216 0.717647 0.019608
0.258824 0.717647 0.031373
0.290196 0.717647 0.035294
0.321569 0.717647 0.050980
0.337255 0.721569 0.027451
0.372549 0.717647 0.035294
0.396078 0.717647 0.047059
0.431373 0.717647 0.031373
0.466667 0.717647 0.015686
0.498039 0.717647 0.027451
0.529412 0.721569 0.023529
0.560784 0.721569 0.039216
0.588235 0.717647 0.023529
0.627451 0.721569 0.023529
0.650980 0.717647 0.039216
0.690196 0.721569 0.035294
0.713726 0.717647 0.019608
0.749020 0.717647 0.050980
0.780392 0.721569 0.047059
0.815686 0.721569 0.047059
0.839216 0.717647 0.027451
0.866667 0.717647 0.023529
0.898039 0.717647 0.023529
0.937255 0.721569 0.031373
0.964706 0.721569 0.027451
0.992157 0.721569 0.023529
0.082353 0.749020 0.031373
0.082353 0.749020 0.031373
0.082353 0.749020 0.031373
0.129412 0.749020 0.043137
0.156863 0.749020 0.043137
0.184314 0.749020 0.047059
0.207843 0.745098 0.015686
0.231373 0.749020 0.027451
0.266667 0.749020 0.031373
0.286275 0.749020 0.043137
0.313726 0.749020 0.047059
0.349020 0.749020 0.027451
0.376471 0.749020 0.039216
0.403922 0.752941 0.023529
0.435294 0.749020 0.023529
0.466667 0.749020 0.043137
0.501961 0.745098 0.023529
0.525490 0.752941 0.050980
0.564706 0.749020 0.039216
0.592157 0.749020 0.054902
0.619608 0.749020 0.039216
0.650980 0.752941 0.031373
0.686275 0.749020 0.015686
0.717647 0.749020 0.047059
0.749020 0.745098 0.035294
0.780392 0.749020 0.027451
0.815686 0.749020 0.023529
0.843137 0.752941 0.058824
0.878431 0.749020 0.054902
0.905882 0.752941 0.050980
0.929412 0.756863 0.047059
0.964706 0.752941 0.043137
0.992157 0.752941 0.039216
0.031373 0.780392 0.039216
0.094118 0.780392 0.039216
0.094118 0.780392 0.039216
0.133333 0.780392 0.039216
0.133333 0.780392 0.039216
0.168627 0.780392 0.054902
0.200000 0.780392 0.023529
0.239216 0.776471 0.023529
0.262745 0.780392 0.039216
0.294118 0.780392 0.039216
0.329412 0.780392 0.054902
0.345098 0.780392 0.023529
0.384314 0.780392 0.039216
0.411765 0.780392 0.019608
0.439216 0.780392 0.035294
0.462745 0.784314 0.050980
0.498039 0.784314 0.031373
0.529412 0.784314 0.050980
0.560784 0.780392 0.031373
0.588235 0.780392 0.050980
0.619608 0.780392 0.031373
0.658824 0.780392 0.027451
0.686275 0.780392 0.047059
0.717647 0.784314 0.039216
0.749020 0.780392 0.023529
0.780392 0.784314 0.058824
0.811765 0.780392 0.043137
0.843137 0.780392 0.039216
0.870588 0.784314 0.031373
0.905882 0.780392 0.031373
0.937255 0.784314 0.023529
0.964706 0.784314 0.058824
0.992157 0.784314 0.054902
0.031373 0.811765 0.039216
0.098039 0.807843 0.039216
0.109804 0.811765 0.050980
0.109804 0.811765 0.050980
0.145098 0.811765 0.050980
0.176471 0.811765 0.050980
0.203922 0.807843 0.019608
0.231373 0.811765 0.031373
0.270588 0.811765 0.039216
0.294118 0.811765 0.050980
0.321569 0.811765 0.050980
0.356863 0.811765 0.031373
0.380392 0.807843 0.035294
0.411765 0.811765 0.050980
0.450980 0.811765 0.031373
0.462745 0.811765 0.047059
0.498039 0.811765 0.027451
0.533333 0.811765 0.047059
0.564706 0.811765 0.023529
0.596078 0.811765 0.043137
0.623529 0.811765 0.023529
0.654902 0.815686 0.058824
0.686275 0.811765 0.039216
0.713726 0.811765 0.019608
0.752941 0.811765 0.054902
0.776471 0.811765 0.039216
0.815686 0.811765 0.035294
0.843137 0.815686 0.066667
