test_output_lut/嗯333_ct.cube
TITLE "Color Transfer LUT - 嗯333"
LUT_3D_SIZE 5
0.000000 0.003922 0.007843
0.243137 0.000000 0.003922
0.498039 0.000000 0.000000
0.741176 0.000000 0.000000
0.996078 0.000000 0.000000
0.000000 0.243137 0.000000
0.235294 0.243137 0.000000
0.494118 0.243137 0.000000
0.741176 0.243137 0.000000
0.996078 0.239216 0.000000
0.000000 0.494118 0.000000
0.239216 0.498039 0.000000
0.486275 0.494118 0.000000
0.749020 0.494118 0.000000
0.996078 0.498039 0.000000
0.000000 0.745098 0.000000
0.231373 0.745098 0.000000
0.486275 0.745098 0.000000
0.737255 0.745098 0.000000
0.996078 0.749020 0.000000
0.000000 0.996078 0.000000
0.200000 0.996078 0.000000
0.482353 0.996078 0.000000
0.737255 1.000000 0.000000
0.988235 1.000000 0.000000
0.000000 0.000000 0.247059
0.243137 0.000000 0.247059
0.494118 0.000000 0.247059
0.745098 0.000000 0.243137
0.996078 0.000000 0.247059
0.000000 0.247059 0.250980
0.235294 0.247059 0.250980
0.490196 0.247059 0.243137
0.741176 0.243137 0.239216
0.996078 0.239216 0.243137
0.000000 0.494118 0.247059
0.239216 0.494118 0.239216
0.486275 0.494118 0.239216
0.749020 0.494118 0.243137
0.992157 0.494118 0.239216
0.000000 0.749020 0.239216
0.231373 0.745098 0.239216
0.486275 0.745098 0.239216
0.737255 0.749020 0.239216
0.996078 0.745098 0.247059
0.000000 0.996078 0.243137
0.200000 1.000000 0.243137
0.486275 1.000000 0.243137
0.737255 0.996078 0.239216
0.988235 0.996078 0.247059
0.000000 0.003922 0.498039
0.239216 0.000000 0.501961
0.494118 0.000000 0.498039
0.745098 0.000000 0.505882
0.992157 0.007843 0.498039
0.000000 0.247059 0.501961
0.243137 0.243137 0.498039
0.490196 0.247059 0.498039
0.741176 0.239216 0.498039
0.992157 0.247059 0.498039
0.000000 0.494118 0.498039
0.231373 0.498039 0.501961
0.486275 0.498039 0.501961
0.741176 0.494118 0.501961
1.000000 0.494118 0.498039
0.000000 0.745098 0.494118
0.211765 0.749020 0.498039
0.486275 0.745098 0.494118
0.737255 0.749020 0.498039
0.996078 0.745098 0.494118
0.000000 1.000000 0.494118
0.203922 0.996078 0.490196
0.482353 0.996078 0.494118
0.733333 1.000000 0.498039
0.984314 0.996078 0.494118
0.000000 0.000000 0.752941
0.231373 0.000000 0.752941
0.486275 0.000000 0.749020
0.741176 0.000000 0.752941
0.992157 0.007843 0.752941
0.000000 0.243137 0.752941
0.227451 0.247059 0.752941
0.486275 0.239216 0.752941
0.745098 0.247059 0.756863
0.992157 0.239216 0.752941
0.000000 0.494118 0.752941
0.200000 0.498039 0.752941
0.490196 0.498039 0.749020
0.741176 0.494118 0.749020
0.996078 0.494118 0.756863
0.000000 0.749020 0.749020
0.203922 0.749020 0.749020
0.478431 0.749020 0.756863
0.733333 0.745098 0.749020
0.992157 0.745098 0.752941
0.000000 0.996078 0.741176
0.203922 1.000000 0.749020
0.478431 1.000000 0.745098
0.733333 1.000000 0.749020
0.988235 1.000000 0.745098
0.000000 0.003922 1.000000
0.219608 0.000000 1.000000
0.478431 0.000000 1.000000
0.745098 0.000000 1.000000
0.992157 0.003922 1.000000
0.000000 0.247059 1.000000
0.227451 0.243137 0.996078
0.486275 0.239216 1.000000
0.745098 0.243137 1.000000
0.992157 0.247059 1.000000
0.000000 0.498039 1.000000
0.207843 0.498039 1.000000
0.478431 0.494118 1.000000
0.741176 0.494118 1.000000
0.992157 0.498039 1.000000
0.000000 0.749020 1.000000
0.200000 0.749020 1.000000
0.474510 0.749020 1.000000
0.741176 0.749020 1.000000
0.992157 0.749020 1.000000
0.000000 1.000000 1.000000
0.188235 1.000000 1.000000
0.478431 1.000000 1.000000
0.729412 1.000000 1.000000
0.984314 1.000000 1.000000
