test_output_lut/嗯333_ct.cube
TITLE "Color Transfer LUT - 嗯333"
LUT_3D_SIZE 33
0.000000 0.003922 0.007843
0.007843 0.000000 0.000000
0.050980 0.000000 0.000000
0.078431 0.003922 0.003922
0.117647 0.000000 0.000000
0.149020 0.000000 0.007843
0.180392 0.000000 0.007843
0.207843 0.003922 0.000000
0.243137 0.000000 0.003922
0.278431 0.000000 0.000000
0.305882 0.000000 0.000000
0.337255 0.000000 0.000000
0.364706 0.003922 0.000000
0.400000 0.000000 0.000000
0.435294 0.000000 0.000000
0.458824 0.003922 0.000000
0.498039 0.000000 0.000000
0.525490 0.000000 0.000000
0.556863 0.000000 0.000000
0.588235 0.000000 0.000000
0.615686 0.000000 0.000000
0.650980 0.000000 0.000000
0.682353 0.000000 0.003922
0.717647 0.000000 0.000000
0.741176 0.000000 0.000000
0.776471 0.003922 0.000000
0.803922 0.000000 0.000000
0.839216 0.007843 0.000000
0.870588 0.003922 0.000000
0.898039 0.000000 0.000000
0.929412 0.000000 0.000000
0.964706 0.000000 0.007843
0.996078 0.000000 0.000000
0.000000 0.019608 0.000000
0.000000 0.031373 0.011765
0.047059 0.023529 0.007843
0.090196 0.015686 0.007843
0.121569 0.019608 0.003922
0.145098 0.027451 0.007843
0.184314 0.015686 0.000000
0.211765 0.015686 0.000000
0.247059 0.019608 0.000000
0.274510 0.023529 0.000000
0.305882 0.023529 0.000000
0.341176 0.019608 0.000000
0.368627 0.007843 0.003922
0.400000 0.027451 0.000000
0.431373 0.019608 0.000000
0.462745 0.023529 0.000000
0.494118 0.031373 0.000000
0.525490 0.011765 0.000000
0.556863 0.019608 0.000000
0.588235 0.023529 0.000000
0.615686 0.023529 0.000000
0.650980 0.000000 0.000000
0.682353 0.007843 0.000000
0.709804 0.003922 0.000000
0.745098 0.007843 0.000000
0.776471 0.003922 0.000000
0.807843 0.011765 0.000000
0.839216 0.007843 0.000000
0.870588 0.003922 0.000000
0.905882 0.007843 0.000000
0.933333 0.007843 0.000000
0.964706 0.000000 0.000000
0.996078 0.000000 0.000000
0.000000 0.058824 0.000000
0.000000 0.062745 0.003922
0.039216 0.054902 0.003922
0.074510 0.058824 0.000000
0.117647 0.058824 0.011765
0.149020 0.054902 0.000000
0.180392 0.050980 0.000000
0.215686 0.058824 0.000000
0.243137 0.058824 0.000000
0.274510 0.062745 0.000000
0.305882 0.058824 0.000000
0.337255 0.050980 0.000000
0.368627 0.058824 0.000000
0.400000 0.058824 0.000000
0.431373 0.050980 0.000000
0.462745 0.058824 0.000000
0.494118 0.050980 0.000000
0.525490 0.058824 0.000000
0.556863 0.043137 0.000000
0.588235 0.050980 0.000000
0.615686 0.050980 0.000000
0.650980 0.058824 0.000000
0.678431 0.058824 0.000000
0.717647 0.050980 0.000000
0.745098 0.047059 0.000000
0.776471 0.047059 0.000000
0.811765 0.054902 0.007843
0.839216 0.050980 0.000000
0.870588 0.050980 0.000000
0.898039 0.047059 0.000000
0.933333 0.058824 0.000000
0.964706 0.050980 0.000000
0.996078 0.050980 0.000000
0.000000 0.090196 0.003922
0.000000 0.090196 0.007843
0.047059 0.086275 0.007843
0.078431 0.090196 0.000000
0.117647 0.086275 0.000000
0.149020 0.090196 0.000000
0.184314 0.082353 0.000000
0.211765 0.090196 0.000000
0.243137 0.090196 0.003922
0.270588 0.090196 0.000000
0.309804 0.082353 0.000000
0.337255 0.082353 0.000000
0.368627 0.090196 0.000000
0.400000 0.086275 0.000000
0.427451 0.086275 0.000000
0.462745 0.090196 0.000000
0.494118 0.082353 0.000000
0.525490 0.074510 0.000000
0.556863 0.082353 0.003922
0.584314 0.086275 0.000000
0.619608 0.074510 0.000000
0.650980 0.082353 0.000000
0.678431 0.082353 0.000000
0.713726 0.090196 0.000000
0.745098 0.078431 0.003922
0.776471 0.078431 0.000000
0.803922 0.078431 0.003922
0.839216 0.086275 0.003922
0.870588 0.086275 0.000000
0.901961 0.082353 0.000000
0.929412 0.082353 0.000000
0.960784 0.082353 0.000000
0.996078 0.090196 0.003922
0.000000 0.121569 0.000000
0.007843 0.121569 0.000000
0.050980 0.121569 0.000000
0.082353 0.121569 0.000000
0.113725 0.117647 0.000000
0.141176 0.121569 0.000000
0.180392 0.113725 0.000000
0.211765 0.121569 0.000000
0.243137 0.117647 0.000000
0.274510 0.117647 0.000000
0.305882 0.117647 0.000000
0.337255 0.117647 0.000000
0.368627 0.117647 0.000000
0.400000 0.117647 0.000000
0.427451 0.117647 0.000000
0.462745 0.121569 0.000000
0.494118 0.117647 0.000000
0.525490 0.113725 0.000000
0.552941 0.117647 0.000000
0.588235 0.113725 0.000000
0.615686 0.117647 0.000000
0.650980 0.117647 0.000000
0.682353 0.117647 0.000000
0.713726 0.109804 0.000000
0.741176 0.113725 0.000000
0.776471 0.121569 0.000000
0.807843 0.121569 0.000000
0.835294 0.125490 0.003922
0.870588 0.109804 0.000000
0.901961 0.109804 0.000000
0.929412 0.109804 0.000000
0.960784 0.109804 0.000000
0.996078 0.117647 0.000000
0.000000 0.149020 0.000000
0.011765 0.149020 0.000000
0.050980 0.149020 0.000000
0.082353 0.149020 0.000000
0.117647 0.149020 0.000000
0.145098 0.152941 0.000000
0.176471 0.149020 0.000000
0.207843 0.152941 0.000000
0.239216 0.152941 0.000000
0.274510 0.149020 0.000000
0.305882 0.149020 0.000000
0.337255 0.149020 0.000000
0.368627 0.145098 0.000000
0.400000 0.149020 0.000000
0.431373 0.149020 0.000000
0.466667 0.149020 0.000000
0.498039 0.149020 0.000000
0.529412 0.145098 0.000000
0.556863 0.152941 0.000000
0.588235 0.149020 0.003922
0.619608 0.149020 0.000000
0.647059 0.152941 0.000000
0.682353 0.149020 0.000000
0.709804 0.149020 0.000000
0.745098 0.145098 0.000000
0.772549 0.149020 0.000000
0.807843 0.141176 0.000000
0.835294 0.141176 0.000000
0.870588 0.149020 0.003922
0.901961 0.152941 0.000000
0.933333 0.152941 0.000000
0.960784 0.156863 0.000000
0.996078 0.141176 0.000000
0.000000 0.180392 0.000000
0.027451 0.180392 0.000000
0.043137 0.184314 0.000000
0.074510 0.180392 0.000000
0.109804 0.180392 0.000000
0.149020 0.180392 0.000000
0.172549 0.180392 0.000000
0.207843 0.184314 0.003922
0.235294 0.184314 0.000000
0.278431 0.180392 0.000000
0.305882 0.180392 0.000000
0.337255 0.180392 0.000000
0.368627 0.180392 0.000000
0.403922 0.180392 0.000000
0.431373 0.180392 0.000000
0.466667 0.180392 0.003922
0.498039 0.180392 0.000000
0.525490 0.180392 0.000000
0.556863 0.180392 0.000000
0.588235 0.180392 0.000000
0.619608 0.180392 0.000000
0.654902 0.176471 0.000000
0.682353 0.184314 0.000000
0.717647 0.180392 0.007843
0.745098 0.184314 0.000000
0.780392 0.180392 0.000000
0.803922 0.180392 0.000000
0.839216 0.172549 0.000000
0.874510 0.180392 0.000000
0.898039 0.180392 0.000000
0.933333 0.172549 0.000000
0.964706 0.172549 0.000000
0.992157 0.176471 0.000000
0.000000 0.211765 0.000000
0.000000 0.215686 0.000000
0.050980 0.215686 0.000000
0.082353 0.211765 0.000000
0.105882 0.215686 0.000000
0.149020 0.215686 0.000000
0.176471 0.211765 0.000000
0.203922 0.211765 0.000000
0.235294 0.211765 0.000000
0.266667 0.215686 0.000000
0.309804 0.211765 0.000000
0.337255 0.211765 0.000000
0.368627 0.211765 0.000000
0.403922 0.211765 0.000000
0.431373 0.215686 0.000000
0.462745 0.211765 0.000000
0.494118 0.215686 0.000000
0.525490 0.211765 0.000000
0.556863 0.215686 0.003922
0.584314 0.211765 0.000000
0.619608 0.211765 0.000000
0.650980 0.215686 0.000000
0.682353 0.215686 0.000000
0.713726 0.207843 0.000000
0.741176 0.215686 0.000000
0.776471 0.211765 0.000000
0.807843 0.207843 0.000000
0.839216 0.215686 0.000000
0.870588 0.219608 0.000000
0.898039 0.207843 0.003922
0.929412 0.211765 0.000000
0.964706 0.207843 0.000000
0.996078 0.211765 0.000000
0.000000 0.243137 0.000000
0.007843 0.243137 0.000000
0.043137 0.243137 0.000000
0.066667 0.243137 0.000000
0.109804 0.243137 0.000000
0.141176 0.243137 0.000000
0.176471 0.247059 0.000000
0.203922 0.243137 0.000000
0.235294 0.243137 0.000000
0.270588 0.247059 0.000000
0.301961 0.247059 0.003922
0.337255 0.243137 0.003922
0.368627 0.243137 0.000000
0.400000 0.243137 0.000000
0.435294 0.243137 0.000000
0.466667 0.243137 0.000000
0.494118 0.243137 0.000000
0.525490 0.239216 0.000000
0.556863 0.243137 0.000000
0.588235 0.239216 0.000000
0.619608 0.247059 0.000000
0.650980 0.239216 0.000000
0.686275 0.243137 0.000000
0.713726 0.247059 0.000000
0.741176 0.243137 0.000000
0.776471 0.243137 0.000000
0.811765 0.243137 0.003922
0.835294 0.243137 0.000000
0.870588 0.243137 0.003922
0.898039 0.247059 0.000000
0.933333 0.243137 0.000000
0.960784 0.243137 0.000000
0.996078 0.239216 0.000000
0.000000 0.278431 0.000000
0.003922 0.278431 0.000000
0.039216 0.274510 0.000000
0.066667 0.278431 0.000000
0.105882 0.278431 0.000000
0.141176 0.278431 0.000000
0.176471 0.274510 0.000000
0.203922 0.278431 0.000000
0.235294 0.278431 0.000000
0.266667 0.278431 0.000000
0.301961 0.274510 0.000000
0.333333 0.274510 0.000000
0.368627 0.274510 0.000000
0.400000 0.274510 0.000000
0.431373 0.274510 0.000000
0.462745 0.274510 0.000000
0.490196 0.278431 0.000000
0.525490 0.274510 0.000000
0.556863 0.274510 0.000000
0.584314 0.274510 0.000000
0.619608 0.278431 0.000000
0.647059 0.278431 0.000000
0.686275 0.274510 0.000000
0.713726 0.274510 0.000000
0.749020 0.274510 0.000000
0.776471 0.274510 0.003922
0.807843 0.278431 0.000000
0.835294 0.274510 0.003922
0.870588 0.274510 0.000000
0.905882 0.274510 0.000000
0.929412 0.274510 0.000000
0.964706 0.270588 0.000000
0.996078 0.278431 0.000000
0.000000 0.305882 0.000000
0.000000 0.309804 0.003922
0.039216 0.305882 0.000000
0.082353 0.309804 0.000000
0.105882 0.305882 0.000000
0.133333 0.305882 0.000000
0.168627 0.309804 0.003922
0.203922 0.309804 0.000000
0.239216 0.305882 0.000000
0.270588 0.309804 0.000000
0.301961 0.309804 0.000000
0.329412 0.309804 0.000000
0.364706 0.309804 0.000000
0.392157 0.309804 0.000000
0.431373 0.305882 0.000000
0.462745 0.305882 0.000000
0.494118 0.305882 0.000000
0.529412 0.305882 0.000000
0.556863 0.305882 0.000000
0.588235 0.305882 0.000000
0.619608 0.305882 0.000000
0.647059 0.305882 0.003922
0.682353 0.301961 0.000000
0.713726 0.305882 0.003922
0.745098 0.305882 0.000000
0.776471 0.309804 0.000000
0.807843 0.305882 0.000000
0.835294 0.301961 0.000000
0.870588 0.305882 0.000000
0.898039 0.305882 0.000000
0.933333 0.305882 0.000000
0.968627 0.305882 0.000000
0.992157 0.305882 0.003922
0.000000 0.337255 0.000000
0.000000 0.337255 0.000000
0.039216 0.341176 0.000000
0.058824 0.337255 0.000000
0.098039 0.341176 0.000000
0.137255 0.337255 0.000000
0.172549 0.337255 0.000000
0.203922 0.341176 0.000000
0.239216 0.337255 0.000000
0.270588 0.337255 0.000000
0.298039 0.337255 0.000000
0.329412 0.341176 0.000000
0.360784 0.341176 0.000000
0.392157 0.341176 0.000000
0.423529 0.337255 0.000000
0.462745 0.337255 0.000000
0.490196 0.337255 0.000000
0.525490 0.337255 0.000000
0.560784 0.337255 0.000000
0.588235 0.341176 0.000000
0.623529 0.337255 0.003922
0.647059 0.337255 0.000000
0.686275 0.337255 0.000000
0.713726 0.337255 0.000000
0.745098 0.337255 0.000000
0.772549 0.337255 0.000000
0.803922 0.337255 0.000000
0.839216 0.341176 0.000000
0.866667 0.337255 0.000000
0.901961 0.341176 0.000000
0.933333 0.337255 0.000000
0.964706 0.333333 0.000000
0.992157 0.337255 0.000000
0.000000 0.372549 0.000000
0.000000 0.368627 0.000000
0.015686 0.368627 0.003922
0.050980 0.368627 0.000000
0.094118 0.368627 0.000000
0.129412 0.372549 0.000000
0.168627 0.372549 0.000000
0.200000 0.372549 0.000000
0.231373 0.372549 0.000000
0.262745 0.368627 0.000000
0.301961 0.372549 0.000000
0.329412 0.368627 0.000000
0.364706 0.368627 0.000000
0.392157 0.372549 0.000000
0.423529 0.368627 0.000000
0.458824 0.372549 0.000000
0.494118 0.368627 0.000000
0.521569 0.368627 0.000000
0.556863 0.368627 0.000000
0.592157 0.368627 0.000000
0.615686 0.368627 0.000000
0.650980 0.368627 0.007843
0.678431 0.368627 0.000000
0.713726 0.368627 0.000000
0.745098 0.368627 0.000000
0.772549 0.368627 0.000000
0.807843 0.364706 0.000000
0.839216 0.364706 0.000000
0.874510 0.368627 0.000000
0.901961 0.364706 0.003922
0.933333 0.364706 0.000000
0.964706 0.372549 0.000000
0.996078 0.368627 0.000000
0.000000 0.400000 0.000000
0.000000 0.400000 0.000000
0.039216 0.403922 0.000000
0.070588 0.400000 0.000000
0.094118 0.403922 0.000000
0.129412 0.400000 0.000000
0.168627 0.400000 0.000000
0.203922 0.403922 0.003922
0.235294 0.400000 0.000000
0.262745 0.400000 0.000000
0.301961 0.403922 0.000000
0.329412 0.403922 0.000000
0.364706 0.403922 0.000000
0.396078 0.403922 0.000000
0.423529 0.400000 0.000000
0.458824 0.403922 0.003922
0.490196 0.403922 0.000000
0.529412 0.400000 0.003922
0.552941 0.400000 0.000000
0.588235 0.400000 0.007843
0.619608 0.400000 0.000000
0.647059 0.400000 0.000000
0.682353 0.400000 0.000000
0.713726 0.403922 0.003922
0.749020 0.403922 0.000000
0.776471 0.403922 0.000000
0.807843 0.403922 0.003922
0.843137 0.400000 0.000000
0.874510 0.400000 0.000000
0.901961 0.400000 0.000000
0.933333 0.400000 0.000000
0.964706 0.400000 0.000000
0.988235 0.400000 0.000000
0.000000 0.435294 0.000000
0.000000 0.435294 0.000000
0.019608 0.431373 0.000000
0.054902 0.431373 0.000000
0.090196 0.435294 0.000000
0.141176 0.431373 0.000000
0.168627 0.431373 0.000000
0.207843 0.431373 0.000000
0.231373 0.435294 0.000000
0.262745 0.435294 0.000000
0.294118 0.435294 0.000000
0.329412 0.435294 0.000000
0.360784 0.431373 0.003922
0.392157 0.435294 0.000000
0.423529 0.435294 0.000000
0.454902 0.431373 0.000000
0.486275 0.431373 0.000000
0.521569 0.435294 0.000000
0.560784 0.431373 0.000000
0.592157 0.431373 0.000000
0.619608 0.435294 0.000000
0.650980 0.431373 0.000000
0.686275 0.431373 0.003922
0.709804 0.431373 0.003922
0.741176 0.431373 0.000000
0.776471 0.431373 0.000000
0.807843 0.435294 0.000000
0.843137 0.431373 0.000000
0.874510 0.431373 0.000000
0.901961 0.431373 0.000000
0.933333 0.431373 0.007843
0.964706 0.431373 0.000000
0.996078 0.431373 0.000000
0.000000 0.466667 0.000000
0.000000 0.462745 0.000000
0.000000 0.462745 0.000000
0.070588 0.462745 0.000000
0.101961 0.462745 0.000000
0.125490 0.466667 0.000000
0.168627 0.462745 0.000000
0.200000 0.466667 0.000000
0.235294 0.466667 0.000000
0.270588 0.466667 0.000000
0.298039 0.462745 0.000000
0.329412 0.462745 0.000000
0.364706 0.466667 0.000000
0.392157 0.466667 0.000000
0.427451 0.466667 0.000000
0.458824 0.466667 0.000000
0.482353 0.462745 0.000000
0.517647 0.462745 0.000000
0.549020 0.462745 0.000000
0.584314 0.466667 0.000000
0.619608 0.462745 0.007843
0.647059 0.462745 0.000000
0.682353 0.462745 0.000000
0.713726 0.462745 0.000000
0.745098 0.462745 0.000000
0.780392 0.462745 0.000000
0.803922 0.462745 0.000000
0.835294 0.462745 0.000000
0.874510 0.462745 0.000000
0.901961 0.462745 0.000000
0.933333 0.466667 0.003922
0.964706 0.466667 0.000000
0.996078 0.466667 0.000000
0.000000 0.494118 0.000000
0.000000 0.494118 0.000000
0.007843 0.494118 0.000000
0.058824 0.498039 0.000000
0.090196 0.494118 0.000000
0.137255 0.498039 0.003922
0.168627 0.494118 0.000000
0.200000 0.498039 0.000000
0.239216 0.498039 0.000000
0.266667 0.498039 0.000000
0.298039 0.498039 0.000000
0.329412 0.498039 0.000000
0.360784 0.494118 0.000000
0.392157 0.498039 0.000000
0.419608 0.498039 0.000000
0.454902 0.498039 0.000000
0.486275 0.494118 0.000000
0.517647 0.494118 0.000000
0.552941 0.494118 0.000000
0.580392 0.498039 0.000000
0.611765 0.494118 0.000000
0.654902 0.494118 0.000000
0.686275 0.494118 0.000000
0.709804 0.494118 0.000000
0.749020 0.494118 0.000000
0.772549 0.494118 0.000000
0.807843 0.494118 0.000000
0.835294 0.494118 0.000000
0.866667 0.494118 0.000000
0.901961 0.494118 0.000000
0.933333 0.494118 0.003922
0.964706 0.498039 0.000000
0.996078 0.498039 0.000000
0.000000 0.525490 0.000000
0.000000 0.525490 0.000000
0.000000 0.525490 0.000000
0.035294 0.529412 0.000000
0.101961 0.525490 0.000000
0.129412 0.529412 0.007843
0.168627 0.525490 0.000000
0.200000 0.529412 0.000000
0.231373 0.529412 0.003922
0.262745 0.525490 0.000000
0.298039 0.525490 0.000000
0.329412 0.525490 0.000000
0.360784 0.529412 0.003922
0.392157 0.529412 0.000000
0.427451 0.525490 0.000000
0.454902 0.529412 0.000000
0.486275 0.525490 0.000000
0.521569 0.525490 0.000000
0.549020 0.529412 0.000000
0.584314 0.529412 0.000000
0.615686 0.529412 0.007843
0.643137 0.529412 0.000000
0.682353 0.525490 0.003922
0.713726 0.525490 0.000000
0.745098 0.529412 0.000000
0.776471 0.525490 0.000000
0.807843 0.529412 0.000000
0.839216 0.525490 0.000000
0.870588 0.529412 0.000000
0.901961 0.521569 0.000000
0.933333 0.525490 0.000000
0.964706 0.525490 0.000000
0.996078 0.529412 0.000000
0.000000 0.556863 0.000000
0.000000 0.556863 0.000000
0.000000 0.560784 0.000000
0.050980 0.560784 0.000000
0.086275 0.556863 0.000000
0.117647 0.556863 0.000000
0.164706 0.556863 0.000000
0.200000 0.560784 0.000000
0.227451 0.556863 0.000000
0.266667 0.556863 0.000000
0.294118 0.560784 0.000000
0.325490 0.560784 0.000000
0.356863 0.556863 0.000000
0.396078 0.556863 0.000000
0.427451 0.560784 0.007843
0.454902 0.560784 0.000000
0.490196 0.560784 0.000000
0.517647 0.560784 0.000000
0.552941 0.560784 0.000000
0.584314 0.560784 0.000000
0.611765 0.560784 0.000000
0.643137 0.556863 0.000000
0.678431 0.560784 0.000000
0.713726 0.560784 0.000000
0.745098 0.556863 0.000000
0.776471 0.556863 0.000000
0.807843 0.560784 0.000000
0.843137 0.556863 0.000000
0.866667 0.556863 0.000000
0.898039 0.556863 0.000000
0.937255 0.556863 0.007843
0.964706 0.556863 0.000000
0.996078 0.556863 0.000000
0.000000 0.588235 0.000000
0.000000 0.588235 0.000000
0.000000 0.588235 0.000000
0.023529 0.592157 0.000000
0.098039 0.588235 0.007843
0.129412 0.588235 0.000000
0.156863 0.592157 0.000000
0.192157 0.588235 0.000000
0.227451 0.588235 0.000000
0.258824 0.592157 0.000000
0.294118 0.592157 0.003922
0.329412 0.588235 0.000000
0.364706 0.592157 0.000000
0.396078 0.592157 0.000000
0.423529 0.592157 0.000000
0.450980 0.588235 0.000000
0.490196 0.592157 0.000000
0.513726 0.592157 0.000000
0.552941 0.592157 0.000000
0.576471 0.588235 0.000000
0.611765 0.588235 0.000000
0.647059 0.588235 0.000000
0.674510 0.592157 0.000000
0.705882 0.592157 0.000000
0.745098 0.588235 0.000000
0.772549 0.588235 0.000000
0.811765 0.588235 0.007843
0.839216 0.588235 0.003922
0.870588 0.588235 0.003922
0.901961 0.592157 0.000000
0.929412 0.588235 0.000000
0.964706 0.588235 0.000000
0.992157 0.588235 0.000000
0.000000 0.619608 0.000000
0.000000 0.619608 0.000000
0.000000 0.619608 0.000000
0.039216 0.623529 0.000000
0.086275 0.619608 0.000000
0.113725 0.619608 0.000000
0.168627 0.623529 0.000000
0.188235 0.619608 0.000000
0.227451 0.623529 0.000000
0.266667 0.619608 0.000000
0.294118 0.619608 0.000000
0.321569 0.619608 0.000000
0.356863 0.619608 0.000000
0.388235 0.619608 0.000000
0.427451 0.619608 0.000000
0.454902 0.623529 0.000000
0.490196 0.623529 0.000000
0.513726 0.619608 0.000000
0.552941 0.623529 0.000000
0.576471 0.619608 0.003922
0.611765 0.623529 0.000000
0.643137 0.623529 0.000000
0.678431 0.623529 0.000000
0.713726 0.623529 0.000000
0.741176 0.623529 0.000000
0.772549 0.623529 0.000000
0.807843 0.623529 0.000000
0.839216 0.619608 0.000000
0.866667 0.619608 0.000000
0.898039 0.619608 0.000000
0.933333 0.619608 0.000000
0.964706 0.619608 0.000000
0.996078 0.619608 0.000000
0.000000 0.650980 0.000000
0.000000 0.650980 0.000000
0.000000 0.650980 0.000000
0.039216 0.650980 0.000000
0.098039 0.654902 0.000000
0.125490 0.650980 0.000000
0.152941 0.650980 0.000000
0.196078 0.650980 0.003922
0.215686 0.650980 0.000000
0.266667 0.650980 0.000000
0.294118 0.654902 0.003922
0.325490 0.654902 0.000000
0.356863 0.650980 0.000000
0.392157 0.650980 0.000000
0.423529 0.650980 0.000000
0.458824 0.654902 0.000000
0.486275 0.654902 0.000000
0.513726 0.650980 0.000000
0.552941 0.654902 0.000000
0.576471 0.650980 0.000000
0.615686 0.654902 0.000000
0.639216 0.650980 0.000000
0.674510 0.650980 0.000000
0.709804 0.650980 0.000000
0.737255 0.654902 0.000000
0.772549 0.654902 0.000000
0.800000 0.654902 0.000000
0.839216 0.650980 0.000000
0.866667 0.650980 0.000000
0.901961 0.647059 0.000000
0.933333 0.654902 0.000000
0.960784 0.654902 0.000000
0.996078 0.650980 0.000000
0.000000 0.686275 0.000000
0.000000 0.686275 0.000000
0.000000 0.682353 0.000000
0.058824 0.682353 0.000000
0.058824 0.682353 0.000000
0.109804 0.686275 0.000000
0.141176 0.682353 0.000000
0.196078 0.686275 0.000000
0.227451 0.682353 0.000000
0.262745 0.686275 0.000000
0.290196 0.682353 0.000000
0.321569 0.682353 0.000000
0.360784 0.682353 0.000000
0.388235 0.686275 0.000000
0.419608 0.686275 0.000000
0.450980 0.686275 0.000000
0.482353 0.686275 0.000000
0.517647 0.682353 0.000000
0.549020 0.686275 0.003922
0.576471 0.686275 0.000000
0.615686 0.686275 0.000000
0.643137 0.682353 0.000000
0.678431 0.686275 0.000000
0.705882 0.686275 0.000000
0.737255 0.682353 0.000000
0.764706 0.686275 0.000000
0.800000 0.682353 0.000000
0.831373 0.686275 0.000000
0.870588 0.682353 0.003922
0.898039 0.682353 0.000000
0.937255 0.686275 0.007843
0.964706 0.686275 0.007843
0.996078 0.682353 0.003922
0.000000 0.717647 0.000000
0.000000 0.717647 0.000000
0.007843 0.717647 0.000000
0.007843 0.717647 0.000000
0.070588 0.713726 0.000000
0.113725 0.713726 0.000000
0.149020 0.717647 0.003922
0.200000 0.713726 0.000000
0.223529 0.717647 0.000000
0.258824 0.713726 0.000000
0.290196 0.717647 0.003922
0.325490 0.717647 0.000000
0.360784 0.713726 0.000000
0.384314 0.713726 0.003922
0.419608 0.713726 0.000000
0.454902 0.713726 0.000000
0.486275 0.713726 0.000000
0.521569 0.717647 0.000000
0.549020 0.717647 0.000000
0.576471 0.717647 0.000000
0.615686 0.717647 0.000000
0.643137 0.717647 0.000000
0.678431 0.717647 0.000000
0.705882 0.713726 0.000000
0.741176 0.717647 0.003922
0.768627 0.717647 0.000000
0.803922 0.717647 0.000000
0.827451 0.713726 0.000000
0.862745 0.713726 0.000000
0.898039 0.713726 0.000000
0.937255 0.713726 0.000000
0.964706 0.717647 0.000000
0.992157 0.717647 0.000000
0.000000 0.745098 0.000000
0.000000 0.745098 0.000000
0.000000 0.745098 0.000000
0.023529 0.749020 0.000000
0.090196 0.749020 0.000000
0.125490 0.745098 0.000000
0.160784 0.745098 0.000000
0.192157 0.749020 0.000000
0.231373 0.745098 0.000000
0.254902 0.749020 0.000000
0.286275 0.745098 0.000000
0.321569 0.749020 0.000000
0.360784 0.749020 0.000000
0.392157 0.749020 0.000000
0.419608 0.745098 0.000000
0.454902 0.745098 0.000000
0.486275 0.745098 0.000000
0.513726 0.749020 0.003922
0.552941 0.749020 0.000000
0.580392 0.745098 0.007843
0.607843 0.745098 0.000000
0.643137 0.749020 0.000000
0.674510 0.745098 0.000000
0.705882 0.749020 0.000000
0.737255 0.745098 0.000000
0.768627 0.745098 0.000000
0.803922 0.745098 0.000000
0.831373 0.749020 0.007843
0.866667 0.749020 0.003922
0.898039 0.749020 0.000000
0.925490 0.749020 0.000000
0.964706 0.745098 0.000000
0.996078 0.749020 0.000000
0.000000 0.780392 0.000000
0.000000 0.776471 0.000000
0.000000 0.776471 0.000000
0.023529 0.776471 0.000000
0.023529 0.776471 0.000000
0.101961 0.780392 0.007843
0.145098 0.780392 0.000000
0.196078 0.776471 0.000000
0.223529 0.780392 0.000000
0.262745 0.776471 0.000000
0.298039 0.780392 0.007843
0.313726 0.776471 0.000000
0.356863 0.776471 0.000000
0.388235 0.780392 0.000000
0.427451 0.780392 0.000000
0.450980 0.780392 0.000000
0.486275 0.780392 0.000000
0.517647 0.780392 0.000000
0.549020 0.780392 0.000000
0.576471 0.780392 0.000000
0.607843 0.776471 0.000000
0.647059 0.780392 0.000000
0.674510 0.776471 0.000000
0.705882 0.780392 0.000000
0.741176 0.776471 0.000000
0.768627 0.780392 0.003922
0.803922 0.776471 0.000000
0.831373 0.776471 0.000000
0.862745 0.780392 0.000000
0.898039 0.780392 0.000000
0.925490 0.780392 0.000000
0.960784 0.780392 0.007843
0.996078 0.780392 0.003922
0.000000 0.807843 0.000000
0.000000 0.807843 0.000000
0.000000 0.811765 0.000000
0.000000 0.811765 0.000000
0.050980 0.811765 0.000000
0.105882 0.807843 0.000000
0.149020 0.807843 0.000000
0.184314 0.811765 0.000000
0.231373 0.807843 0.000000
0.254902 0.811765 0.000000
0.290196 0.807843 0.000000
0.325490 0.811765 0.000000
0.352941 0.807843 0.000000
0.384314 0.807843 0.000000
0.423529 0.807843 0.000000
0.450980 0.811765 0.000000
0.486275 0.811765 0.000000
0.521569 0.811765 0.000000
0.552941 0.807843 0.000000
0.584314 0.807843 0.000000
0.611765 0.807843 0.000000
0.647059 0.811765 0.003922
0.674510 0.811765 0.000000
0.701961 0.807843 0.000000
0.741176 0.811765 0.000000
0.768627 0.807843 0.000000
0.803922 0.811765 0.000000
0.835294 0.811765 0.011765
0.858824 0.811765 0.000000
