test_output_lut/嗯333_ct.cube
TITLE "Color Transfer LUT - 嗯333"
LUT_3D_SIZE 9
0.000000 0.003922 0.007843
0.117647 0.000000 0.000000
0.243137 0.000000 0.003922
0.364706 0.003922 0.000000
0.498039 0.000000 0.000000
0.615686 0.000000 0.000000
0.741176 0.000000 0.000000
0.870588 0.003922 0.000000
0.996078 0.000000 0.000000
0.000000 0.121569 0.000000
0.113725 0.117647 0.000000
0.243137 0.117647 0.000000
0.368627 0.117647 0.000000
0.494118 0.117647 0.000000
0.615686 0.117647 0.000000
0.741176 0.113725 0.000000
0.870588 0.109804 0.000000
0.996078 0.117647 0.000000
0.000000 0.243137 0.000000
0.109804 0.243137 0.000000
0.235294 0.243137 0.000000
0.368627 0.243137 0.000000
0.494118 0.243137 0.000000
0.619608 0.247059 0.000000
0.741176 0.243137 0.000000
0.870588 0.243137 0.003922
0.996078 0.239216 0.000000
0.000000 0.372549 0.000000
0.094118 0.368627 0.000000
0.231373 0.372549 0.000000
0.364706 0.368627 0.000000
0.494118 0.368627 0.000000
0.615686 0.368627 0.000000
0.745098 0.368627 0.000000
0.874510 0.368627 0.000000
0.996078 0.368627 0.000000
0.000000 0.494118 0.000000
0.090196 0.494118 0.000000
0.239216 0.498039 0.000000
0.360784 0.494118 0.000000
0.486275 0.494118 0.000000
0.611765 0.494118 0.000000
0.749020 0.494118 0.000000
0.866667 0.494118 0.000000
0.996078 0.498039 0.000000
0.000000 0.619608 0.000000
0.086275 0.619608 0.000000
0.227451 0.623529 0.000000
0.356863 0.619608 0.000000
0.490196 0.623529 0.000000
0.611765 0.623529 0.000000
0.741176 0.623529 0.000000
0.866667 0.619608 0.000000
0.996078 0.619608 0.000000
0.000000 0.745098 0.000000
0.090196 0.749020 0.000000
0.231373 0.745098 0.000000
0.360784 0.749020 0.000000
0.486275 0.745098 0.000000
0.607843 0.745098 0.000000
0.737255 0.745098 0.000000
0.866667 0.749020 0.003922
0.996078 0.749020 0.000000
0.000000 0.870588 0.000000
0.070588 0.870588 0.003922
0.227451 0.870588 0.000000
0.349020 0.874510 0.000000
0.486275 0.870588 0.000000
0.611765 0.870588 0.000000
0.737255 0.874510 0.000000
0.866667 0.870588 0.000000
0.988235 0.874510 0.000000
0.000000 0.996078 0.000000
0.000000 0.996078 0.000000
0.200000 0.996078 0.000000
0.352941 1.000000 0.000000
0.482353 0.996078 0.000000
0.611765 1.000000 0.007843
0.737255 1.000000 0.000000
0.858824 1.000000 0.000000
0.988235 1.000000 0.000000
0.000000 0.000000 0.117647
0.113725 0.000000 0.121569
0.243137 0.003922 0.121569
0.360784 0.007843 0.125490
0.494118 0.000000 0.113725
0.619608 0.000000 0.117647
0.745098 0.000000 0.117647
0.870588 0.000000 0.113725
0.992157 0.000000 0.113725
0.000000 0.121569 0.129412
0.109804 0.121569 0.121569
0.243137 0.121569 0.125490
0.368627 0.117647 0.117647
0.494118 0.113725 0.117647
0.619608 0.117647 0.117647
0.745098 0.121569 0.113725
0.866667 0.113725 0.113725
0.996078 0.121569 0.121569
0.000000 0.243137 0.113725
0.105882 0.247059 0.117647
0.235294 0.247059 0.113725
0.368627 0.247059 0.117647
0.490196 0.243137 0.117647
0.619608 0.243137 0.113725
0.741176 0.239216 0.113725
0.866667 0.243137 0.117647
0.992157 0.239216 0.117647
0.000000 0.368627 0.117647
0.090196 0.372549 0.117647
0.239216 0.368627 0.117647
0.364706 0.372549 0.121569
0.490196 0.368627 0.113725
0.619608 0.368627 0.121569
0.745098 0.364706 0.117647
0.870588 0.368627 0.121569
0.992157 0.368627 0.109804
0.000000 0.494118 0.117647
0.101961 0.498039 0.117647
0.235294 0.494118 0.121569
0.360784 0.494118 0.121569
0.490196 0.498039 0.113725
0.615686 0.498039 0.117647
0.745098 0.494118 0.121569
0.866667 0.494118 0.121569
1.000000 0.494118 0.117647
0.000000 0.619608 0.117647
0.074510 0.619608 0.109804
0.219608 0.623529 0.121569
0.356863 0.619608 0.117647
0.490196 0.619608 0.109804
0.615686 0.619608 0.109804
0.741176 0.623529 0.121569
0.870588 0.619608 0.121569
0.992157 0.619608 0.117647
0.000000 0.745098 0.113725
0.090196 0.745098 0.121569
0.211765 0.745098 0.113725
0.349020 0.749020 0.121569
0.486275 0.749020 0.117647
0.615686 0.749020 0.109804
0.737255 0.749020 0.125490
0.866667 0.749020 0.117647
0.996078 0.745098 0.113725
0.000000 0.874510 0.121569
0.082353 0.870588 0.121569
0.207843 0.870588 0.113725
0.352941 0.870588 0.113725
0.478431 0.870588 0.121569
0.607843 0.870588 0.121569
0.737255 0.870588 0.109804
0.862745 0.870588 0.105882
0.988235 0.874510 0.113725
0.000000 0.996078 0.109804
0.043137 0.996078 0.113725
0.211765 0.996078 0.098039
0.356863 0.996078 0.121569
0.486275 0.996078 0.098039
0.607843 1.000000 0.117647
0.741176 0.996078 0.117647
0.862745 0.996078 0.101961
0.988235 1.000000 0.125490
0.000000 0.000000 0.247059
0.109804 0.000000 0.250980
0.243137 0.000000 0.247059
0.364706 0.000000 0.250980
0.494118 0.000000 0.247059
0.615686 0.000000 0.247059
0.745098 0.000000 0.243137
0.870588 0.000000 0.243137
0.996078 0.000000 0.247059
0.000000 0.117647 0.250980
0.113725 0.117647 0.250980
0.239216 0.121569 0.250980
0.368627 0.113725 0.247059
0.494118 0.117647 0.247059
0.615686 0.121569 0.239216
0.745098 0.113725 0.247059
0.866667 0.113725 0.247059
0.992157 0.113725 0.243137
0.000000 0.247059 0.250980
0.094118 0.247059 0.250980
0.235294 0.247059 0.250980
0.364706 0.243137 0.247059
0.490196 0.247059 0.243137
0.619608 0.243137 0.239216
0.741176 0.243137 0.239216
0.866667 0.243137 0.243137
0.996078 0.239216 0.243137
0.000000 0.368627 0.247059
0.098039 0.372549 0.239216
0.235294 0.372549 0.243137
0.364706 0.368627 0.247059
0.494118 0.368627 0.243137
0.615686 0.364706 0.243137
0.745098 0.368627 0.239216
0.870588 0.368627 0.243137
0.996078 0.368627 0.243137
0.000000 0.494118 0.247059
0.094118 0.494118 0.243137
0.239216 0.494118 0.239216
0.360784 0.494118 0.243137
0.486275 0.494118 0.239216
0.619608 0.494118 0.243137
0.749020 0.494118 0.243137
0.870588 0.494118 0.239216
0.992157 0.494118 0.239216
0.000000 0.619608 0.239216
0.070588 0.623529 0.243137
0.223529 0.623529 0.243137
0.360784 0.619608 0.243137
0.490196 0.623529 0.239216
0.611765 0.623529 0.243137
0.737255 0.623529 0.239216
0.870588 0.619608 0.247059
0.992157 0.619608 0.243137
0.000000 0.749020 0.239216
0.066667 0.745098 0.239216
0.231373 0.745098 0.239216
0.349020 0.745098 0.239216
0.486275 0.745098 0.239216
0.611765 0.749020 0.247059
0.737255 0.749020 0.239216
0.862745 0.749020 0.243137
0.996078 0.745098 0.247059
0.000000 0.870588 0.247059
0.094118 0.870588 0.235294
0.207843 0.870588 0.239216
0.360784 0.874510 0.247059
0.490196 0.874510 0.239216
0.615686 0.874510 0.243137
0.741176 0.874510 0.247059
0.866667 0.874510 0.250980
0.984314 0.870588 0.239216
0.000000 0.996078 0.243137
0.000000 1.000000 0.247059
0.200000 1.000000 0.243137
0.349020 0.996078 0.235294
0.486275 1.000000 0.243137
0.603922 1.000000 0.239216
0.737255 0.996078 0.239216
0.862745 0.996078 0.247059
0.988235 0.996078 0.247059
0.000000 0.000000 0.372549
0.105882 0.003922 0.376471
0.239216 0.000000 0.376471
0.368627 0.000000 0.376471
0.494118 0.000000 0.376471
0.619608 0.000000 0.376471
0.745098 0.000000 0.376471
0.870588 0.003922 0.372549
0.992157 0.000000 0.368627
0.000000 0.117647 0.376471
0.105882 0.121569 0.372549
0.247059 0.117647 0.372549
0.364706 0.117647 0.372549
0.490196 0.117647 0.376471
0.623529 0.113725 0.376471
0.745098 0.113725 0.376471
0.874510 0.113725 0.368627
0.992157 0.125490 0.372549
0.000000 0.243137 0.372549
0.074510 0.247059 0.380392
0.235294 0.243137 0.372549
0.368627 0.243137 0.372549
0.494118 0.243137 0.372549
0.619608 0.243137 0.372549
0.741176 0.247059 0.376471
0.866667 0.243137 0.364706
0.992157 0.243137 0.364706
0.000000 0.372549 0.376471
0.078431 0.368627 0.372549
0.223529 0.372549 0.376471
0.360784 0.372549 0.376471
0.490196 0.368627 0.376471
0.615686 0.368627 0.376471
0.745098 0.364706 0.368627
0.870588 0.368627 0.372549
0.996078 0.368627 0.368627
0.000000 0.498039 0.376471
0.090196 0.498039 0.372549
0.215686 0.494118 0.376471
0.364706 0.498039 0.368627
0.486275 0.498039 0.364706
0.623529 0.498039 0.372549
0.745098 0.498039 0.364706
0.870588 0.494118 0.372549
0.992157 0.494118 0.368627
0.000000 0.619608 0.364706
0.094118 0.619608 0.368627
0.227451 0.623529 0.372549
0.360784 0.619608 0.368627
0.486275 0.623529 0.368627
0.611765 0.623529 0.372549
0.749020 0.619608 0.364706
0.870588 0.623529 0.372549
0.996078 0.619608 0.368627
0.000000 0.749020 0.368627
0.039216 0.745098 0.372549
0.231373 0.749020 0.372549
0.356863 0.745098 0.364706
0.486275 0.749020 0.368627
0.615686 0.749020 0.364706
0.741176 0.749020 0.368627
0.862745 0.749020 0.368627
0.992157 0.745098 0.372549
0.000000 0.874510 0.372549
0.070588 0.870588 0.364706
0.200000 0.870588 0.368627
0.352941 0.870588 0.372549
0.478431 0.870588 0.368627
0.607843 0.870588 0.368627
0.737255 0.870588 0.368627
0.862745 0.870588 0.368627
0.992157 0.874510 0.368627
0.000000 0.996078 0.368627
0.000000 0.996078 0.368627
0.203922 0.996078 0.360784
0.356863 0.996078 0.372549
0.478431 0.996078 0.364706
0.615686 1.000000 0.364706
0.741176 1.000000 0.368627
0.866667 0.996078 0.364706
0.988235 1.000000 0.364706
0.000000 0.003922 0.498039
0.105882 0.000000 0.498039
0.239216 0.000000 0.501961
0.360784 0.003922 0.498039
0.494118 0.000000 0.498039
0.611765 0.003922 0.498039
0.745098 0.000000 0.505882
0.870588 0.000000 0.498039
0.992157 0.007843 0.498039
0.000000 0.121569 0.501961
0.090196 0.121569 0.501961
0.231373 0.121569 0.501961
0.368627 0.117647 0.498039
0.490196 0.117647 0.501961
0.615686 0.117647 0.498039
0.745098 0.109804 0.498039
0.866667 0.117647 0.501961
1.000000 0.109804 0.501961
0.000000 0.247059 0.501961
0.090196 0.247059 0.501961
0.243137 0.243137 0.498039
0.360784 0.247059 0.498039
0.490196 0.247059 0.498039
0.615686 0.247059 0.505882
0.741176 0.239216 0.498039
0.874510 0.243137 0.501961
0.992157 0.247059 0.498039
0.000000 0.368627 0.501961
0.054902 0.372549 0.505882
0.223529 0.372549 0.501961
0.368627 0.368627 0.501961
0.494118 0.368627 0.501961
0.615686 0.364706 0.501961
0.745098 0.372549 0.505882
0.870588 0.368627 0.501961
0.992157 0.368627 0.494118
0.000000 0.494118 0.498039
0.070588 0.494118 0.501961
0.231373 0.498039 0.501961
0.356863 0.498039 0.501961
0.486275 0.498039 0.501961
0.615686 0.494118 0.498039
0.741176 0.494118 0.501961
0.870588 0.498039 0.498039
1.000000 0.494118 0.498039
0.000000 0.623529 0.501961
0.050980 0.623529 0.505882
0.215686 0.619608 0.501961
0.352941 0.623529 0.505882
0.482353 0.623529 0.494118
0.615686 0.619608 0.490196
0.741176 0.619608 0.494118
0.870588 0.619608 0.498039
0.992157 0.619608 0.490196
0.000000 0.745098 0.494118
0.043137 0.749020 0.498039
0.211765 0.749020 0.498039
0.356863 0.749020 0.494118
0.486275 0.745098 0.494118
0.611765 0.749020 0.494118
0.737255 0.749020 0.498039
0.862745 0.749020 0.498039
0.996078 0.745098 0.494118
0.000000 0.874510 0.498039
0.074510 0.870588 0.494118
0.203922 0.870588 0.498039
0.349020 0.870588 0.490196
0.474510 0.870588 0.498039
0.615686 0.870588 0.490196
0.737255 0.874510 0.490196
0.858824 0.874510 0.494118
0.988235 0.874510 0.494118
0.000000 1.000000 0.494118
0.000000 0.996078 0.494118
0.203922 0.996078 0.490196
0.345098 1.000000 0.494118
0.482353 0.996078 0.494118
0.607843 0.996078 0.490196
0.733333 1.000000 0.498039
0.862745 1.000000 0.498039
0.984314 0.996078 0.494118
0.000000 0.000000 0.627451
0.078431 0.003922 0.627451
0.235294 0.003922 0.623529
0.364706 0.000000 0.627451
0.490196 0.000000 0.623529
0.615686 0.000000 0.627451
0.741176 0.000000 0.627451
0.870588 0.000000 0.627451
0.996078 0.000000 0.627451
0.000000 0.117647 0.623529
0.098039 0.117647 0.619608
0.239216 0.117647 0.623529
0.360784 0.121569 0.627451
0.490196 0.117647 0.627451
0.615686 0.117647 0.623529
0.745098 0.113725 0.627451
0.866667 0.121569 0.627451
0.992157 0.117647 0.623529
0.000000 0.243137 0.627451
0.098039 0.243137 0.623529
0.231373 0.247059 0.623529
0.360784 0.243137 0.623529
0.490196 0.243137 0.623529
0.611765 0.247059 0.631373
0.745098 0.243137 0.627451
0.866667 0.243137 0.627451
0.992157 0.243137 0.627451
0.000000 0.372549 0.627451
0.113725 0.368627 0.623529
0.239216 0.368627 0.623529
0.364706 0.364706 0.623529
0.490196 0.368627 0.627451
0.611765 0.368627 0.623529
0.737255 0.368627 0.623529
0.866667 0.372549 0.627451
0.996078 0.372549 0.627451
0.000000 0.494118 0.623529
0.000000 0.498039 0.627451
0.215686 0.498039 0.627451
0.352941 0.498039 0.631373
0.490196 0.494118 0.623529
0.619608 0.494118 0.623529
0.741176 0.498039 0.627451
0.870588 0.498039 0.631373
0.992157 0.494118 0.623529
0.000000 0.619608 0.627451
0.054902 0.623529 0.623529
0.211765 0.623529 0.623529
0.341176 0.623529 0.631373
0.478431 0.619608 0.627451
0.607843 0.623529 0.627451
0.741176 0.619608 0.627451
0.874510 0.619608 0.623529
1.000000 0.619608 0.623529
0.000000 0.749020 0.627451
0.019608 0.745098 0.627451
0.196078 0.749020 0.627451
0.352941 0.745098 0.623529
0.486275 0.749020 0.627451
0.615686 0.749020 0.619608
0.737255 0.745098 0.619608
0.870588 0.745098 0.619608
0.996078 0.745098 0.619608
0.000000 0.870588 0.619608
0.031373 0.874510 0.623529
0.211765 0.874510 0.619608
0.356863 0.874510 0.619608
0.490196 0.874510 0.619608
0.603922 0.870588 0.619608
0.733333 0.870588 0.619608
0.858824 0.874510 0.623529
0.984314 0.874510 0.623529
0.000000 0.996078 0.619608
0.027451 0.996078 0.619608
0.223529 0.996078 0.619608
0.360784 0.996078 0.619608
0.474510 0.996078 0.619608
0.607843 1.000000 0.623529
0.737255 1.000000 0.619608
0.870588 1.000000 0.615686
0.984314 0.996078 0.615686
0.000000 0.000000 0.752941
0.086275 0.000000 0.752941
0.231373 0.000000 0.752941
0.356863 0.000000 0.749020
0.486275 0.000000 0.749020
0.615686 0.003922 0.752941
0.741176 0.000000 0.752941
0.866667 0.011765 0.749020
0.992157 0.007843 0.752941
0.000000 0.121569 0.752941
0.090196 0.121569 0.752941
0.227451 0.121569 0.752941
0.360784 0.117647 0.749020
0.486275 0.121569 0.752941
0.611765 0.125490 0.756863
0.737255 0.117647 0.752941
0.866667 0.125490 0.756863
0.992157 0.121569 0.749020
0.000000 0.243137 0.752941
0.070588 0.247059 0.756863
0.227451 0.247059 0.752941
0.352941 0.247059 0.752941
0.486275 0.239216 0.752941
0.615686 0.239216 0.752941
0.745098 0.247059 0.756863
0.870588 0.247059 0.752941
0.992157 0.239216 0.752941
0.000000 0.368627 0.752941
0.070588 0.368627 0.752941
0.227451 0.368627 0.752941
0.352941 0.368627 0.752941
0.486275 0.368627 0.749020
0.615686 0.368627 0.749020
0.745098 0.372549 0.756863
0.870588 0.368627 0.749020
0.992157 0.368627 0.752941
0.000000 0.494118 0.752941
0.003922 0.498039 0.752941
0.200000 0.498039 0.752941
0.364706 0.494118 0.752941
0.490196 0.498039 0.749020
0.615686 0.494118 0.752941
0.741176 0.494118 0.749020
0.870588 0.494118 0.749020
0.996078 0.494118 0.756863
0.000000 0.619608 0.749020
0.000000 0.623529 0.752941
0.196078 0.619608 0.752941
0.337255 0.619608 0.752941
0.482353 0.623529 0.752941
0.623529 0.619608 0.749020
0.741176 0.623529 0.752941
0.870588 0.619608 0.752941
0.996078 0.619608 0.752941
0.000000 0.749020 0.749020
0.031373 0.749020 0.752941
0.203922 0.749020 0.749020
0.345098 0.745098 0.752941
0.478431 0.749020 0.756863
0.603922 0.749020 0.756863
0.733333 0.745098 0.749020
0.862745 0.745098 0.752941
0.992157 0.745098 0.752941
0.000000 0.870588 0.752941
0.000000 0.870588 0.752941
0.200000 0.870588 0.749020
0.341176 0.870588 0.752941
0.470588 0.870588 0.749020
0.600000 0.874510 0.752941
0.729412 0.874510 0.752941
0.866667 0.874510 0.745098
0.992157 0.870588 0.741176
0.000000 0.996078 0.741176
0.000000 1.000000 0.745098
0.203922 1.000000 0.749020
0.349020 0.996078 0.745098
0.478431 1.000000 0.745098
0.603922 1.000000 0.745098
0.733333 1.000000 0.749020
0.862745 1.000000 0.749020
0.988235 1.000000 0.745098
0.000000 0.011765 0.874510
0.090196 0.000000 0.878431
0.223529 0.000000 0.874510
0.352941 0.000000 0.878431
0.482353 0.011765 0.878431
0.615686 0.000000 0.878431
0.741176 0.000000 0.874510
0.866667 0.000000 0.878431
0.996078 0.000000 0.882353
0.000000 0.117647 0.874510
0.058824 0.125490 0.878431
0.227451 0.117647 0.874510
0.356863 0.117647 0.874510
0.482353 0.121569 0.878431
0.615686 0.125490 0.874510
0.737255 0.117647 0.874510
0.870588 0.109804 0.874510
0.992157 0.121569 0.874510
0.000000 0.243137 0.874510
0.090196 0.243137 0.878431
0.219608 0.243137 0.878431
0.356863 0.243137 0.878431
0.494118 0.243137 0.878431
0.611765 0.247059 0.882353
0.745098 0.239216 0.874510
0.870588 0.247059 0.878431
0.996078 0.243137 0.882353
0.000000 0.368627 0.874510
0.058824 0.368627 0.878431
0.227451 0.368627 0.878431
0.360784 0.368627 0.882353
0.490196 0.368627 0.874510
0.611765 0.372549 0.878431
0.745098 0.372549 0.878431
0.870588 0.372549 0.878431
0.992157 0.368627 0.878431
0.000000 0.498039 0.878431
0.074510 0.498039 0.878431
0.235294 0.494118 0.878431
0.360784 0.494118 0.870588
0.490196 0.498039 0.878431
0.611765 0.498039 0.882353
0.745098 0.494118 0.874510
0.870588 0.494118 0.874510
0.988235 0.494118 0.878431
0.000000 0.623529 0.878431
0.000000 0.619608 0.878431
0.200000 0.623529 0.882353
0.341176 0.623529 0.882353
0.490196 0.619608 0.878431
0.615686 0.623529 0.878431
0.741176 0.619608 0.874510
0.866667 0.619608 0.874510
0.992157 0.619608 0.874510
0.000000 0.749020 0.878431
0.000000 0.745098 0.878431
0.207843 0.749020 0.878431
0.341176 0.749020 0.882353
0.482353 0.749020 0.878431
0.611765 0.745098 0.874510
0.737255 0.749020 0.878431
0.866667 0.745098 0.878431
0.996078 0.745098 0.878431
0.000000 0.870588 0.878431
0.000000 0.874510 0.882353
0.176471 0.874510 0.882353
0.337255 0.874510 0.882353
0.474510 0.870588 0.878431
0.600000 0.870588 0.882353
0.733333 0.874510 0.882353
0.858824 0.874510 0.878431
0.992157 0.870588 0.878431
0.000000 0.996078 0.878431
0.000000 1.000000 0.882353
0.207843 1.000000 0.878431
0.337255 0.996078 0.878431
0.470588 1.000000 0.882353
0.603922 1.000000 0.882353
0.737255 1.000000 0.878431
0.862745 1.000000 0.878431
0.988235 0.996078 0.870588
0.000000 0.003922 1.000000
0.066667 0.000000 1.000000
0.219608 0.000000 1.000000
0.349020 0.007843 1.000000
0.478431 0.000000 1.000000
0.615686 0.000000 1.000000
0.745098 0.000000 1.000000
0.866667 0.000000 1.000000
0.992157 0.003922 1.000000
0.000000 0.117647 1.000000
0.062745 0.121569 1.000000
0.211765 0.121569 1.000000
0.349020 0.117647 1.000000
0.482353 0.125490 1.000000
0.619608 0.121569 1.000000
0.741176 0.113725 1.000000
0.870588 0.109804 1.000000
0.996078 0.105882 1.000000
0.000000 0.247059 1.000000
0.066667 0.243137 0.996078
0.227451 0.243137 0.996078
0.356863 0.243137 1.000000
0.486275 0.239216 1.000000
0.611765 0.247059 1.000000
0.745098 0.243137 1.000000
0.862745 0.247059 1.000000
0.992157 0.247059 1.000000
0.000000 0.368627 1.000000
0.094118 0.368627 1.000000
0.231373 0.368627 0.996078
0.356863 0.368627 1.000000
0.482353 0.368627 1.000000
0.615686 0.368627 1.000000
0.741176 0.364706 1.000000
0.866667 0.368627 1.000000
0.992157 0.368627 1.000000
0.000000 0.498039 1.000000
0.086275 0.494118 1.000000
0.207843 0.498039 1.000000
0.352941 0.494118 1.000000
0.478431 0.494118 1.000000
0.615686 0.494118 1.000000
0.741176 0.494118 1.000000
0.866667 0.494118 1.000000
0.992157 0.498039 1.000000
0.000000 0.623529 1.000000
0.000000 0.623529 1.000000
0.215686 0.619608 1.000000
0.349020 0.623529 1.000000
0.490196 0.619608 1.000000
0.607843 0.619608 1.000000
0.741176 0.619608 1.000000
0.858824 0.619608 1.000000
0.992157 0.619608 1.000000
0.000000 0.749020 1.000000
0.000000 0.749020 1.000000
0.200000 0.749020 1.000000
0.325490 0.749020 1.000000
0.474510 0.749020 1.000000
0.619608 0.745098 1.000000
0.741176 0.749020 1.000000
0.866667 0.745098 1.000000
0.992157 0.749020 1.000000
0.000000 0.874510 1.000000
0.000000 0.870588 1.000000
0.196078 0.870588 1.000000
0.333333 0.870588 1.000000
0.474510 0.874510 1.000000
0.607843 0.874510 1.000000
0.725490 0.874510 1.000000
0.866667 0.870588 1.000000
0.988235 0.870588 1.000000
0.000000 1.000000 1.000000
0.000000 1.000000 1.000000
0.188235 1.000000 1.000000
0.337255 0.996078 1.000000
0.478431 1.000000 1.000000
0.603922 1.000000 1.000000
0.729412 1.000000 1.000000
0.862745 1.000000 1.000000
0.984314 1.000000 1.000000
