test_output_lut/嗯3331_ct.cube
TITLE "Color Transfer LUT - 嗯3331"
LUT_3D_SIZE 9
0.000000 0.007843 0.007843
0.117647 0.011765 0.000000
0.247059 0.007843 0.011765
0.368627 0.023529 0.007843
0.501961 0.023529 0.003922
0.619608 0.031373 0.007843
0.745098 0.047059 0.000000
0.874510 0.062745 0.000000
1.000000 0.062745 0.007843
0.007843 0.125490 0.007843
0.117647 0.125490 0.007843
0.247059 0.129412 0.007843
0.372549 0.129412 0.000000
0.501961 0.133333 0.007843
0.619608 0.133333 0.000000
0.749020 0.133333 0.000000
0.874510 0.137255 0.003922
1.000000 0.149020 0.000000
0.000000 0.250980 0.000000
0.117647 0.250980 0.003922
0.243137 0.250980 0.003922
0.372549 0.250980 0.003922
0.498039 0.254902 0.007843
0.623529 0.258824 0.007843
0.749020 0.258824 0.007843
0.874510 0.258824 0.011765
1.000000 0.258824 0.000000
0.007843 0.376471 0.000000
0.105882 0.376471 0.003922
0.239216 0.380392 0.003922
0.372549 0.376471 0.000000
0.494118 0.380392 0.000000
0.619608 0.380392 0.000000
0.749020 0.380392 0.000000
0.878431 0.380392 0.007843
1.000000 0.380392 0.000000
0.035294 0.501961 0.000000
0.125490 0.501961 0.007843
0.247059 0.505882 0.011765
0.372549 0.501961 0.011765
0.494118 0.501961 0.007843
0.619608 0.501961 0.003922
0.752941 0.505882 0.015686
0.870588 0.505882 0.000000
1.000000 0.509804 0.007843
0.000000 0.627451 0.000000
0.129412 0.627451 0.003922
0.250980 0.631373 0.003922
0.372549 0.627451 0.011765
0.498039 0.631373 0.000000
0.623529 0.631373 0.019608
0.749020 0.631373 0.007843
0.870588 0.631373 0.000000
1.000000 0.631373 0.011765
0.047059 0.752941 0.007843
0.145098 0.752941 0.023529
0.258824 0.752941 0.007843
0.380392 0.752941 0.019608
0.505882 0.752941 0.003922
0.619608 0.752941 0.011765
0.749020 0.752941 0.007843
0.878431 0.756863 0.027451
1.000000 0.756863 0.011765
0.003922 0.878431 0.015686
0.145098 0.878431 0.035294
0.262745 0.878431 0.011765
0.372549 0.878431 0.007843
0.505882 0.878431 0.027451
0.631373 0.878431 0.023529
0.745098 0.882353 0.000000
0.874510 0.882353 0.031373
1.000000 0.882353 0.000000
0.058824 1.000000 0.027451
0.125490 1.000000 0.031373
0.247059 1.000000 0.003922
0.380392 1.000000 0.000000
0.501961 1.000000 0.000000
0.631373 1.000000 0.043137
0.752941 1.000000 0.039216
0.870588 1.000000 0.000000
0.996078 1.000000 0.000000
0.000000 0.007843 0.125490
0.113725 0.011765 0.129412
0.250980 0.015686 0.125490
0.368627 0.023529 0.125490
0.498039 0.011765 0.121569
0.627451 0.027451 0.121569
0.752941 0.039216 0.125490
0.874510 0.039216 0.121569
1.000000 0.070588 0.121569
0.000000 0.129412 0.129412
0.117647 0.125490 0.125490
0.247059 0.133333 0.125490
0.372549 0.129412 0.121569
0.498039 0.129412 0.121569
0.623529 0.133333 0.121569
0.749020 0.141176 0.121569
0.874510 0.141176 0.121569
1.000000 0.152941 0.129412
0.000000 0.250980 0.121569
0.113725 0.250980 0.125490
0.243137 0.250980 0.121569
0.372549 0.254902 0.125490
0.494118 0.250980 0.125490
0.623529 0.254902 0.121569
0.749020 0.254902 0.121569
0.870588 0.258824 0.125490
1.000000 0.258824 0.125490
0.000000 0.376471 0.125490
0.101961 0.380392 0.125490
0.247059 0.376471 0.121569
0.372549 0.380392 0.129412
0.494118 0.376471 0.121569
0.623529 0.380392 0.129412
0.749020 0.376471 0.125490
0.874510 0.380392 0.129412
0.996078 0.384314 0.117647
0.000000 0.501961 0.129412
0.133333 0.505882 0.125490
0.243137 0.501961 0.129412
0.368627 0.501961 0.129412
0.498039 0.505882 0.125490
0.623529 0.505882 0.125490
0.745098 0.505882 0.129412
0.870588 0.501961 0.129412
1.000000 0.505882 0.125490
0.027451 0.627451 0.125490
0.125490 0.627451 0.121569
0.243137 0.627451 0.133333
0.364706 0.627451 0.125490
0.498039 0.627451 0.121569
0.623529 0.627451 0.121569
0.749020 0.631373 0.133333
0.874510 0.627451 0.133333
0.996078 0.631373 0.129412
0.047059 0.752941 0.125490
0.145098 0.752941 0.133333
0.243137 0.752941 0.125490
0.372549 0.756863 0.133333
0.501961 0.756863 0.133333
0.627451 0.756863 0.121569
0.749020 0.756863 0.137255
0.874510 0.756863 0.129412
1.000000 0.756863 0.125490
0.050980 0.882353 0.133333
0.152941 0.878431 0.137255
0.247059 0.878431 0.125490
0.376471 0.878431 0.129412
0.498039 0.878431 0.137255
0.623529 0.878431 0.137255
0.749020 0.878431 0.125490
0.874510 0.882353 0.121569
0.996078 0.882353 0.129412
0.000000 1.000000 0.129412
0.145098 1.000000 0.129412
0.254902 1.000000 0.117647
0.384314 1.000000 0.137255
0.509804 1.000000 0.117647
0.627451 1.000000 0.137255
0.756863 1.000000 0.137255
0.874510 1.000000 0.121569
1.000000 1.000000 0.141176
0.000000 0.007843 0.254902
0.109804 0.007843 0.258824
0.243137 0.011765 0.254902
0.368627 0.019608 0.258824
0.498039 0.015686 0.247059
0.619608 0.039216 0.247059
0.749020 0.047059 0.250980
0.878431 0.039216 0.250980
1.000000 0.066667 0.250980
0.000000 0.125490 0.258824
0.113725 0.125490 0.258824
0.243137 0.133333 0.258824
0.372549 0.125490 0.247059
0.498039 0.133333 0.247059
0.619608 0.137255 0.247059
0.752941 0.133333 0.250980
0.874510 0.141176 0.250980
0.996078 0.145098 0.250980
0.000000 0.254902 0.250980
0.109804 0.250980 0.250980
0.243137 0.250980 0.250980
0.372549 0.250980 0.247059
0.494118 0.254902 0.250980
0.623529 0.254902 0.247059
0.745098 0.254902 0.247059
0.870588 0.258824 0.250980
1.000000 0.258824 0.250980
0.000000 0.376471 0.247059
0.105882 0.376471 0.247059
0.243137 0.380392 0.250980
0.372549 0.376471 0.254902
0.498039 0.376471 0.250980
0.619608 0.376471 0.250980
0.749020 0.380392 0.247059
0.874510 0.384314 0.247059
1.000000 0.384314 0.247059
0.011765 0.501961 0.250980
0.129412 0.501961 0.250980
0.250980 0.501961 0.247059
0.368627 0.501961 0.250980
0.494118 0.501961 0.247059
0.623529 0.501961 0.247059
0.752941 0.505882 0.250980
0.874510 0.505882 0.247059
0.996078 0.505882 0.247059
0.027451 0.627451 0.247059
0.121569 0.631373 0.250980
0.250980 0.631373 0.250980
0.372549 0.631373 0.250980
0.498039 0.631373 0.247059
0.619608 0.631373 0.250980
0.745098 0.631373 0.247059
0.874510 0.631373 0.254902
0.996078 0.631373 0.250980
0.031373 0.752941 0.247059
0.133333 0.752941 0.247059
0.258824 0.752941 0.247059
0.368627 0.752941 0.247059
0.494118 0.756863 0.250980
0.619608 0.756863 0.254902
0.745098 0.756863 0.247059
0.870588 0.756863 0.254902
1.000000 0.752941 0.254902
0.039216 0.878431 0.254902
0.156863 0.878431 0.243137
0.243137 0.878431 0.250980
0.384314 0.882353 0.254902
0.509804 0.882353 0.250980
0.635294 0.882353 0.250980
0.749020 0.882353 0.258824
0.874510 0.882353 0.258824
0.996078 0.882353 0.247059
0.007843 1.000000 0.254902
0.117647 1.000000 0.258824
0.243137 1.000000 0.250980
0.376471 1.000000 0.247059
0.505882 1.000000 0.254902
0.623529 1.000000 0.247059
0.756863 1.000000 0.250980
0.870588 1.000000 0.254902
1.000000 1.000000 0.254902
0.000000 0.011765 0.380392
0.105882 0.015686 0.384314
0.243137 0.011765 0.384314
0.368627 0.019608 0.384314
0.498039 0.031373 0.384314
0.623529 0.035294 0.376471
0.749020 0.050980 0.376471
0.874510 0.062745 0.376471
0.996078 0.074510 0.376471
0.000000 0.129412 0.384314
0.105882 0.129412 0.380392
0.247059 0.129412 0.380392
0.368627 0.129412 0.380392
0.494118 0.133333 0.384314
0.627451 0.133333 0.376471
0.752941 0.137255 0.376471
0.878431 0.141176 0.376471
1.000000 0.156863 0.380392
0.000000 0.250980 0.380392
0.086275 0.254902 0.384314
0.231373 0.254902 0.380392
0.368627 0.254902 0.380392
0.498039 0.250980 0.372549
0.623529 0.254902 0.372549
0.745098 0.258824 0.376471
0.870588 0.258824 0.372549
1.000000 0.262745 0.372549
0.000000 0.376471 0.376471
0.101961 0.376471 0.376471
0.235294 0.380392 0.376471
0.368627 0.380392 0.376471
0.494118 0.380392 0.376471
0.619608 0.380392 0.376471
0.749020 0.376471 0.376471
0.874510 0.384314 0.380392
1.000000 0.380392 0.376471
0.000000 0.505882 0.376471
0.117647 0.501961 0.376471
0.231373 0.501961 0.376471
0.372549 0.505882 0.376471
0.494118 0.505882 0.372549
0.623529 0.505882 0.380392
0.749020 0.505882 0.372549
0.874510 0.505882 0.380392
0.996078 0.505882 0.376471
0.000000 0.627451 0.372549
0.137255 0.627451 0.376471
0.250980 0.631373 0.380392
0.368627 0.631373 0.376471
0.494118 0.631373 0.376471
0.619608 0.631373 0.380392
0.749020 0.627451 0.372549
0.874510 0.631373 0.380392
1.000000 0.631373 0.376471
0.000000 0.756863 0.376471
0.117647 0.752941 0.380392
0.258824 0.752941 0.380392
0.376471 0.752941 0.372549
0.494118 0.756863 0.376471
0.623529 0.756863 0.372549
0.749020 0.756863 0.376471
0.874510 0.756863 0.376471
0.996078 0.756863 0.380392
0.000000 0.882353 0.380392
0.145098 0.878431 0.372549
0.239216 0.878431 0.376471
0.376471 0.878431 0.380392
0.498039 0.878431 0.376471
0.615686 0.882353 0.376471
0.745098 0.882353 0.376471
0.874510 0.882353 0.380392
1.000000 0.882353 0.376471
0.054902 1.000000 0.376471
0.125490 1.000000 0.376471
0.250980 1.000000 0.372549
0.384314 1.000000 0.380392
0.501961 1.000000 0.372549
0.635294 1.000000 0.376471
0.760784 1.000000 0.376471
0.878431 1.000000 0.372549
1.000000 1.000000 0.376471
0.000000 0.015686 0.505882
0.105882 0.011765 0.505882
0.239216 0.019608 0.509804
0.364706 0.031373 0.505882
0.494118 0.023529 0.505882
0.615686 0.047059 0.505882
0.749020 0.050980 0.513726
0.878431 0.043137 0.501961
1.000000 0.074510 0.498039
0.000000 0.129412 0.509804
0.090196 0.129412 0.509804
0.231373 0.133333 0.513726
0.368627 0.133333 0.505882
0.494118 0.133333 0.509804
0.619608 0.141176 0.505882
0.749020 0.133333 0.505882
0.874510 0.149020 0.505882
1.000000 0.145098 0.505882
0.000000 0.254902 0.509804
0.082353 0.254902 0.509804
0.239216 0.250980 0.505882
0.360784 0.254902 0.505882
0.494118 0.258824 0.505882
0.619608 0.258824 0.513726
0.749020 0.254902 0.501961
0.878431 0.258824 0.501961
1.000000 0.266667 0.498039
0.000000 0.376471 0.509804
0.074510 0.380392 0.513726
0.231373 0.380392 0.509804
0.368627 0.380392 0.509804
0.494118 0.380392 0.509804
0.623529 0.376471 0.501961
0.749020 0.384314 0.505882
0.878431 0.384314 0.501961
0.996078 0.380392 0.501961
0.000000 0.501961 0.498039
0.105882 0.501961 0.501961
0.247059 0.505882 0.501961
0.368627 0.505882 0.505882
0.494118 0.505882 0.501961
0.619608 0.505882 0.498039
0.749020 0.501961 0.501961
0.874510 0.509804 0.505882
1.000000 0.505882 0.501961
0.031373 0.627451 0.501961
0.098039 0.631373 0.505882
0.231373 0.627451 0.501961
0.368627 0.631373 0.505882
0.490196 0.631373 0.501961
0.623529 0.627451 0.498039
0.745098 0.627451 0.501961
0.874510 0.631373 0.501961
0.996078 0.631373 0.498039
0.058824 0.752941 0.501961
0.121569 0.756863 0.505882
0.243137 0.752941 0.505882
0.376471 0.756863 0.501961
0.494118 0.752941 0.501961
0.623529 0.756863 0.501961
0.745098 0.756863 0.505882
0.874510 0.756863 0.505882
1.000000 0.756863 0.501961
0.000000 0.882353 0.509804
0.145098 0.878431 0.501961
0.243137 0.878431 0.505882
0.376471 0.878431 0.498039
0.494118 0.878431 0.505882
0.623529 0.878431 0.498039
0.745098 0.882353 0.498039
0.870588 0.882353 0.501961
1.000000 0.882353 0.501961
0.027451 1.000000 0.501961
0.113725 1.000000 0.505882
0.250980 1.000000 0.501961
0.372549 1.000000 0.501961
0.505882 1.000000 0.501961
0.627451 1.000000 0.501961
0.741176 1.000000 0.505882
0.870588 1.000000 0.505882
0.992157 1.000000 0.505882
0.000000 0.019608 0.635294
0.074510 0.023529 0.635294
0.235294 0.031373 0.631373
0.364706 0.031373 0.635294
0.494118 0.031373 0.631373
0.619608 0.043137 0.635294
0.745098 0.039216 0.635294
0.874510 0.050980 0.635294
1.000000 0.078431 0.635294
0.000000 0.129412 0.635294
0.098039 0.129412 0.627451
0.239216 0.133333 0.635294
0.364706 0.137255 0.635294
0.494118 0.137255 0.635294
0.619608 0.137255 0.631373
0.749020 0.137255 0.635294
0.870588 0.152941 0.635294
1.000000 0.152941 0.631373
0.000000 0.254902 0.635294
0.090196 0.250980 0.631373
0.227451 0.258824 0.631373
0.364706 0.254902 0.631373
0.490196 0.254902 0.635294
0.615686 0.262745 0.639216
0.749020 0.258824 0.635294
0.870588 0.262745 0.635294
0.996078 0.262745 0.627451
0.000000 0.380392 0.635294
0.101961 0.376471 0.631373
0.235294 0.376471 0.631373
0.360784 0.376471 0.635294
0.490196 0.380392 0.635294
0.615686 0.380392 0.631373
0.741176 0.384314 0.631373
0.866667 0.384314 0.635294
1.000000 0.384314 0.631373
0.000000 0.501961 0.631373
0.031373 0.505882 0.635294
0.227451 0.505882 0.635294
0.360784 0.505882 0.639216
0.490196 0.501961 0.631373
0.619608 0.505882 0.631373
0.745098 0.509804 0.631373
0.878431 0.505882 0.631373
1.000000 0.505882 0.627451
0.000000 0.631373 0.635294
0.078431 0.631373 0.631373
0.235294 0.631373 0.627451
0.356863 0.631373 0.631373
0.490196 0.627451 0.627451
0.619608 0.631373 0.627451
0.745098 0.627451 0.631373
0.878431 0.631373 0.627451
1.000000 0.631373 0.631373
0.015686 0.752941 0.627451
0.133333 0.752941 0.627451
0.243137 0.756863 0.627451
0.368627 0.752941 0.623529
0.498039 0.756863 0.627451
0.623529 0.756863 0.627451
0.749020 0.752941 0.627451
0.870588 0.752941 0.627451
0.996078 0.756863 0.627451
0.054902 0.878431 0.627451
0.133333 0.882353 0.631373
0.250980 0.882353 0.627451
0.380392 0.882353 0.627451
0.509804 0.882353 0.627451
0.611765 0.878431 0.627451
0.741176 0.882353 0.627451
0.870588 0.882353 0.631373
0.996078 0.882353 0.631373
0.078431 1.000000 0.627451
0.141176 1.000000 0.627451
0.266667 1.000000 0.627451
0.392157 1.000000 0.627451
0.494118 1.000000 0.627451
0.627451 1.000000 0.631373
0.745098 1.000000 0.627451
0.878431 1.000000 0.627451
0.992157 1.000000 0.623529
0.000000 0.023529 0.760784
0.082353 0.027451 0.760784
0.231373 0.031373 0.760784
0.360784 0.031373 0.760784
0.490196 0.039216 0.760784
0.619608 0.054902 0.760784
0.745098 0.058824 0.760784
0.870588 0.078431 0.760784
0.996078 0.082353 0.764706
0.000000 0.133333 0.760784
0.086275 0.137255 0.760784
0.227451 0.137255 0.764706
0.360784 0.137255 0.756863
0.486275 0.141176 0.760784
0.615686 0.149020 0.764706
0.741176 0.145098 0.760784
0.870588 0.156863 0.764706
0.996078 0.156863 0.756863
0.000000 0.254902 0.760784
0.050980 0.258824 0.764706
0.223529 0.258824 0.760784
0.352941 0.258824 0.760784
0.490196 0.254902 0.760784
0.615686 0.254902 0.760784
0.745098 0.262745 0.764706
0.870588 0.266667 0.760784
0.996078 0.258824 0.760784
0.000000 0.380392 0.760784
0.043137 0.380392 0.760784
0.219608 0.380392 0.760784
0.352941 0.380392 0.760784
0.486275 0.380392 0.756863
0.619608 0.380392 0.756863
0.745098 0.384314 0.764706
0.874510 0.384314 0.756863
0.996078 0.384314 0.760784
0.000000 0.501961 0.764706
0.039216 0.505882 0.760784
0.211765 0.505882 0.760784
0.360784 0.501961 0.760784
0.490196 0.505882 0.756863
0.619608 0.505882 0.760784
0.745098 0.505882 0.756863
0.874510 0.505882 0.756863
1.000000 0.509804 0.764706
0.000000 0.627451 0.756863
0.007843 0.631373 0.760784
0.211765 0.627451 0.760784
0.349020 0.627451 0.760784
0.490196 0.631373 0.760784
0.623529 0.631373 0.760784
0.741176 0.635294 0.760784
0.878431 0.631373 0.756863
1.000000 0.631373 0.752941
0.000000 0.756863 0.756863
0.070588 0.756863 0.760784
0.215686 0.756863 0.760784
0.352941 0.752941 0.760784
0.494118 0.756863 0.756863
0.615686 0.756863 0.756863
0.745098 0.752941 0.752941
0.866667 0.756863 0.752941
1.000000 0.756863 0.752941
0.074510 0.878431 0.752941
0.133333 0.878431 0.752941
0.258824 0.878431 0.752941
0.376471 0.878431 0.752941
0.486275 0.882353 0.752941
0.615686 0.882353 0.752941
0.741176 0.882353 0.756863
0.878431 0.882353 0.752941
0.996078 0.882353 0.749020
0.000000 1.000000 0.749020
0.121569 1.000000 0.752941
0.250980 1.000000 0.756863
0.380392 1.000000 0.756863
0.501961 1.000000 0.752941
0.623529 1.000000 0.752941
0.741176 1.000000 0.756863
0.870588 1.000000 0.756863
0.996078 1.000000 0.752941
0.000000 0.043137 0.886275
0.082353 0.031373 0.886275
0.223529 0.023529 0.886275
0.352941 0.039216 0.886275
0.482353 0.058824 0.890196
0.615686 0.050980 0.886275
0.745098 0.054902 0.886275
0.870588 0.054902 0.886275
0.992157 0.109804 0.890196
0.000000 0.133333 0.882353
0.047059 0.141176 0.886275
0.227451 0.133333 0.882353
0.356863 0.133333 0.882353
0.482353 0.141176 0.886275
0.615686 0.149020 0.886275
0.741176 0.149020 0.882353
0.874510 0.145098 0.886275
0.996078 0.160784 0.886275
0.000000 0.254902 0.886275
0.078431 0.254902 0.886275
0.215686 0.254902 0.886275
0.356863 0.254902 0.886275
0.494118 0.258824 0.886275
0.615686 0.262745 0.890196
0.745098 0.254902 0.886275
0.870588 0.262745 0.886275
1.000000 0.262745 0.890196
0.000000 0.376471 0.886275
0.031373 0.380392 0.890196
0.223529 0.380392 0.890196
0.360784 0.380392 0.890196
0.490196 0.380392 0.882353
0.615686 0.384314 0.890196
0.745098 0.384314 0.886275
0.874510 0.384314 0.886275
0.992157 0.384314 0.886275
0.000000 0.505882 0.890196
0.043137 0.505882 0.886275
0.227451 0.505882 0.886275
0.360784 0.501961 0.882353
0.486275 0.505882 0.886275
0.611765 0.509804 0.890196
0.749020 0.505882 0.886275
0.870588 0.505882 0.882353
0.992157 0.505882 0.886275
0.000000 0.631373 0.886275
0.027451 0.627451 0.890196
0.211765 0.631373 0.890196
0.349020 0.631373 0.890196
0.490196 0.631373 0.886275
0.615686 0.631373 0.886275
0.741176 0.631373 0.882353
0.866667 0.631373 0.886275
0.992157 0.631373 0.882353
0.000000 0.756863 0.886275
0.027451 0.752941 0.886275
0.223529 0.756863 0.886275
0.349020 0.756863 0.890196
0.490196 0.756863 0.886275
0.619608 0.756863 0.882353
0.741176 0.756863 0.886275
0.866667 0.756863 0.886275
1.000000 0.756863 0.878431
0.000000 0.878431 0.886275
0.109804 0.882353 0.890196
0.192157 0.882353 0.890196
0.345098 0.882353 0.890196
0.486275 0.878431 0.886275
0.615686 0.882353 0.882353
0.749020 0.882353 0.882353
0.874510 0.882353 0.882353
0.996078 0.882353 0.878431
0.000000 1.000000 0.878431
0.121569 1.000000 0.882353
0.270588 1.000000 0.882353
0.380392 1.000000 0.878431
0.505882 1.000000 0.886275
0.619608 1.000000 0.882353
0.749020 1.000000 0.878431
0.874510 1.000000 0.878431
0.996078 1.000000 0.882353
0.000000 0.039216 1.000000
0.058824 0.027451 1.000000
0.215686 0.039216 1.000000
0.349020 0.054902 1.000000
0.482353 0.054902 1.000000
0.619608 0.050980 1.000000
0.745098 0.039216 1.000000
0.862745 0.082353 1.000000
0.988235 0.113725 1.000000
0.000000 0.137255 1.000000
0.050980 0.137255 1.000000
0.211765 0.141176 1.000000
0.349020 0.137255 1.000000
0.482353 0.149020 1.000000
0.619608 0.145098 1.000000
0.745098 0.145098 1.000000
0.874510 0.145098 1.000000
0.992157 0.164706 1.000000
0.000000 0.258824 1.000000
0.050980 0.258824 1.000000
0.223529 0.254902 1.000000
0.356863 0.258824 1.000000
0.486275 0.254902 1.000000
0.611765 0.262745 1.000000
0.745098 0.262745 1.000000
0.866667 0.262745 1.000000
0.996078 0.270588 1.000000
0.000000 0.380392 1.000000
0.078431 0.380392 1.000000
0.227451 0.376471 1.000000
0.352941 0.380392 1.000000
0.482353 0.380392 1.000000
0.619608 0.380392 1.000000
0.745098 0.380392 1.000000
0.870588 0.384314 1.000000
0.996078 0.384314 1.000000
0.000000 0.505882 1.000000
0.058824 0.505882 1.000000
0.200000 0.505882 1.000000
0.345098 0.505882 1.000000
0.478431 0.505882 1.000000
0.615686 0.505882 1.000000
0.745098 0.505882 1.000000
0.870588 0.509804 1.000000
0.996078 0.509804 1.000000
0.000000 0.631373 1.000000
0.000000 0.631373 1.000000
0.203922 0.631373 1.000000
0.341176 0.635294 1.000000
0.490196 0.631373 1.000000
0.607843 0.631373 1.000000
0.745098 0.631373 1.000000
0.862745 0.631373 1.000000
0.996078 0.631373 1.000000
0.000000 0.756863 1.000000
0.000000 0.756863 1.000000
0.215686 0.756863 1.000000
0.337255 0.756863 1.000000
0.486275 0.756863 1.000000
0.615686 0.756863 1.000000
0.741176 0.760784 1.000000
0.866667 0.756863 1.000000
0.992157 0.760784 1.000000
0.000000 0.882353 1.000000
0.000000 0.882353 1.000000
0.211765 0.878431 1.000000
0.345098 0.882353 1.000000
0.482353 0.882353 1.000000
0.615686 0.882353 1.000000
0.733333 0.882353 1.000000
0.866667 0.882353 1.000000
0.992157 0.882353 1.000000
0.000000 1.000000 1.000000
0.109804 1.000000 1.000000
0.243137 1.000000 1.000000
0.349020 1.000000 1.000000
0.486275 1.000000 1.000000
0.615686 1.000000 1.000000
0.745098 1.000000 1.000000
0.878431 1.000000 1.000000
0.992157 1.000000 1.000000
