test_output_lut/嗯3331_ct.cube
TITLE "Color Transfer LUT - 嗯3331"
LUT_3D_SIZE 5
0.000000 0.007843 0.007843
0.247059 0.007843 0.011765
0.501961 0.023529 0.003922
0.745098 0.047059 0.000000
1.000000 0.062745 0.007843
0.000000 0.250980 0.000000
0.243137 0.250980 0.003922
0.498039 0.254902 0.007843
0.749020 0.258824 0.007843
1.000000 0.258824 0.000000
0.035294 0.501961 0.000000
0.247059 0.505882 0.011765
0.494118 0.501961 0.007843
0.752941 0.505882 0.015686
1.000000 0.509804 0.007843
0.047059 0.752941 0.007843
0.258824 0.752941 0.007843
0.505882 0.752941 0.003922
0.749020 0.752941 0.007843
1.000000 0.756863 0.011765
0.058824 1.000000 0.027451
0.247059 1.000000 0.003922
0.501961 1.000000 0.000000
0.752941 1.000000 0.039216
0.996078 1.000000 0.000000
0.000000 0.007843 0.254902
0.243137 0.011765 0.254902
0.498039 0.015686 0.247059
0.749020 0.047059 0.250980
1.000000 0.066667 0.250980
0.000000 0.254902 0.250980
0.243137 0.250980 0.250980
0.494118 0.254902 0.250980
0.745098 0.254902 0.247059
1.000000 0.258824 0.250980
0.011765 0.501961 0.250980
0.250980 0.501961 0.247059
0.494118 0.501961 0.247059
0.752941 0.505882 0.250980
0.996078 0.505882 0.247059
0.031373 0.752941 0.247059
0.258824 0.752941 0.247059
0.494118 0.756863 0.250980
0.745098 0.756863 0.247059
1.000000 0.752941 0.254902
0.007843 1.000000 0.254902
0.243137 1.000000 0.250980
0.505882 1.000000 0.254902
0.756863 1.000000 0.250980
1.000000 1.000000 0.254902
0.000000 0.015686 0.505882
0.239216 0.019608 0.509804
0.494118 0.023529 0.505882
0.749020 0.050980 0.513726
1.000000 0.074510 0.498039
0.000000 0.254902 0.509804
0.239216 0.250980 0.505882
0.494118 0.258824 0.505882
0.749020 0.254902 0.501961
1.000000 0.266667 0.498039
0.000000 0.501961 0.498039
0.247059 0.505882 0.501961
0.494118 0.505882 0.501961
0.749020 0.501961 0.501961
1.000000 0.505882 0.501961
0.058824 0.752941 0.501961
0.243137 0.752941 0.505882
0.494118 0.752941 0.501961
0.745098 0.756863 0.505882
1.000000 0.756863 0.501961
0.027451 1.000000 0.501961
0.250980 1.000000 0.501961
0.505882 1.000000 0.501961
0.741176 1.000000 0.505882
0.992157 1.000000 0.505882
0.000000 0.023529 0.760784
0.231373 0.031373 0.760784
0.490196 0.039216 0.760784
0.745098 0.058824 0.760784
0.996078 0.082353 0.764706
0.000000 0.254902 0.760784
0.223529 0.258824 0.760784
0.490196 0.254902 0.760784
0.745098 0.262745 0.764706
0.996078 0.258824 0.760784
0.000000 0.501961 0.764706
0.211765 0.505882 0.760784
0.490196 0.505882 0.756863
0.745098 0.505882 0.756863
1.000000 0.509804 0.764706
0.000000 0.756863 0.756863
0.215686 0.756863 0.760784
0.494118 0.756863 0.756863
0.745098 0.752941 0.752941
1.000000 0.756863 0.752941
0.000000 1.000000 0.749020
0.250980 1.000000 0.756863
0.501961 1.000000 0.752941
0.741176 1.000000 0.756863
0.996078 1.000000 0.752941
0.000000 0.039216 1.000000
0.215686 0.039216 1.000000
0.482353 0.054902 1.000000
0.745098 0.039216 1.000000
0.988235 0.113725 1.000000
0.000000 0.258824 1.000000
0.223529 0.254902 1.000000
0.486275 0.254902 1.000000
0.745098 0.262745 1.000000
0.996078 0.270588 1.000000
0.000000 0.505882 1.000000
0.200000 0.505882 1.000000
0.478431 0.505882 1.000000
0.745098 0.505882 1.000000
0.996078 0.509804 1.000000
0.000000 0.756863 1.000000
0.215686 0.756863 1.000000
0.486275 0.756863 1.000000
0.741176 0.760784 1.000000
0.992157 0.760784 1.000000
0.000000 1.000000 1.000000
0.243137 1.000000 1.000000
0.486275 1.000000 1.000000
0.745098 1.000000 1.000000
0.992157 1.000000 1.000000
