test_output_lut/图像2_ct.cube
TITLE "Color Transfer LUT - 图像2"
LUT_3D_SIZE 9
0.000000 0.000000 0.000000
0.117647 0.000000 0.000000
0.239216 0.000000 0.011765
0.360784 0.015686 0.007843
0.490196 0.007843 0.003922
0.611765 0.015686 0.007843
0.737255 0.023529 0.003922
0.862745 0.035294 0.003922
0.992157 0.031373 0.011765
0.003922 0.117647 0.007843
0.117647 0.117647 0.007843
0.243137 0.117647 0.007843
0.364706 0.121569 0.003922
0.490196 0.125490 0.007843
0.611765 0.125490 0.003922
0.737255 0.125490 0.000000
0.866667 0.125490 0.007843
0.992157 0.133333 0.003922
0.003922 0.239216 0.000000
0.117647 0.243137 0.007843
0.239216 0.243137 0.007843
0.368627 0.243137 0.007843
0.490196 0.243137 0.007843
0.611765 0.250980 0.007843
0.737255 0.250980 0.011765
0.862745 0.250980 0.015686
0.992157 0.247059 0.003922
0.000000 0.368627 0.000000
0.105882 0.368627 0.007843
0.235294 0.368627 0.007843
0.368627 0.368627 0.007843
0.490196 0.368627 0.007843
0.615686 0.368627 0.000000
0.737255 0.372549 0.003922
0.866667 0.372549 0.015686
0.988235 0.372549 0.007843
0.000000 0.494118 0.007843
0.109804 0.494118 0.011765
0.247059 0.494118 0.023529
0.368627 0.494118 0.023529
0.490196 0.494118 0.019608
0.615686 0.494118 0.011765
0.745098 0.494118 0.023529
0.858824 0.498039 0.007843
0.988235 0.501961 0.015686
0.000000 0.619608 0.000000
0.109804 0.619608 0.011765
0.239216 0.619608 0.007843
0.364706 0.619608 0.023529
0.494118 0.619608 0.007843
0.619608 0.619608 0.027451
0.745098 0.623529 0.019608
0.866667 0.619608 0.011765
0.992157 0.623529 0.023529
0.000000 0.745098 0.019608
0.121569 0.745098 0.031373
0.243137 0.745098 0.015686
0.372549 0.745098 0.031373
0.494118 0.741176 0.011765
0.615686 0.745098 0.023529
0.745098 0.741176 0.023529
0.874510 0.745098 0.043137
0.992157 0.749020 0.027451
0.000000 0.870588 0.027451
0.113725 0.870588 0.047059
0.243137 0.870588 0.023529
0.360784 0.870588 0.023529
0.494118 0.870588 0.043137
0.619608 0.870588 0.039216
0.741176 0.870588 0.007843
0.870588 0.870588 0.050980
0.996078 0.870588 0.058824
0.000000 0.996078 0.047059
0.082353 0.996078 0.050980
0.223529 0.996078 0.023529
0.364706 0.996078 0.019608
0.490196 0.996078 0.019608
0.619608 0.996078 0.094118
0.741176 0.996078 0.090196
0.866667 0.996078 0.070588
0.992157 0.996078 0.062745
0.000000 0.000000 0.113725
0.113725 0.000000 0.117647
0.239216 0.007843 0.117647
0.356863 0.015686 0.125490
0.490196 0.000000 0.121569
0.615686 0.007843 0.121569
0.741176 0.015686 0.125490
0.866667 0.007843 0.121569
0.988235 0.039216 0.121569
0.000000 0.121569 0.121569
0.117647 0.117647 0.117647
0.243137 0.121569 0.125490
0.360784 0.125490 0.121569
0.490196 0.121569 0.121569
0.615686 0.125490 0.121569
0.737255 0.133333 0.121569
0.862745 0.125490 0.121569
0.988235 0.137255 0.129412
0.000000 0.243137 0.121569
0.113725 0.243137 0.125490
0.239216 0.243137 0.121569
0.368627 0.247059 0.125490
0.486275 0.247059 0.125490
0.611765 0.247059 0.121569
0.737255 0.247059 0.121569
0.862745 0.250980 0.125490
0.988235 0.247059 0.129412
0.000000 0.368627 0.125490
0.105882 0.372549 0.125490
0.243137 0.368627 0.125490
0.368627 0.368627 0.129412
0.490196 0.368627 0.125490
0.619608 0.368627 0.129412
0.737255 0.368627 0.125490
0.862745 0.372549 0.129412
0.988235 0.376471 0.121569
0.000000 0.494118 0.129412
0.117647 0.498039 0.129412
0.243137 0.494118 0.129412
0.364706 0.494118 0.133333
0.494118 0.498039 0.125490
0.619608 0.494118 0.125490
0.741176 0.494118 0.133333
0.862745 0.498039 0.133333
0.992157 0.498039 0.129412
0.000000 0.619608 0.129412
0.101961 0.619608 0.121569
0.231373 0.619608 0.133333
0.364706 0.619608 0.129412
0.494118 0.619608 0.125490
0.619608 0.619608 0.125490
0.745098 0.619608 0.137255
0.866667 0.619608 0.137255
0.988235 0.623529 0.133333
0.000000 0.745098 0.129412
0.117647 0.745098 0.137255
0.227451 0.745098 0.129412
0.360784 0.745098 0.137255
0.494118 0.749020 0.133333
0.623529 0.745098 0.129412
0.745098 0.749020 0.141176
0.870588 0.745098 0.133333
0.996078 0.745098 0.133333
0.000000 0.874510 0.141176
0.121569 0.870588 0.141176
0.227451 0.870588 0.133333
0.364706 0.870588 0.133333
0.490196 0.870588 0.141176
0.615686 0.870588 0.141176
0.745098 0.870588 0.129412
0.870588 0.870588 0.129412
0.992157 0.870588 0.133333
0.000000 0.996078 0.133333
0.105882 0.996078 0.133333
0.235294 0.996078 0.125490
0.368627 0.996078 0.145098
0.498039 0.992157 0.125490
0.615686 0.996078 0.141176
0.749020 0.996078 0.141176
0.870588 0.996078 0.149020
0.996078 0.996078 0.168627
0.003922 0.000000 0.243137
0.109804 0.003922 0.243137
0.239216 0.007843 0.243137
0.364706 0.007843 0.247059
0.490196 0.000000 0.243137
0.611765 0.015686 0.247059
0.741176 0.019608 0.250980
0.866667 0.007843 0.250980
0.988235 0.035294 0.250980
0.000000 0.117647 0.243137
0.121569 0.117647 0.247059
0.243137 0.121569 0.247059
0.364706 0.117647 0.243137
0.486275 0.125490 0.247059
0.607843 0.129412 0.243137
0.741176 0.125490 0.250980
0.862745 0.129412 0.250980
0.988235 0.129412 0.250980
0.000000 0.247059 0.243137
0.113725 0.243137 0.243137
0.243137 0.243137 0.243137
0.364706 0.243137 0.247059
0.486275 0.250980 0.247059
0.611765 0.247059 0.247059
0.737255 0.247059 0.247059
0.862745 0.250980 0.250980
0.988235 0.250980 0.250980
0.000000 0.368627 0.247059
0.109804 0.368627 0.247059
0.243137 0.368627 0.250980
0.372549 0.368627 0.250980
0.494118 0.368627 0.250980
0.615686 0.368627 0.250980
0.737255 0.372549 0.247059
0.866667 0.376471 0.250980
0.988235 0.376471 0.250980
0.000000 0.494118 0.250980
0.109804 0.494118 0.250980
0.247059 0.494118 0.247059
0.368627 0.494118 0.250980
0.490196 0.494118 0.247059
0.619608 0.494118 0.250980
0.749020 0.494118 0.250980
0.862745 0.498039 0.247059
0.984314 0.498039 0.247059
0.000000 0.619608 0.247059
0.098039 0.619608 0.250980
0.235294 0.623529 0.254902
0.368627 0.619608 0.250980
0.498039 0.619608 0.247059
0.619608 0.619608 0.250980
0.741176 0.619608 0.250980
0.870588 0.619608 0.254902
0.984314 0.623529 0.254902
0.000000 0.745098 0.247059
0.101961 0.745098 0.247059
0.247059 0.745098 0.247059
0.356863 0.745098 0.250980
0.494118 0.745098 0.250980
0.615686 0.745098 0.258824
0.741176 0.745098 0.247059
0.866667 0.745098 0.254902
0.996078 0.745098 0.258824
0.000000 0.870588 0.254902
0.129412 0.866667 0.247059
0.227451 0.870588 0.250980
0.368627 0.874510 0.258824
0.498039 0.870588 0.250980
0.623529 0.870588 0.254902
0.745098 0.874510 0.258824
0.870588 0.874510 0.262745
0.992157 0.870588 0.250980
0.000000 0.996078 0.254902
0.066667 1.000000 0.262745
0.223529 1.000000 0.254902
0.360784 0.996078 0.250980
0.494118 0.996078 0.254902
0.611765 0.996078 0.250980
0.745098 0.996078 0.250980
0.866667 0.996078 0.258824
0.996078 0.996078 0.258824
0.000000 0.003922 0.364706
0.105882 0.007843 0.368627
0.239216 0.003922 0.368627
0.364706 0.007843 0.372549
0.490196 0.011765 0.372549
0.615686 0.011765 0.372549
0.741176 0.023529 0.376471
0.866667 0.039216 0.376471
0.988235 0.047059 0.372549
0.000000 0.117647 0.372549
0.117647 0.121569 0.368627
0.243137 0.121569 0.368627
0.360784 0.121569 0.364706
0.490196 0.121569 0.368627
0.619608 0.121569 0.372549
0.741176 0.125490 0.376471
0.866667 0.129412 0.376471
0.988235 0.141176 0.376471
0.000000 0.243137 0.368627
0.105882 0.247059 0.372549
0.239216 0.243137 0.368627
0.368627 0.243137 0.364706
0.490196 0.243137 0.364706
0.615686 0.247059 0.364706
0.737255 0.250980 0.376471
0.862745 0.250980 0.372549
0.988235 0.250980 0.372549
0.000000 0.368627 0.368627
0.109804 0.368627 0.368627
0.239216 0.368627 0.372549
0.368627 0.368627 0.368627
0.490196 0.368627 0.376471
0.611765 0.372549 0.376471
0.737255 0.368627 0.372549
0.862745 0.372549 0.376471
0.992157 0.372549 0.376471
0.000000 0.494118 0.376471
0.117647 0.494118 0.372549
0.231373 0.494118 0.376471
0.368627 0.494118 0.376471
0.490196 0.498039 0.372549
0.619608 0.498039 0.376471
0.745098 0.498039 0.372549
0.862745 0.498039 0.380392
0.988235 0.498039 0.372549
0.000000 0.619608 0.372549
0.113725 0.619608 0.376471
0.235294 0.619608 0.380392
0.364706 0.619608 0.376471
0.490196 0.623529 0.376471
0.615686 0.623529 0.380392
0.745098 0.619608 0.372549
0.870588 0.623529 0.380392
0.988235 0.623529 0.372549
0.000000 0.749020 0.376471
0.082353 0.745098 0.380392
0.243137 0.745098 0.380392
0.364706 0.745098 0.372549
0.490196 0.745098 0.376471
0.619608 0.745098 0.372549
0.745098 0.745098 0.376471
0.870588 0.745098 0.376471
0.992157 0.745098 0.380392
0.000000 0.874510 0.384314
0.113725 0.870588 0.372549
0.219608 0.870588 0.380392
0.364706 0.870588 0.380392
0.486275 0.870588 0.376471
0.615686 0.870588 0.380392
0.741176 0.870588 0.376471
0.870588 0.870588 0.380392
0.996078 0.870588 0.376471
0.000000 0.996078 0.376471
0.074510 0.996078 0.376471
0.227451 0.996078 0.372549
0.368627 0.996078 0.384314
0.486275 0.996078 0.372549
0.623529 0.996078 0.376471
0.749020 0.996078 0.376471
0.874510 0.996078 0.372549
0.996078 0.996078 0.376471
0.000000 0.007843 0.494118
0.109804 0.003922 0.490196
0.239216 0.007843 0.494118
0.360784 0.015686 0.490196
0.490196 0.000000 0.490196
0.611765 0.023529 0.494118
0.741176 0.023529 0.498039
0.866667 0.007843 0.494118
0.988235 0.047059 0.498039
0.000000 0.121569 0.498039
0.094118 0.121569 0.494118
0.231373 0.125490 0.498039
0.364706 0.121569 0.494118
0.486275 0.121569 0.494118
0.611765 0.129412 0.494118
0.741176 0.121569 0.490196
0.862745 0.133333 0.498039
0.992157 0.129412 0.501961
0.000000 0.247059 0.494118
0.105882 0.243137 0.498039
0.247059 0.243137 0.490196
0.356863 0.247059 0.494118
0.490196 0.250980 0.494118
0.611765 0.250980 0.498039
0.741176 0.247059 0.494118
0.870588 0.250980 0.494118
0.988235 0.254902 0.498039
0.000000 0.368627 0.494118
0.105882 0.372549 0.498039
0.239216 0.368627 0.498039
0.372549 0.368627 0.498039
0.494118 0.368627 0.498039
0.615686 0.368627 0.494118
0.741176 0.376471 0.498039
0.866667 0.372549 0.498039
0.984314 0.372549 0.501961
0.000000 0.494118 0.490196
0.117647 0.494118 0.494118
0.250980 0.494118 0.494118
0.372549 0.494118 0.498039
0.494118 0.494118 0.494118
0.615686 0.494118 0.498039
0.737255 0.494118 0.501961
0.866667 0.501961 0.505882
0.992157 0.498039 0.501961
0.000000 0.619608 0.501961
0.098039 0.623529 0.505882
0.231373 0.619608 0.501961
0.364706 0.623529 0.505882
0.486275 0.619608 0.501961
0.619608 0.619608 0.498039
0.741176 0.619608 0.501961
0.870588 0.619608 0.501961
0.984314 0.623529 0.498039
0.000000 0.745098 0.501961
0.078431 0.749020 0.505882
0.223529 0.745098 0.505882
0.364706 0.749020 0.501961
0.494118 0.745098 0.501961
0.619608 0.745098 0.501961
0.741176 0.745098 0.505882
0.870588 0.745098 0.505882
0.996078 0.745098 0.501961
0.000000 0.874510 0.505882
0.109804 0.870588 0.501961
0.219608 0.870588 0.505882
0.360784 0.870588 0.498039
0.482353 0.870588 0.505882
0.619608 0.870588 0.498039
0.741176 0.870588 0.498039
0.866667 0.870588 0.501961
0.996078 0.870588 0.501961
0.000000 0.996078 0.501961
0.047059 0.996078 0.505882
0.227451 0.996078 0.501961
0.356863 1.000000 0.501961
0.494118 0.996078 0.501961
0.615686 0.996078 0.501961
0.741176 1.000000 0.505882
0.870588 1.000000 0.505882
0.988235 0.996078 0.505882
0.000000 0.007843 0.623529
0.082353 0.007843 0.623529
0.235294 0.011765 0.615686
0.364706 0.011765 0.619608
0.486275 0.007843 0.615686
0.611765 0.015686 0.619608
0.741176 0.003922 0.619608
0.866667 0.015686 0.619608
0.992157 0.039216 0.623529
0.000000 0.121569 0.619608
0.101961 0.121569 0.615686
0.239216 0.125490 0.619608
0.360784 0.129412 0.623529
0.490196 0.125490 0.619608
0.611765 0.125490 0.619608
0.741176 0.125490 0.623529
0.862745 0.137255 0.619608
0.988235 0.133333 0.615686
0.000000 0.243137 0.619608
0.098039 0.247059 0.615686
0.231373 0.250980 0.619608
0.360784 0.247059 0.615686
0.486275 0.247059 0.619608
0.611765 0.250980 0.623529
0.741176 0.250980 0.619608
0.862745 0.250980 0.619608
0.988235 0.250980 0.619608
0.000000 0.372549 0.619608
0.133333 0.368627 0.619608
0.247059 0.368627 0.615686
0.368627 0.364706 0.619608
0.486275 0.372549 0.619608
0.607843 0.372549 0.619608
0.737255 0.372549 0.619608
0.862745 0.376471 0.619608
0.992157 0.376471 0.623529
0.000000 0.494118 0.615686
0.094118 0.494118 0.619608
0.243137 0.498039 0.619608
0.368627 0.498039 0.623529
0.494118 0.494118 0.619608
0.619608 0.494118 0.619608
0.737255 0.501961 0.623529
0.866667 0.498039 0.623529
0.988235 0.498039 0.623529
0.000000 0.619608 0.619608
0.125490 0.619608 0.615686
0.243137 0.623529 0.619608
0.360784 0.623529 0.623529
0.490196 0.619608 0.619608
0.619608 0.619608 0.619608
0.741176 0.619608 0.627451
0.874510 0.619608 0.623529
0.992157 0.623529 0.627451
0.000000 0.745098 0.627451
0.090196 0.745098 0.627451
0.219608 0.749020 0.627451
0.364706 0.745098 0.623529
0.498039 0.745098 0.627451
0.619608 0.749020 0.627451
0.745098 0.741176 0.627451
0.866667 0.745098 0.627451
0.992157 0.745098 0.627451
0.000000 0.870588 0.627451
0.082353 0.874510 0.631373
0.223529 0.874510 0.627451
0.364706 0.874510 0.627451
0.494118 0.870588 0.627451
0.611765 0.870588 0.627451
0.737255 0.870588 0.627451
0.866667 0.870588 0.631373
0.992157 0.870588 0.631373
0.000000 0.996078 0.627451
0.090196 0.996078 0.627451
0.243137 0.996078 0.627451
0.372549 0.996078 0.627451
0.482353 0.996078 0.627451
0.615686 1.000000 0.631373
0.741176 1.000000 0.627451
0.874510 0.996078 0.627451
0.988235 0.996078 0.623529
0.000000 0.000000 0.737255
0.121569 0.007843 0.737255
0.243137 0.007843 0.737255
0.356863 0.007843 0.745098
0.486275 0.011765 0.745098
0.615686 0.023529 0.745098
0.741176 0.023529 0.745098
0.862745 0.047059 0.745098
0.988235 0.047059 0.749020
0.000000 0.125490 0.741176
0.098039 0.125490 0.745098
0.227451 0.125490 0.749020
0.360784 0.125490 0.745098
0.482353 0.129412 0.745098
0.611765 0.133333 0.749020
0.737255 0.129412 0.745098
0.866667 0.137255 0.749020
0.988235 0.137255 0.741176
0.000000 0.247059 0.745098
0.070588 0.250980 0.749020
0.223529 0.250980 0.745098
0.352941 0.247059 0.745098
0.486275 0.243137 0.745098
0.611765 0.247059 0.745098
0.741176 0.250980 0.749020
0.866667 0.254902 0.745098
0.988235 0.247059 0.745098
0.000000 0.368627 0.749020
0.105882 0.368627 0.745098
0.239216 0.368627 0.745098
0.352941 0.372549 0.745098
0.482353 0.372549 0.745098
0.615686 0.372549 0.741176
0.741176 0.376471 0.749020
0.866667 0.372549 0.741176
0.988235 0.372549 0.745098
0.000000 0.494118 0.749020
0.105882 0.494118 0.745098
0.231373 0.494118 0.749020
0.372549 0.494118 0.745098
0.498039 0.494118 0.745098
0.611765 0.498039 0.745098
0.737255 0.498039 0.741176
0.866667 0.494118 0.741176
0.992157 0.498039 0.749020
0.011765 0.619608 0.741176
0.098039 0.619608 0.749020
0.235294 0.619608 0.745098
0.360784 0.619608 0.745098
0.498039 0.619608 0.745098
0.627451 0.619608 0.745098
0.745098 0.623529 0.745098
0.866667 0.623529 0.745098
0.992157 0.623529 0.745098
0.000000 0.745098 0.741176
0.133333 0.745098 0.745098
0.243137 0.745098 0.745098
0.368627 0.745098 0.745098
0.494118 0.745098 0.749020
0.615686 0.749020 0.749020
0.745098 0.745098 0.745098
0.862745 0.745098 0.752941
0.992157 0.745098 0.752941
0.000000 0.870588 0.752941
0.078431 0.870588 0.752941
0.231373 0.870588 0.749020
0.356863 0.870588 0.752941
0.486275 0.870588 0.749020
0.611765 0.870588 0.752941
0.737255 0.870588 0.752941
0.870588 0.870588 0.752941
0.988235 0.870588 0.749020
0.000000 0.996078 0.749020
0.043137 0.996078 0.752941
0.219608 0.996078 0.756863
0.360784 0.996078 0.752941
0.486275 0.996078 0.752941
0.611765 0.996078 0.752941
0.741176 0.996078 0.756863
0.870588 0.996078 0.756863
0.996078 1.000000 0.752941
0.003922 0.015686 0.862745
0.129412 0.007843 0.862745
0.243137 0.000000 0.862745
0.360784 0.007843 0.862745
0.486275 0.023529 0.866667
0.611765 0.015686 0.870588
0.737255 0.015686 0.870588
0.866667 0.011765 0.870588
0.992157 0.043137 0.874510
0.019608 0.121569 0.862745
0.109804 0.125490 0.862745
0.247059 0.117647 0.862745
0.368627 0.121569 0.858824
0.482353 0.129412 0.870588
0.611765 0.133333 0.870588
0.733333 0.133333 0.866667
0.866667 0.125490 0.870588
0.988235 0.141176 0.870588
0.000000 0.243137 0.862745
0.129412 0.247059 0.866667
0.235294 0.247059 0.862745
0.356863 0.247059 0.870588
0.494118 0.247059 0.870588
0.611765 0.250980 0.874510
0.741176 0.247059 0.870588
0.866667 0.254902 0.870588
0.992157 0.250980 0.874510
0.000000 0.368627 0.870588
0.058824 0.372549 0.874510
0.227451 0.372549 0.874510
0.360784 0.372549 0.874510
0.486275 0.368627 0.866667
0.611765 0.376471 0.874510
0.741176 0.376471 0.870588
0.866667 0.376471 0.870588
0.988235 0.372549 0.870588
0.000000 0.494118 0.874510
0.117647 0.498039 0.870588
0.250980 0.494118 0.870588
0.372549 0.494118 0.866667
0.494118 0.494118 0.870588
0.607843 0.501961 0.874510
0.745098 0.498039 0.870588
0.866667 0.498039 0.866667
0.984314 0.498039 0.870588
0.000000 0.623529 0.870588
0.117647 0.619608 0.870588
0.239216 0.619608 0.874510
0.364706 0.619608 0.874510
0.498039 0.619608 0.870588
0.623529 0.623529 0.870588
0.745098 0.619608 0.866667
0.862745 0.623529 0.870588
0.988235 0.623529 0.866667
0.000000 0.745098 0.870588
0.121569 0.745098 0.870588
0.250980 0.745098 0.870588
0.368627 0.745098 0.874510
0.501961 0.749020 0.870588
0.627451 0.745098 0.866667
0.745098 0.749020 0.870588
0.870588 0.745098 0.870588
0.992157 0.749020 0.870588
0.015686 0.870588 0.870588
0.121569 0.870588 0.874510
0.231373 0.874510 0.874510
0.364706 0.874510 0.874510
0.494118 0.866667 0.870588
0.615686 0.870588 0.874510
0.749020 0.870588 0.874510
0.870588 0.870588 0.870588
0.992157 0.870588 0.878431
0.000000 0.996078 0.870588
0.090196 1.000000 0.874510
0.258824 0.996078 0.870588
0.360784 0.996078 0.878431
0.486275 1.000000 0.882353
0.615686 0.996078 0.882353
0.745098 0.996078 0.878431
0.870588 0.996078 0.878431
0.992157 0.996078 0.878431
0.000000 0.007843 0.988235
0.125490 0.000000 0.988235
0.243137 0.007843 0.988235
0.360784 0.019608 0.992157
0.486275 0.015686 0.992157
0.619608 0.007843 0.988235
0.741176 0.000000 0.992157
0.862745 0.003922 0.996078
0.988235 0.047059 0.996078
0.050980 0.121569 0.988235
0.121569 0.121569 0.984314
0.235294 0.125490 0.988235
0.360784 0.121569 0.988235
0.490196 0.133333 0.988235
0.623529 0.129412 0.992157
0.741176 0.125490 0.992157
0.866667 0.125490 0.996078
0.992157 0.125490 0.992157
0.000000 0.250980 0.984314
0.121569 0.247059 0.984314
0.247059 0.243137 0.984314
0.368627 0.247059 0.992157
0.494118 0.243137 0.988235
0.607843 0.254902 1.000000
0.741176 0.250980 1.000000
0.862745 0.250980 0.996078
0.988235 0.258824 0.996078
0.007843 0.372549 0.992157
0.137255 0.368627 0.988235
0.250980 0.368627 0.984314
0.356863 0.372549 1.000000
0.482353 0.372549 1.000000
0.615686 0.372549 0.992157
0.741176 0.368627 0.992157
0.866667 0.376471 1.000000
0.992157 0.372549 0.996078
0.000000 0.494118 0.992157
0.129412 0.494118 1.000000
0.231373 0.498039 1.000000
0.349020 0.498039 0.992157
0.478431 0.498039 0.996078
0.611765 0.498039 1.000000
0.741176 0.498039 1.000000
0.862745 0.498039 1.000000
0.988235 0.501961 0.996078
0.000000 0.619608 0.996078
0.082353 0.619608 0.996078
0.239216 0.619608 1.000000
0.360784 0.623529 1.000000
0.498039 0.619608 0.996078
0.611765 0.619608 0.996078
0.741176 0.623529 0.992157
0.858824 0.623529 0.996078
0.988235 0.623529 0.996078
0.000000 0.745098 1.000000
0.105882 0.749020 0.996078
0.250980 0.745098 0.992157
0.356863 0.745098 0.996078
0.498039 0.745098 1.000000
0.623529 0.745098 0.996078
0.745098 0.749020 0.996078
0.870588 0.745098 0.992157
0.988235 0.752941 1.000000
0.000000 0.870588 0.996078
0.078431 0.870588 0.996078
0.250980 0.870588 0.992157
0.368627 0.870588 0.996078
0.498039 0.870588 0.992157
0.627451 0.870588 1.000000
0.741176 0.870588 0.996078
0.870588 0.870588 0.992157
0.992157 0.870588 0.992157
0.015686 1.000000 0.996078
0.121569 0.996078 0.996078
0.247059 0.996078 0.996078
0.372549 0.996078 0.992157
0.501961 0.996078 1.000000
0.623529 0.996078 0.996078
0.745098 0.996078 0.992157
0.878431 0.996078 0.996078
0.996078 0.996078 0.996078
