test_output_lut/图像2_ct.cube
TITLE "Color Transfer LUT - 图像2"
LUT_3D_SIZE 5
0.000000 0.000000 0.000000
0.239216 0.000000 0.011765
0.490196 0.007843 0.003922
0.737255 0.023529 0.003922
0.992157 0.031373 0.011765
0.003922 0.239216 0.000000
0.239216 0.243137 0.007843
0.490196 0.243137 0.007843
0.737255 0.250980 0.011765
0.992157 0.247059 0.003922
0.000000 0.494118 0.007843
0.247059 0.494118 0.023529
0.490196 0.494118 0.019608
0.745098 0.494118 0.023529
0.988235 0.501961 0.015686
0.000000 0.745098 0.019608
0.243137 0.745098 0.015686
0.494118 0.741176 0.011765
0.745098 0.741176 0.023529
0.992157 0.749020 0.027451
0.000000 0.996078 0.047059
0.223529 0.996078 0.023529
0.490196 0.996078 0.019608
0.741176 0.996078 0.090196
0.992157 0.996078 0.062745
0.003922 0.000000 0.243137
0.239216 0.007843 0.243137
0.490196 0.000000 0.243137
0.741176 0.019608 0.250980
0.988235 0.035294 0.250980
0.000000 0.247059 0.243137
0.243137 0.243137 0.243137
0.486275 0.250980 0.247059
0.737255 0.247059 0.247059
0.988235 0.250980 0.250980
0.000000 0.494118 0.250980
0.247059 0.494118 0.247059
0.490196 0.494118 0.247059
0.749020 0.494118 0.250980
0.984314 0.498039 0.247059
0.000000 0.745098 0.247059
0.247059 0.745098 0.247059
0.494118 0.745098 0.250980
0.741176 0.745098 0.247059
0.996078 0.745098 0.258824
0.000000 0.996078 0.254902
0.223529 1.000000 0.254902
0.494118 0.996078 0.254902
0.745098 0.996078 0.250980
0.996078 0.996078 0.258824
0.000000 0.007843 0.494118
0.239216 0.007843 0.494118
0.490196 0.000000 0.490196
0.741176 0.023529 0.498039
0.988235 0.047059 0.498039
0.000000 0.247059 0.494118
0.247059 0.243137 0.490196
0.490196 0.250980 0.494118
0.741176 0.247059 0.494118
0.988235 0.254902 0.498039
0.000000 0.494118 0.490196
0.250980 0.494118 0.494118
0.494118 0.494118 0.494118
0.737255 0.494118 0.501961
0.992157 0.498039 0.501961
0.000000 0.745098 0.501961
0.223529 0.745098 0.505882
0.494118 0.745098 0.501961
0.741176 0.745098 0.505882
0.996078 0.745098 0.501961
0.000000 0.996078 0.501961
0.227451 0.996078 0.501961
0.494118 0.996078 0.501961
0.741176 1.000000 0.505882
0.988235 0.996078 0.505882
0.000000 0.000000 0.737255
0.243137 0.007843 0.737255
0.486275 0.011765 0.745098
0.741176 0.023529 0.745098
0.988235 0.047059 0.749020
0.000000 0.247059 0.745098
0.223529 0.250980 0.745098
0.486275 0.243137 0.745098
0.741176 0.250980 0.749020
0.988235 0.247059 0.745098
0.000000 0.494118 0.749020
0.231373 0.494118 0.749020
0.498039 0.494118 0.745098
0.737255 0.498039 0.741176
0.992157 0.498039 0.749020
0.000000 0.745098 0.741176
0.243137 0.745098 0.745098
0.494118 0.745098 0.749020
0.745098 0.745098 0.745098
0.992157 0.745098 0.752941
0.000000 0.996078 0.749020
0.219608 0.996078 0.756863
0.486275 0.996078 0.752941
0.741176 0.996078 0.756863
0.996078 1.000000 0.752941
0.000000 0.007843 0.988235
0.243137 0.007843 0.988235
0.486275 0.015686 0.992157
0.741176 0.000000 0.992157
0.988235 0.047059 0.996078
0.000000 0.250980 0.984314
0.247059 0.243137 0.984314
0.494118 0.243137 0.988235
0.741176 0.250980 1.000000
0.988235 0.258824 0.996078
0.000000 0.494118 0.992157
0.231373 0.498039 1.000000
0.478431 0.498039 0.996078
0.741176 0.498039 1.000000
0.988235 0.501961 0.996078
0.000000 0.745098 1.000000
0.250980 0.745098 0.992157
0.498039 0.745098 1.000000
0.745098 0.749020 0.996078
0.988235 0.752941 1.000000
0.015686 1.000000 0.996078
0.247059 0.996078 0.996078
0.501961 0.996078 1.000000
0.745098 0.996078 0.992157
0.996078 0.996078 0.996078
