test_output_lut/图像_ct.cube
TITLE "Color Transfer LUT - 图像"
LUT_3D_SIZE 5
0.000000 0.003922 0.000000
0.243137 0.003922 0.007843
0.498039 0.015686 0.000000
0.741176 0.039216 0.000000
0.996078 0.050980 0.000000
0.000000 0.247059 0.000000
0.239216 0.247059 0.000000
0.494118 0.250980 0.003922
0.741176 0.254902 0.003922
0.996078 0.250980 0.000000
0.019608 0.498039 0.000000
0.254902 0.498039 0.007843
0.490196 0.498039 0.003922
0.745098 0.501961 0.007843
0.996078 0.505882 0.000000
0.023529 0.749020 0.000000
0.254902 0.749020 0.000000
0.501961 0.745098 0.000000
0.741176 0.749020 0.000000
0.992157 0.752941 0.000000
0.027451 1.000000 0.011765
0.235294 1.000000 0.000000
0.498039 1.000000 0.000000
0.749020 1.000000 0.023529
0.992157 1.000000 0.000000
0.000000 0.003922 0.250980
0.243137 0.007843 0.247059
0.494118 0.007843 0.243137
0.745098 0.031373 0.247059
0.996078 0.050980 0.250980
0.000000 0.250980 0.247059
0.239216 0.250980 0.247059
0.490196 0.250980 0.247059
0.741176 0.250980 0.243137
0.996078 0.254902 0.247059
0.003922 0.498039 0.250980
0.243137 0.498039 0.243137
0.490196 0.498039 0.239216
0.749020 0.501961 0.247059
0.992157 0.501961 0.243137
0.007843 0.749020 0.243137
0.254902 0.749020 0.243137
0.498039 0.749020 0.247059
0.741176 0.752941 0.243137
0.996078 0.749020 0.250980
0.000000 1.000000 0.247059
0.235294 1.000000 0.247059
0.501961 1.000000 0.250980
0.752941 1.000000 0.243137
0.996078 1.000000 0.250980
0.000000 0.011765 0.501961
0.235294 0.011765 0.505882
0.494118 0.007843 0.494118
0.745098 0.039216 0.501961
0.992157 0.058824 0.494118
0.000000 0.250980 0.505882
0.243137 0.250980 0.494118
0.494118 0.254902 0.498039
0.745098 0.250980 0.498039
0.992157 0.258824 0.494118
0.000000 0.498039 0.494118
0.243137 0.501961 0.498039
0.494118 0.501961 0.498039
0.741176 0.498039 0.498039
1.000000 0.501961 0.498039
0.043137 0.749020 0.498039
0.239216 0.749020 0.501961
0.490196 0.749020 0.498039
0.741176 0.752941 0.501961
0.996078 0.752941 0.498039
0.000000 1.000000 0.498039
0.243137 1.000000 0.498039
0.501961 1.000000 0.498039
0.745098 1.000000 0.501961
0.988235 1.000000 0.501961
0.000000 0.015686 0.756863
0.223529 0.023529 0.756863
0.486275 0.027451 0.752941
0.741176 0.043137 0.756863
0.996078 0.062745 0.752941
0.000000 0.250980 0.756863
0.215686 0.254902 0.756863
0.486275 0.250980 0.756863
0.741176 0.258824 0.760784
0.996078 0.254902 0.752941
0.000000 0.498039 0.756863
0.203922 0.501961 0.756863
0.494118 0.501961 0.749020
0.741176 0.501961 0.745098
0.996078 0.501961 0.752941
0.000000 0.749020 0.745098
0.227451 0.752941 0.749020
0.490196 0.752941 0.752941
0.741176 0.749020 0.749020
0.996078 0.752941 0.749020
0.000000 1.000000 0.745098
0.243137 1.000000 0.752941
0.498039 1.000000 0.749020
0.737255 1.000000 0.752941
0.992157 1.000000 0.749020
0.000000 0.035294 1.000000
0.207843 0.031373 1.000000
0.474510 0.043137 1.000000
0.741176 0.019608 1.000000
0.988235 0.070588 1.000000
0.000000 0.254902 1.000000
0.215686 0.250980 1.000000
0.482353 0.250980 1.000000
0.741176 0.254902 1.000000
0.992157 0.262745 1.000000
0.000000 0.501961 1.000000
0.192157 0.501961 1.000000
0.474510 0.501961 1.000000
0.741176 0.501961 1.000000
0.992157 0.505882 1.000000
0.000000 0.752941 1.000000
0.207843 0.752941 1.000000
0.482353 0.752941 1.000000
0.741176 0.756863 1.000000
0.992157 0.756863 1.000000
0.047059 1.000000 1.000000
0.254902 1.000000 1.000000
0.505882 1.000000 1.000000
0.741176 1.000000 0.996078
0.992157 1.000000 1.000000
