test_output_lut/图像_ct.cube
TITLE "Color Transfer LUT - 图像"
LUT_3D_SIZE 33
0.000000 0.003922 0.000000
0.019608 0.003922 0.000000
0.050980 0.000000 0.000000
0.078431 0.011765 0.000000
0.117647 0.007843 0.000000
0.149020 0.007843 0.003922
0.180392 0.007843 0.007843
0.211765 0.007843 0.000000
0.243137 0.003922 0.007843
0.278431 0.000000 0.000000
0.305882 0.011765 0.003922
0.337255 0.007843 0.003922
0.364706 0.019608 0.000000
0.400000 0.011765 0.000000
0.435294 0.007843 0.000000
0.462745 0.023529 0.003922
0.498039 0.015686 0.000000
0.525490 0.011765 0.000000
0.556863 0.019608 0.003922
0.588235 0.023529 0.000000
0.615686 0.023529 0.003922
0.650980 0.031373 0.000000
0.682353 0.007843 0.003922
0.717647 0.011765 0.003922
0.741176 0.039216 0.000000
0.776471 0.047059 0.000000
0.803922 0.043137 0.000000
0.839216 0.050980 0.000000
0.870588 0.050980 0.000000
0.898039 0.047059 0.003922
0.929412 0.043137 0.000000
0.964706 0.054902 0.007843
0.996078 0.050980 0.000000
0.000000 0.023529 0.000000
0.007843 0.039216 0.007843
0.054902 0.027451 0.007843
0.090196 0.023529 0.000000
0.121569 0.023529 0.000000
0.145098 0.039216 0.003922
0.184314 0.023529 0.000000
0.211765 0.023529 0.000000
0.247059 0.027451 0.003922
0.274510 0.035294 0.003922
0.305882 0.035294 0.000000
0.341176 0.031373 0.003922
0.368627 0.023529 0.007843
0.400000 0.047059 0.000000
0.431373 0.035294 0.000000
0.462745 0.043137 0.000000
0.494118 0.050980 0.000000
0.525490 0.035294 0.000000
0.556863 0.043137 0.000000
0.588235 0.050980 0.000000
0.615686 0.050980 0.000000
0.650980 0.031373 0.000000
0.682353 0.039216 0.000000
0.713726 0.039216 0.003922
0.745098 0.047059 0.000000
0.776471 0.047059 0.000000
0.811765 0.054902 0.000000
0.839216 0.050980 0.000000
0.870588 0.050980 0.000000
0.905882 0.058824 0.000000
0.933333 0.058824 0.000000
0.964706 0.050980 0.000000
0.996078 0.050980 0.000000
0.000000 0.062745 0.000000
0.000000 0.062745 0.000000
0.050980 0.058824 0.000000
0.082353 0.062745 0.000000
0.117647 0.062745 0.007843
0.149020 0.062745 0.000000
0.180392 0.058824 0.000000
0.215686 0.062745 0.003922
0.243137 0.066667 0.000000
0.274510 0.070588 0.000000
0.305882 0.066667 0.000000
0.337255 0.062745 0.003922
0.368627 0.070588 0.000000
0.400000 0.070588 0.000000
0.431373 0.066667 0.000000
0.462745 0.074510 0.003922
0.494118 0.066667 0.007843
0.525490 0.074510 0.000000
0.556863 0.066667 0.000000
0.588235 0.074510 0.000000
0.619608 0.074510 0.000000
0.650980 0.082353 0.000000
0.678431 0.082353 0.000000
0.717647 0.078431 0.000000
0.745098 0.078431 0.003922
0.776471 0.078431 0.000000
0.811765 0.086275 0.007843
0.839216 0.086275 0.003922
0.870588 0.086275 0.000000
0.901961 0.082353 0.000000
0.937255 0.090196 0.003922
0.964706 0.090196 0.000000
0.996078 0.090196 0.003922
0.000000 0.090196 0.000000
0.007843 0.094118 0.007843
0.054902 0.090196 0.003922
0.086275 0.090196 0.000000
0.121569 0.086275 0.000000
0.149020 0.094118 0.000000
0.184314 0.090196 0.000000
0.211765 0.094118 0.000000
0.243137 0.094118 0.007843
0.270588 0.098039 0.000000
0.309804 0.090196 0.003922
0.337255 0.090196 0.000000
0.368627 0.098039 0.003922
0.403922 0.094118 0.007843
0.427451 0.098039 0.000000
0.462745 0.098039 0.003922
0.494118 0.094118 0.003922
0.525490 0.090196 0.003922
0.556863 0.098039 0.007843
0.584314 0.098039 0.000000
0.619608 0.094118 0.000000
0.650980 0.098039 0.003922
0.678431 0.101961 0.000000
0.713726 0.109804 0.000000
0.749020 0.098039 0.003922
0.776471 0.098039 0.000000
0.803922 0.101961 0.007843
0.839216 0.109804 0.003922
0.870588 0.109804 0.000000
0.901961 0.109804 0.000000
0.929412 0.109804 0.000000
0.960784 0.109804 0.000000
0.996078 0.117647 0.007843
0.003922 0.121569 0.000000
0.011765 0.125490 0.000000
0.054902 0.121569 0.003922
0.086275 0.125490 0.000000
0.117647 0.121569 0.000000
0.145098 0.125490 0.000000
0.180392 0.121569 0.003922
0.207843 0.125490 0.000000
0.243137 0.125490 0.003922
0.270588 0.121569 0.000000
0.305882 0.121569 0.003922
0.337255 0.121569 0.003922
0.368627 0.125490 0.000000
0.400000 0.125490 0.000000
0.427451 0.125490 0.000000
0.462745 0.129412 0.003922
0.494118 0.129412 0.003922
0.525490 0.125490 0.003922
0.552941 0.129412 0.000000
0.588235 0.125490 0.000000
0.615686 0.129412 0.000000
0.650980 0.129412 0.000000
0.682353 0.133333 0.003922
0.713726 0.125490 0.000000
0.745098 0.129412 0.000000
0.776471 0.137255 0.003922
0.807843 0.141176 0.000000
0.835294 0.141176 0.003922
0.870588 0.133333 0.000000
0.901961 0.133333 0.000000
0.933333 0.133333 0.000000
0.960784 0.133333 0.000000
0.996078 0.141176 0.000000
0.000000 0.152941 0.000000
0.015686 0.152941 0.000000
0.058824 0.152941 0.007843
0.086275 0.152941 0.003922
0.121569 0.152941 0.003922
0.149020 0.156863 0.000000
0.180392 0.152941 0.000000
0.207843 0.156863 0.003922
0.239216 0.156863 0.000000
0.274510 0.156863 0.000000
0.305882 0.156863 0.000000
0.341176 0.156863 0.000000
0.368627 0.152941 0.003922
0.400000 0.156863 0.000000
0.431373 0.160784 0.003922
0.466667 0.156863 0.003922
0.498039 0.156863 0.003922
0.529412 0.156863 0.000000
0.556863 0.160784 0.000000
0.588235 0.160784 0.007843
0.619608 0.160784 0.003922
0.647059 0.164706 0.000000
0.682353 0.160784 0.000000
0.709804 0.164706 0.000000
0.745098 0.160784 0.000000
0.772549 0.160784 0.000000
0.807843 0.156863 0.000000
0.839216 0.160784 0.000000
0.870588 0.168627 0.007843
0.901961 0.168627 0.000000
0.933333 0.172549 0.000000
0.964706 0.172549 0.000000
1.000000 0.164706 0.000000
0.003922 0.184314 0.003922
0.027451 0.180392 0.000000
0.047059 0.188235 0.003922
0.078431 0.184314 0.003922
0.113725 0.184314 0.000000
0.149020 0.184314 0.000000
0.176471 0.184314 0.000000
0.211765 0.188235 0.007843
0.239216 0.188235 0.000000
0.274510 0.188235 0.003922
0.305882 0.188235 0.000000
0.337255 0.188235 0.000000
0.368627 0.184314 0.000000
0.403922 0.188235 0.003922
0.431373 0.188235 0.000000
0.466667 0.188235 0.007843
0.498039 0.188235 0.003922
0.525490 0.188235 0.000000
0.556863 0.188235 0.000000
0.588235 0.188235 0.003922
0.623529 0.188235 0.000000
0.654902 0.188235 0.000000
0.682353 0.192157 0.000000
0.717647 0.192157 0.007843
0.745098 0.196078 0.000000
0.780392 0.192157 0.000000
0.803922 0.192157 0.000000
0.839216 0.188235 0.000000
0.874510 0.196078 0.000000
0.898039 0.196078 0.000000
0.933333 0.188235 0.000000
0.964706 0.192157 0.003922
0.996078 0.192157 0.000000
0.000000 0.215686 0.000000
0.000000 0.219608 0.003922
0.050980 0.219608 0.000000
0.086275 0.215686 0.000000
0.109804 0.219608 0.000000
0.152941 0.215686 0.000000
0.180392 0.215686 0.003922
0.211765 0.215686 0.003922
0.239216 0.215686 0.000000
0.270588 0.219608 0.000000
0.309804 0.219608 0.000000
0.337255 0.215686 0.000000
0.368627 0.215686 0.000000
0.403922 0.219608 0.000000
0.431373 0.219608 0.000000
0.462745 0.219608 0.000000
0.494118 0.223529 0.000000
0.525490 0.219608 0.000000
0.556863 0.223529 0.003922
0.584314 0.219608 0.000000
0.619608 0.223529 0.000000
0.650980 0.223529 0.000000
0.682353 0.223529 0.000000
0.713726 0.219608 0.000000
0.741176 0.223529 0.000000
0.776471 0.223529 0.000000
0.811765 0.219608 0.000000
0.839216 0.227451 0.000000
0.870588 0.231373 0.000000
0.898039 0.223529 0.007843
0.929412 0.227451 0.000000
0.964706 0.219608 0.000000
0.996078 0.223529 0.003922
0.000000 0.247059 0.000000
0.015686 0.247059 0.000000
0.047059 0.247059 0.000000
0.070588 0.250980 0.000000
0.113725 0.247059 0.000000
0.141176 0.247059 0.003922
0.180392 0.250980 0.000000
0.207843 0.247059 0.000000
0.239216 0.247059 0.000000
0.274510 0.250980 0.000000
0.305882 0.250980 0.007843
0.337255 0.247059 0.007843
0.368627 0.250980 0.000000
0.400000 0.250980 0.003922
0.431373 0.250980 0.000000
0.466667 0.250980 0.000000
0.494118 0.250980 0.003922
0.525490 0.247059 0.000000
0.556863 0.250980 0.003922
0.588235 0.247059 0.000000
0.619608 0.254902 0.003922
0.650980 0.250980 0.000000
0.686275 0.250980 0.003922
0.713726 0.258824 0.000000
0.741176 0.254902 0.003922
0.776471 0.254902 0.000000
0.811765 0.254902 0.007843
0.835294 0.254902 0.000000
0.870588 0.254902 0.007843
0.901961 0.258824 0.000000
0.937255 0.254902 0.000000
0.960784 0.254902 0.000000
0.996078 0.250980 0.000000
0.000000 0.282353 0.000000
0.007843 0.278431 0.000000
0.047059 0.278431 0.000000
0.074510 0.282353 0.000000
0.113725 0.282353 0.000000
0.141176 0.282353 0.003922
0.180392 0.278431 0.000000
0.207843 0.282353 0.000000
0.239216 0.278431 0.000000
0.270588 0.282353 0.000000
0.305882 0.278431 0.003922
0.337255 0.278431 0.003922
0.368627 0.282353 0.000000
0.400000 0.278431 0.000000
0.431373 0.282353 0.000000
0.462745 0.282353 0.003922
0.490196 0.282353 0.000000
0.525490 0.282353 0.000000
0.556863 0.282353 0.003922
0.584314 0.282353 0.000000
0.619608 0.286275 0.003922
0.647059 0.286275 0.000000
0.686275 0.282353 0.003922
0.713726 0.282353 0.000000
0.749020 0.286275 0.000000
0.776471 0.282353 0.007843
0.807843 0.290196 0.000000
0.835294 0.286275 0.007843
0.870588 0.286275 0.000000
0.905882 0.286275 0.000000
0.933333 0.286275 0.000000
0.968627 0.282353 0.000000
0.996078 0.290196 0.000000
0.000000 0.309804 0.003922
0.019608 0.309804 0.007843
0.047059 0.309804 0.000000
0.086275 0.313726 0.003922
0.113725 0.309804 0.003922
0.137255 0.309804 0.000000
0.172549 0.313726 0.007843
0.207843 0.313726 0.000000
0.243137 0.309804 0.000000
0.274510 0.313726 0.007843
0.305882 0.313726 0.000000
0.333333 0.313726 0.003922
0.368627 0.313726 0.003922
0.400000 0.309804 0.000000
0.431373 0.313726 0.000000
0.458824 0.309804 0.000000
0.494118 0.313726 0.000000
0.529412 0.313726 0.003922
0.556863 0.313726 0.000000
0.588235 0.313726 0.000000
0.619608 0.313726 0.000000
0.647059 0.313726 0.007843
0.682353 0.309804 0.000000
0.713726 0.313726 0.007843
0.745098 0.313726 0.000000
0.776471 0.317647 0.003922
0.807843 0.317647 0.000000
0.835294 0.313726 0.000000
0.870588 0.313726 0.000000
0.898039 0.317647 0.000000
0.933333 0.317647 0.000000
0.968627 0.317647 0.003922
0.992157 0.317647 0.007843
0.007843 0.341176 0.000000
0.035294 0.341176 0.000000
0.066667 0.341176 0.000000
0.082353 0.341176 0.003922
0.105882 0.345098 0.000000
0.141176 0.341176 0.000000
0.176471 0.341176 0.000000
0.207843 0.345098 0.003922
0.243137 0.341176 0.000000
0.274510 0.341176 0.003922
0.301961 0.341176 0.000000
0.333333 0.341176 0.000000
0.364706 0.345098 0.000000
0.396078 0.341176 0.000000
0.427451 0.341176 0.000000
0.462745 0.345098 0.000000
0.490196 0.341176 0.003922
0.525490 0.345098 0.000000
0.560784 0.345098 0.000000
0.588235 0.345098 0.000000
0.623529 0.345098 0.007843
0.647059 0.345098 0.000000
0.686275 0.345098 0.000000
0.713726 0.345098 0.003922
0.745098 0.345098 0.000000
0.772549 0.345098 0.000000
0.803922 0.345098 0.003922
0.839216 0.349020 0.000000
0.866667 0.345098 0.003922
0.901961 0.349020 0.000000
0.933333 0.345098 0.003922
0.964706 0.341176 0.000000
0.992157 0.349020 0.000000
0.000000 0.372549 0.000000
0.023529 0.372549 0.007843
0.050980 0.372549 0.007843
0.078431 0.372549 0.000000
0.113725 0.372549 0.000000
0.145098 0.372549 0.007843
0.172549 0.376471 0.000000
0.203922 0.376471 0.003922
0.235294 0.376471 0.000000
0.266667 0.372549 0.003922
0.305882 0.376471 0.003922
0.337255 0.372549 0.000000
0.368627 0.372549 0.000000
0.396078 0.376471 0.000000
0.427451 0.372549 0.000000
0.462745 0.376471 0.000000
0.490196 0.376471 0.000000
0.521569 0.372549 0.000000
0.556863 0.376471 0.000000
0.592157 0.376471 0.007843
0.615686 0.376471 0.000000
0.650980 0.376471 0.007843
0.678431 0.376471 0.000000
0.713726 0.376471 0.003922
0.745098 0.376471 0.000000
0.772549 0.376471 0.000000
0.807843 0.372549 0.003922
0.839216 0.372549 0.000000
0.874510 0.376471 0.003922
0.901961 0.376471 0.007843
0.933333 0.372549 0.000000
0.964706 0.380392 0.007843
0.996078 0.376471 0.000000
0.007843 0.403922 0.000000
0.007843 0.403922 0.000000
0.074510 0.403922 0.000000
0.094118 0.403922 0.000000
0.117647 0.407843 0.007843
0.149020 0.403922 0.000000
0.184314 0.403922 0.000000
0.207843 0.403922 0.007843
0.239216 0.403922 0.000000
0.266667 0.403922 0.007843
0.305882 0.407843 0.003922
0.333333 0.407843 0.000000
0.368627 0.407843 0.000000
0.400000 0.407843 0.000000
0.427451 0.403922 0.003922
0.466667 0.407843 0.007843
0.498039 0.407843 0.007843
0.525490 0.403922 0.007843
0.552941 0.407843 0.000000
0.588235 0.407843 0.007843
0.619608 0.403922 0.000000
0.647059 0.407843 0.000000
0.682353 0.407843 0.003922
0.713726 0.411765 0.007843
0.749020 0.407843 0.000000
0.776471 0.411765 0.000000
0.807843 0.411765 0.007843
0.843137 0.407843 0.000000
0.874510 0.407843 0.000000
0.901961 0.407843 0.007843
0.933333 0.407843 0.000000
0.964706 0.407843 0.000000
0.992157 0.411765 0.003922
0.000000 0.439216 0.003922
0.027451 0.435294 0.003922
0.062745 0.435294 0.003922
0.086275 0.435294 0.003922
0.113725 0.435294 0.000000
0.156863 0.435294 0.000000
0.188235 0.435294 0.003922
0.223529 0.435294 0.000000
0.235294 0.439216 0.000000
0.266667 0.439216 0.000000
0.294118 0.435294 0.000000
0.333333 0.439216 0.000000
0.364706 0.435294 0.007843
0.396078 0.439216 0.000000
0.427451 0.439216 0.003922
0.458824 0.435294 0.000000
0.490196 0.435294 0.000000
0.525490 0.439216 0.000000
0.556863 0.439216 0.000000
0.588235 0.435294 0.000000
0.619608 0.439216 0.003922
0.650980 0.439216 0.003922
0.686275 0.439216 0.007843
0.709804 0.439216 0.007843
0.741176 0.439216 0.000000
0.776471 0.439216 0.000000
0.807843 0.439216 0.007843
0.843137 0.439216 0.000000
0.874510 0.439216 0.000000
0.901961 0.439216 0.003922
0.933333 0.439216 0.007843
0.964706 0.439216 0.000000
0.996078 0.439216 0.003922
0.000000 0.466667 0.007843
0.007843 0.466667 0.000000
0.047059 0.466667 0.000000
0.101961 0.462745 0.000000
0.125490 0.466667 0.000000
0.149020 0.470588 0.003922
0.188235 0.466667 0.007843
0.215686 0.466667 0.000000
0.250980 0.466667 0.003922
0.274510 0.470588 0.000000
0.301961 0.466667 0.003922
0.333333 0.466667 0.000000
0.368627 0.470588 0.000000
0.396078 0.466667 0.000000
0.431373 0.470588 0.000000
0.462745 0.470588 0.000000
0.486275 0.466667 0.000000
0.521569 0.466667 0.000000
0.552941 0.466667 0.000000
0.588235 0.470588 0.000000
0.619608 0.470588 0.007843
0.647059 0.470588 0.000000
0.682353 0.470588 0.000000
0.713726 0.466667 0.000000
0.745098 0.470588 0.000000
0.780392 0.470588 0.007843
0.803922 0.470588 0.007843
0.835294 0.470588 0.000000
0.870588 0.470588 0.000000
0.901961 0.470588 0.003922
0.933333 0.470588 0.007843
0.964706 0.474510 0.000000
0.996078 0.474510 0.000000
0.019608 0.498039 0.000000
0.019608 0.498039 0.000000
0.058824 0.498039 0.000000
0.098039 0.498039 0.000000
0.117647 0.498039 0.000000
0.156863 0.498039 0.007843
0.188235 0.498039 0.000000
0.215686 0.498039 0.000000
0.254902 0.498039 0.007843
0.278431 0.501961 0.000000
0.301961 0.501961 0.007843
0.333333 0.501961 0.000000
0.364706 0.498039 0.007843
0.396078 0.501961 0.003922
0.423529 0.501961 0.000000
0.458824 0.501961 0.000000
0.490196 0.498039 0.003922
0.521569 0.498039 0.000000
0.556863 0.498039 0.000000
0.584314 0.501961 0.000000
0.615686 0.498039 0.000000
0.650980 0.501961 0.003922
0.686275 0.501961 0.003922
0.709804 0.501961 0.000000
0.745098 0.501961 0.007843
0.772549 0.501961 0.003922
0.807843 0.501961 0.000000
0.835294 0.501961 0.000000
0.866667 0.501961 0.000000
0.901961 0.501961 0.003922
0.933333 0.501961 0.007843
0.964706 0.505882 0.000000
0.996078 0.505882 0.000000
0.000000 0.529412 0.000000
0.035294 0.529412 0.000000
0.035294 0.529412 0.000000
0.082353 0.529412 0.003922
0.129412 0.529412 0.007843
0.152941 0.533333 0.011765
0.188235 0.529412 0.000000
0.219608 0.529412 0.003922
0.247059 0.533333 0.011765
0.278431 0.529412 0.000000
0.309804 0.529412 0.003922
0.333333 0.529412 0.000000
0.368627 0.533333 0.007843
0.396078 0.533333 0.000000
0.431373 0.529412 0.000000
0.458824 0.533333 0.007843
0.490196 0.529412 0.000000
0.525490 0.529412 0.000000
0.552941 0.533333 0.000000
0.588235 0.533333 0.000000
0.619608 0.533333 0.011765
0.647059 0.533333 0.000000
0.678431 0.533333 0.007843
0.713726 0.529412 0.000000
0.745098 0.533333 0.000000
0.776471 0.533333 0.000000
0.807843 0.533333 0.000000
0.839216 0.533333 0.000000
0.870588 0.533333 0.000000
0.901961 0.529412 0.000000
0.933333 0.533333 0.000000
0.964706 0.533333 0.000000
0.996078 0.537255 0.000000
0.000000 0.560784 0.000000
0.000000 0.560784 0.000000
0.062745 0.564706 0.007843
0.094118 0.560784 0.007843
0.117647 0.560784 0.007843
0.145098 0.560784 0.000000
0.184314 0.560784 0.000000
0.219608 0.564706 0.007843
0.243137 0.560784 0.000000
0.282353 0.560784 0.000000
0.305882 0.560784 0.007843
0.341176 0.560784 0.000000
0.368627 0.560784 0.007843
0.400000 0.560784 0.000000
0.431373 0.564706 0.011765
0.458824 0.564706 0.003922
0.494118 0.564706 0.000000
0.521569 0.564706 0.000000
0.556863 0.564706 0.000000
0.588235 0.564706 0.007843
0.619608 0.564706 0.003922
0.647059 0.560784 0.000000
0.686275 0.564706 0.003922
0.713726 0.564706 0.000000
0.745098 0.564706 0.000000
0.776471 0.560784 0.000000
0.807843 0.564706 0.003922
0.839216 0.564706 0.003922
0.866667 0.560784 0.000000
0.898039 0.564706 0.007843
0.937255 0.564706 0.019608
0.960784 0.564706 0.000000
0.992157 0.564706 0.000000
0.011765 0.592157 0.007843
0.011765 0.592157 0.007843
0.062745 0.588235 0.007843
0.082353 0.596078 0.000000
0.133333 0.592157 0.015686
0.156863 0.592157 0.000000
0.180392 0.592157 0.003922
0.211765 0.592157 0.003922
0.247059 0.592157 0.000000
0.274510 0.596078 0.000000
0.309804 0.596078 0.011765
0.341176 0.588235 0.000000
0.376471 0.592157 0.007843
0.407843 0.592157 0.000000
0.427451 0.596078 0.007843
0.454902 0.592157 0.000000
0.494118 0.596078 0.000000
0.521569 0.596078 0.007843
0.556863 0.596078 0.003922
0.580392 0.592157 0.000000
0.615686 0.592157 0.000000
0.650980 0.592157 0.000000
0.678431 0.596078 0.007843
0.713726 0.596078 0.007843
0.745098 0.592157 0.007843
0.772549 0.596078 0.003922
0.811765 0.596078 0.011765
0.835294 0.596078 0.007843
0.870588 0.592157 0.007843
0.901961 0.596078 0.000000
0.929412 0.596078 0.000000
0.964706 0.596078 0.000000
0.992157 0.596078 0.000000
0.000000 0.623529 0.000000
0.039216 0.623529 0.000000
0.027451 0.623529 0.007843
0.094118 0.627451 0.000000
0.121569 0.623529 0.000000
0.149020 0.623529 0.000000
0.192157 0.623529 0.007843
0.207843 0.623529 0.007843
0.243137 0.627451 0.000000
0.282353 0.619608 0.000000
0.309804 0.623529 0.007843
0.337255 0.623529 0.000000
0.368627 0.623529 0.007843
0.403922 0.623529 0.000000
0.439216 0.623529 0.007843
0.458824 0.627451 0.000000
0.494118 0.627451 0.000000
0.517647 0.623529 0.000000
0.556863 0.627451 0.000000
0.580392 0.623529 0.011765
0.619608 0.627451 0.007843
0.647059 0.627451 0.007843
0.682353 0.627451 0.003922
0.717647 0.627451 0.000000
0.745098 0.627451 0.000000
0.776471 0.627451 0.000000
0.803922 0.627451 0.000000
0.839216 0.627451 0.000000
0.866667 0.627451 0.000000
0.898039 0.623529 0.000000
0.929412 0.627451 0.000000
0.964706 0.623529 0.000000
0.996078 0.627451 0.003922
0.000000 0.654902 0.000000
0.054902 0.654902 0.000000
0.054902 0.654902 0.000000
0.098039 0.654902 0.000000
0.133333 0.654902 0.000000
0.160784 0.654902 0.003922
0.180392 0.654902 0.003922
0.219608 0.654902 0.015686
0.239216 0.654902 0.000000
0.282353 0.654902 0.000000
0.313726 0.654902 0.011765
0.341176 0.658824 0.000000
0.368627 0.654902 0.000000
0.403922 0.654902 0.000000
0.435294 0.650980 0.000000
0.470588 0.654902 0.000000
0.490196 0.658824 0.007843
0.517647 0.654902 0.000000
0.556863 0.658824 0.000000
0.584314 0.658824 0.003922
0.619608 0.658824 0.000000
0.647059 0.654902 0.000000
0.682353 0.654902 0.000000
0.717647 0.654902 0.000000
0.745098 0.658824 0.007843
0.776471 0.658824 0.007843
0.803922 0.658824 0.003922
0.839216 0.658824 0.003922
0.866667 0.658824 0.000000
0.901961 0.654902 0.000000
0.933333 0.658824 0.007843
0.960784 0.658824 0.003922
0.992157 0.654902 0.003922
0.007843 0.686275 0.000000
0.007843 0.686275 0.000000
0.074510 0.686275 0.000000
0.109804 0.686275 0.000000
0.109804 0.686275 0.000000
0.145098 0.690196 0.007843
0.168627 0.686275 0.007843
0.219608 0.690196 0.000000
0.250980 0.686275 0.000000
0.282353 0.686275 0.007843
0.309804 0.686275 0.007843
0.337255 0.686275 0.000000
0.376471 0.686275 0.007843
0.400000 0.686275 0.000000
0.431373 0.686275 0.003922
0.466667 0.686275 0.000000
0.494118 0.686275 0.003922
0.525490 0.686275 0.000000
0.552941 0.690196 0.011765
0.584314 0.690196 0.000000
0.619608 0.690196 0.000000
0.647059 0.690196 0.007843
0.682353 0.690196 0.007843
0.709804 0.690196 0.003922
0.741176 0.686275 0.000000
0.772549 0.690196 0.000000
0.807843 0.686275 0.000000
0.835294 0.690196 0.000000
0.866667 0.686275 0.011765
0.894118 0.690196 0.007843
0.933333 0.690196 0.019608
0.960784 0.690196 0.015686
0.996078 0.690196 0.011765
0.023529 0.721569 0.000000
0.023529 0.721569 0.000000
0.086275 0.717647 0.000000
0.086275 0.717647 0.000000
0.121569 0.717647 0.003922
0.149020 0.717647 0.003922
0.180392 0.717647 0.015686
0.223529 0.717647 0.000000
0.247059 0.721569 0.000000
0.278431 0.717647 0.003922
0.309804 0.717647 0.015686
0.341176 0.721569 0.000000
0.376471 0.717647 0.000000
0.400000 0.717647 0.015686
0.435294 0.717647 0.000000
0.466667 0.717647 0.000000
0.498039 0.717647 0.000000
0.533333 0.721569 0.000000
0.552941 0.721569 0.007843
0.580392 0.721569 0.000000
0.619608 0.721569 0.000000
0.647059 0.721569 0.003922
0.682353 0.721569 0.000000
0.709804 0.721569 0.000000
0.745098 0.721569 0.015686
0.772549 0.721569 0.007843
0.807843 0.721569 0.007843
0.835294 0.717647 0.000000
0.870588 0.717647 0.000000
0.898039 0.717647 0.000000
0.937255 0.721569 0.000000
0.964706 0.721569 0.000000
0.992157 0.721569 0.000000
0.023529 0.749020 0.000000
0.023529 0.749020 0.000000
0.023529 0.749020 0.000000
0.101961 0.752941 0.007843
0.133333 0.749020 0.007843
0.164706 0.749020 0.011765
0.192157 0.749020 0.000000
0.219608 0.749020 0.000000
0.254902 0.749020 0.000000
0.274510 0.752941 0.007843
0.305882 0.749020 0.007843
0.337255 0.749020 0.000000
0.376471 0.749020 0.007843
0.403922 0.752941 0.000000
0.435294 0.749020 0.000000
0.466667 0.749020 0.007843
0.501961 0.745098 0.000000
0.525490 0.752941 0.019608
0.564706 0.749020 0.000000
0.584314 0.749020 0.019608
0.615686 0.749020 0.000000
0.647059 0.752941 0.000000
0.682353 0.749020 0.000000
0.709804 0.752941 0.007843
0.741176 0.749020 0.000000
0.772549 0.752941 0.000000
0.807843 0.752941 0.000000
0.839216 0.752941 0.019608
0.874510 0.752941 0.015686
0.901961 0.752941 0.007843
0.929412 0.756863 0.007843
0.964706 0.752941 0.007843
0.992157 0.752941 0.000000
0.000000 0.784314 0.003922
0.047059 0.780392 0.003922
0.047059 0.780392 0.003922
0.101961 0.780392 0.007843
0.101961 0.780392 0.007843
0.149020 0.784314 0.019608
0.180392 0.780392 0.000000
0.223529 0.780392 0.000000
0.250980 0.784314 0.000000
0.282353 0.780392 0.003922
0.317647 0.780392 0.019608
0.333333 0.780392 0.000000
0.376471 0.780392 0.000000
0.403922 0.780392 0.000000
0.439216 0.780392 0.000000
0.466667 0.784314 0.011765
0.498039 0.784314 0.000000
0.529412 0.784314 0.011765
0.560784 0.780392 0.000000
0.592157 0.780392 0.011765
0.619608 0.780392 0.000000
0.650980 0.784314 0.000000
0.678431 0.784314 0.007843
0.709804 0.784314 0.000000
0.745098 0.780392 0.000000
0.772549 0.784314 0.015686
0.807843 0.780392 0.000000
0.835294 0.784314 0.000000
0.866667 0.784314 0.000000
0.901961 0.784314 0.000000
0.929412 0.784314 0.000000
0.964706 0.784314 0.019608
0.992157 0.784314 0.015686
0.000000 0.811765 0.000000
0.050980 0.811765 0.000000
0.070588 0.815686 0.011765
0.070588 0.815686 0.011765
0.117647 0.811765 0.011765
0.152941 0.811765 0.015686
0.184314 0.811765 0.000000
0.215686 0.811765 0.000000
0.254902 0.811765 0.000000
0.278431 0.815686 0.007843
0.309804 0.811765 0.011765
0.345098 0.811765 0.000000
0.372549 0.811765 0.000000
0.400000 0.811765 0.011765
0.439216 0.811765 0.000000
0.466667 0.811765 0.007843
0.501961 0.811765 0.000000
0.533333 0.811765 0.007843
0.564706 0.811765 0.000000
0.596078 0.811765 0.007843
0.627451 0.811765 0.000000
0.658824 0.815686 0.019608
0.678431 0.815686 0.000000
0.705882 0.815686 0.000000
0.745098 0.815686 0.011765
0.772549 0.811765 0.000000
0.807843 0.815686 0.000000
0.839216 0.815686 0.023529
0.862745 0.815686 0.007843
