test_output_lut/葬送のフリーレン イイニオイ - niz的插画_ct.cube
TITLE "Color Transfer LUT - 葬送のフリーレン イイニオイ - niz的插画"
LUT_3D_SIZE 33
0.000000 0.000000 0.007843
0.019608 0.000000 0.000000
0.047059 0.000000 0.000000
0.070588 0.000000 0.000000
0.105882 0.000000 0.000000
0.141176 0.000000 0.000000
0.172549 0.000000 0.000000
0.200000 0.000000 0.000000
0.231373 0.000000 0.000000
0.266667 0.000000 0.000000
0.294118 0.000000 0.000000
0.325490 0.000000 0.000000
0.352941 0.000000 0.000000
0.388235 0.000000 0.000000
0.419608 0.000000 0.000000
0.447059 0.000000 0.000000
0.482353 0.000000 0.000000
0.509804 0.000000 0.000000
0.541176 0.000000 0.000000
0.572549 0.000000 0.000000
0.603922 0.000000 0.000000
0.635294 0.000000 0.000000
0.666667 0.000000 0.000000
0.701961 0.000000 0.000000
0.725490 0.000000 0.000000
0.760784 0.000000 0.000000
0.788235 0.000000 0.000000
0.823529 0.000000 0.000000
0.854902 0.000000 0.000000
0.882353 0.000000 0.000000
0.913725 0.000000 0.000000
0.949020 0.000000 0.000000
0.980392 0.000000 0.000000
0.000000 0.007843 0.000000
0.000000 0.011765 0.000000
0.039216 0.003922 0.000000
0.078431 0.000000 0.000000
0.113725 0.003922 0.000000
0.137255 0.011765 0.000000
0.176471 0.003922 0.000000
0.200000 0.007843 0.000000
0.235294 0.007843 0.000000
0.262745 0.011765 0.000000
0.294118 0.007843 0.000000
0.329412 0.007843 0.000000
0.356863 0.000000 0.000000
0.388235 0.011765 0.000000
0.415686 0.000000 0.000000
0.447059 0.003922 0.000000
0.478431 0.007843 0.000000
0.509804 0.000000 0.000000
0.541176 0.000000 0.000000
0.576471 0.000000 0.000000
0.603922 0.000000 0.000000
0.635294 0.000000 0.000000
0.666667 0.000000 0.000000
0.698039 0.000000 0.000000
0.729412 0.000000 0.000000
0.760784 0.000000 0.000000
0.796078 0.000000 0.000000
0.823529 0.000000 0.000000
0.854902 0.000000 0.000000
0.890196 0.000000 0.000000
0.917647 0.000000 0.000000
0.949020 0.000000 0.000000
0.980392 0.000000 0.000000
0.000000 0.039216 0.000000
0.000000 0.047059 0.000000
0.035294 0.039216 0.000000
0.070588 0.039216 0.000000
0.113725 0.039216 0.000000
0.141176 0.039216 0.000000
0.172549 0.039216 0.000000
0.203922 0.047059 0.000000
0.231373 0.050980 0.000000
0.266667 0.050980 0.000000
0.298039 0.043137 0.000000
0.325490 0.039216 0.000000
0.352941 0.047059 0.000000
0.388235 0.043137 0.000000
0.419608 0.035294 0.000000
0.450980 0.039216 0.000000
0.478431 0.027451 0.000000
0.513726 0.035294 0.000000
0.541176 0.019608 0.000000
0.576471 0.023529 0.000000
0.603922 0.023529 0.000000
0.635294 0.031373 0.000000
0.662745 0.031373 0.000000
0.701961 0.015686 0.000000
0.729412 0.011765 0.000000
0.760784 0.007843 0.000000
0.796078 0.015686 0.000000
0.823529 0.007843 0.000000
0.854902 0.003922 0.000000
0.882353 0.000000 0.000000
0.917647 0.007843 0.000000
0.949020 0.000000 0.000000
0.980392 0.000000 0.000000
0.000000 0.078431 0.000000
0.000000 0.078431 0.000000
0.039216 0.074510 0.000000
0.074510 0.078431 0.000000
0.113725 0.070588 0.000000
0.141176 0.078431 0.000000
0.176471 0.074510 0.000000
0.203922 0.078431 0.000000
0.231373 0.078431 0.000000
0.262745 0.082353 0.000000
0.298039 0.074510 0.000000
0.325490 0.070588 0.000000
0.356863 0.078431 0.000000
0.388235 0.070588 0.000000
0.415686 0.074510 0.000000
0.450980 0.074510 0.000000
0.482353 0.066667 0.000000
0.513726 0.058824 0.000000
0.545098 0.062745 0.000000
0.572549 0.062745 0.000000
0.603922 0.050980 0.000000
0.635294 0.058824 0.000000
0.666667 0.058824 0.000000
0.698039 0.070588 0.000000
0.733333 0.050980 0.000000
0.760784 0.047059 0.000000
0.788235 0.043137 0.000000
0.823529 0.054902 0.000000
0.854902 0.050980 0.000000
0.886275 0.047059 0.000000
0.913725 0.043137 0.000000
0.945098 0.039216 0.000000
0.980392 0.050980 0.000000
0.000000 0.113725 0.000000
0.000000 0.113725 0.000000
0.047059 0.109804 0.000000
0.082353 0.113725 0.000000
0.109804 0.105882 0.000000
0.141176 0.109804 0.000000
0.172549 0.105882 0.000000
0.200000 0.113725 0.000000
0.231373 0.109804 0.000000
0.262745 0.105882 0.000000
0.294118 0.105882 0.000000
0.325490 0.105882 0.000000
0.356863 0.105882 0.000000
0.388235 0.105882 0.000000
0.415686 0.105882 0.000000
0.450980 0.105882 0.000000
0.482353 0.105882 0.000000
0.513726 0.101961 0.000000
0.541176 0.105882 0.000000
0.572549 0.098039 0.000000
0.600000 0.101961 0.000000
0.639216 0.098039 0.000000
0.666667 0.101961 0.000000
0.698039 0.090196 0.000000
0.729412 0.090196 0.000000
0.760784 0.098039 0.000000
0.792157 0.098039 0.000000
0.819608 0.101961 0.000000
0.854902 0.086275 0.000000
0.886275 0.082353 0.000000
0.913725 0.082353 0.000000
0.945098 0.082353 0.000000
0.980392 0.090196 0.000000
0.000000 0.141176 0.000000
0.015686 0.141176 0.000000
0.054902 0.137255 0.000000
0.082353 0.137255 0.000000
0.117647 0.137255 0.000000
0.141176 0.141176 0.000000
0.172549 0.137255 0.000000
0.200000 0.141176 0.000000
0.231373 0.141176 0.000000
0.262745 0.141176 0.000000
0.294118 0.137255 0.000000
0.329412 0.141176 0.000000
0.356863 0.137255 0.000000
0.388235 0.137255 0.000000
0.415686 0.141176 0.000000
0.450980 0.137255 0.000000
0.482353 0.137255 0.000000
0.513726 0.133333 0.000000
0.541176 0.137255 0.000000
0.572549 0.137255 0.000000
0.607843 0.133333 0.000000
0.635294 0.137255 0.000000
0.666667 0.133333 0.000000
0.694118 0.133333 0.000000
0.729412 0.129412 0.000000
0.756863 0.129412 0.000000
0.792157 0.121569 0.000000
0.823529 0.121569 0.000000
0.854902 0.129412 0.000000
0.886275 0.133333 0.000000
0.917647 0.133333 0.000000
0.945098 0.133333 0.000000
0.980392 0.117647 0.000000
0.007843 0.168627 0.000000
0.031373 0.168627 0.000000
0.050980 0.172549 0.000000
0.074510 0.168627 0.000000
0.105882 0.168627 0.000000
0.145098 0.168627 0.000000
0.168627 0.172549 0.000000
0.203922 0.172549 0.000000
0.231373 0.172549 0.000000
0.266667 0.172549 0.000000
0.294118 0.172549 0.000000
0.325490 0.168627 0.000000
0.356863 0.168627 0.000000
0.392157 0.168627 0.000000
0.419608 0.168627 0.000000
0.450980 0.168627 0.000000
0.482353 0.168627 0.000000
0.509804 0.168627 0.000000
0.541176 0.168627 0.000000
0.576471 0.168627 0.000000
0.607843 0.168627 0.000000
0.639216 0.164706 0.000000
0.666667 0.168627 0.000000
0.701961 0.164706 0.000000
0.729412 0.168627 0.000000
0.764706 0.164706 0.000000
0.788235 0.164706 0.000000
0.823529 0.156863 0.000000
0.858824 0.164706 0.000000
0.882353 0.160784 0.000000
0.917647 0.152941 0.000000
0.949020 0.156863 0.000000
0.976471 0.156863 0.000000
0.000000 0.200000 0.000000
0.003922 0.203922 0.000000
0.050980 0.203922 0.000000
0.082353 0.200000 0.000000
0.105882 0.203922 0.000000
0.145098 0.200000 0.000000
0.172549 0.200000 0.000000
0.200000 0.200000 0.000000
0.231373 0.200000 0.000000
0.262745 0.203922 0.000000
0.298039 0.203922 0.000000
0.325490 0.200000 0.000000
0.356863 0.200000 0.000000
0.392157 0.203922 0.000000
0.415686 0.203922 0.000000
0.447059 0.200000 0.000000
0.478431 0.203922 0.000000
0.513726 0.200000 0.000000
0.545098 0.203922 0.000000
0.572549 0.200000 0.000000
0.603922 0.200000 0.000000
0.635294 0.200000 0.000000
0.670588 0.200000 0.000000
0.698039 0.196078 0.000000
0.725490 0.200000 0.000000
0.760784 0.196078 0.000000
0.796078 0.196078 0.000000
0.823529 0.200000 0.000000
0.854902 0.203922 0.000000
0.882353 0.192157 0.000000
0.913725 0.196078 0.000000
0.949020 0.188235 0.000000
0.980392 0.192157 0.000000
0.000000 0.231373 0.000000
0.015686 0.231373 0.000000
0.047059 0.231373 0.000000
0.066667 0.231373 0.000000
0.109804 0.231373 0.000000
0.137255 0.231373 0.000000
0.172549 0.235294 0.000000
0.200000 0.231373 0.000000
0.231373 0.231373 0.000000
0.262745 0.235294 0.000000
0.298039 0.231373 0.000000
0.325490 0.231373 0.000000
0.356863 0.231373 0.000000
0.388235 0.235294 0.000000
0.419608 0.231373 0.000000
0.450980 0.231373 0.000000
0.478431 0.231373 0.000000
0.513726 0.231373 0.000000
0.545098 0.235294 0.000000
0.576471 0.227451 0.000000
0.603922 0.235294 0.000000
0.635294 0.227451 0.000000
0.670588 0.231373 0.000000
0.698039 0.235294 0.000000
0.729412 0.231373 0.000000
0.760784 0.231373 0.000000
0.796078 0.231373 0.000000
0.819608 0.231373 0.000000
0.854902 0.227451 0.000000
0.886275 0.231373 0.000000
0.921569 0.227451 0.000000
0.945098 0.227451 0.000000
0.980392 0.223529 0.000000
0.000000 0.266667 0.000000
0.007843 0.262745 0.000000
0.043137 0.262745 0.000000
0.070588 0.266667 0.000000
0.105882 0.266667 0.000000
0.137255 0.266667 0.000000
0.172549 0.262745 0.000000
0.200000 0.266667 0.000000
0.231373 0.262745 0.000000
0.262745 0.266667 0.000000
0.294118 0.262745 0.000000
0.325490 0.262745 0.000000
0.356863 0.266667 0.000000
0.388235 0.262745 0.000000
0.419608 0.262745 0.000000
0.450980 0.262745 0.000000
0.478431 0.266667 0.000000
0.509804 0.262745 0.000000
0.545098 0.262745 0.000000
0.572549 0.262745 0.000000
0.603922 0.266667 0.000000
0.631373 0.266667 0.000000
0.670588 0.262745 0.000000
0.698039 0.262745 0.000000
0.733333 0.262745 0.000000
0.760784 0.262745 0.000000
0.792157 0.266667 0.000000
0.819608 0.262745 0.000000
0.854902 0.262745 0.000000
0.890196 0.258824 0.000000
0.917647 0.258824 0.000000
0.952941 0.258824 0.000000
0.980392 0.262745 0.000000
0.000000 0.294118 0.000000
0.000000 0.298039 0.000000
0.043137 0.294118 0.000000
0.082353 0.294118 0.000000
0.105882 0.294118 0.000000
0.133333 0.294118 0.000000
0.168627 0.298039 0.000000
0.200000 0.298039 0.000000
0.231373 0.294118 0.000000
0.266667 0.294118 0.000000
0.298039 0.298039 0.000000
0.321569 0.298039 0.000000
0.356863 0.298039 0.000000
0.388235 0.294118 0.000000
0.419608 0.298039 0.000000
0.450980 0.294118 0.000000
0.482353 0.294118 0.000000
0.513726 0.294118 0.000000
0.541176 0.298039 0.000000
0.576471 0.294118 0.000000
0.603922 0.294118 0.000000
0.631373 0.298039 0.000000
0.666667 0.294118 0.000000
0.701961 0.294118 0.000000
0.729412 0.294118 0.000000
0.764706 0.298039 0.000000
0.792157 0.294118 0.000000
0.823529 0.290196 0.000000
0.854902 0.290196 0.000000
0.882353 0.294118 0.000000
0.917647 0.294118 0.000000
0.952941 0.294118 0.000000
0.976471 0.294118 0.000000
0.000000 0.325490 0.000000
0.003922 0.325490 0.000000
0.039216 0.325490 0.000000
0.058824 0.325490 0.000000
0.098039 0.329412 0.000000
0.133333 0.325490 0.000000
0.168627 0.325490 0.000000
0.200000 0.329412 0.000000
0.235294 0.325490 0.000000
0.266667 0.325490 0.000000
0.290196 0.325490 0.000000
0.325490 0.325490 0.000000
0.356863 0.325490 0.000000
0.384314 0.325490 0.000000
0.415686 0.325490 0.000000
0.450980 0.329412 0.000000
0.478431 0.325490 0.000000
0.513726 0.325490 0.000000
0.545098 0.325490 0.000000
0.576471 0.329412 0.000000
0.607843 0.329412 0.000000
0.631373 0.325490 0.000000
0.670588 0.325490 0.000000
0.701961 0.325490 0.000000
0.729412 0.325490 0.000000
0.760784 0.325490 0.000000
0.788235 0.325490 0.000000
0.823529 0.329412 0.000000
0.850980 0.325490 0.000000
0.886275 0.325490 0.000000
0.917647 0.325490 0.000000
0.949020 0.317647 0.000000
0.980392 0.325490 0.000000
0.000000 0.356863 0.000000
0.000000 0.356863 0.000000
0.023529 0.356863 0.000000
0.054902 0.356863 0.000000
0.094118 0.356863 0.000000
0.129412 0.360784 0.000000
0.164706 0.360784 0.000000
0.196078 0.360784 0.000000
0.227451 0.356863 0.000000
0.258824 0.356863 0.000000
0.294118 0.356863 0.000000
0.325490 0.356863 0.000000
0.356863 0.356863 0.000000
0.384314 0.356863 0.000000
0.415686 0.356863 0.000000
0.450980 0.360784 0.000000
0.478431 0.360784 0.000000
0.509804 0.356863 0.000000
0.545098 0.356863 0.000000
0.576471 0.356863 0.000000
0.603922 0.356863 0.000000
0.635294 0.356863 0.000000
0.666667 0.356863 0.000000
0.701961 0.356863 0.000000
0.729412 0.356863 0.000000
0.760784 0.356863 0.000000
0.792157 0.352941 0.000000
0.823529 0.352941 0.000000
0.858824 0.356863 0.000000
0.886275 0.352941 0.000000
0.917647 0.352941 0.000000
0.949020 0.356863 0.000000
0.980392 0.356863 0.000000
0.000000 0.388235 0.000000
0.000000 0.388235 0.000000
0.047059 0.388235 0.000000
0.070588 0.388235 0.000000
0.094118 0.392157 0.000000
0.129412 0.388235 0.000000
0.168627 0.388235 0.000000
0.200000 0.388235 0.000000
0.231373 0.388235 0.000000
0.262745 0.388235 0.000000
0.298039 0.392157 0.000000
0.325490 0.388235 0.000000
0.356863 0.392157 0.000000
0.392157 0.392157 0.000000
0.419608 0.388235 0.000000
0.454902 0.392157 0.000000
0.486275 0.388235 0.000000
0.513726 0.388235 0.000000
0.541176 0.388235 0.000000
0.576471 0.388235 0.000000
0.603922 0.388235 0.000000
0.635294 0.388235 0.000000
0.670588 0.388235 0.000000
0.698039 0.392157 0.000000
0.733333 0.392157 0.000000
0.764706 0.392157 0.000000
0.792157 0.392157 0.000000
0.827451 0.388235 0.000000
0.858824 0.388235 0.000000
0.890196 0.388235 0.000000
0.917647 0.388235 0.000000
0.949020 0.384314 0.000000
0.976471 0.388235 0.000000
0.000000 0.423529 0.000000
0.000000 0.419608 0.000000
0.023529 0.419608 0.000000
0.054902 0.419608 0.000000
0.090196 0.419608 0.000000
0.141176 0.419608 0.000000
0.168627 0.419608 0.000000
0.207843 0.419608 0.000000
0.227451 0.419608 0.000000
0.258824 0.419608 0.000000
0.290196 0.419608 0.000000
0.325490 0.423529 0.000000
0.356863 0.419608 0.000000
0.384314 0.423529 0.000000
0.419608 0.423529 0.000000
0.447059 0.419608 0.000000
0.478431 0.419608 0.000000
0.513726 0.423529 0.000000
0.545098 0.419608 0.000000
0.576471 0.419608 0.000000
0.607843 0.423529 0.000000
0.635294 0.419608 0.000000
0.670588 0.419608 0.000000
0.698039 0.419608 0.000000
0.729412 0.419608 0.000000
0.764706 0.419608 0.000000
0.792157 0.423529 0.000000
0.827451 0.419608 0.000000
0.858824 0.419608 0.000000
0.890196 0.419608 0.000000
0.917647 0.419608 0.000000
0.949020 0.419608 0.000000
0.980392 0.419608 0.000000
0.000000 0.450980 0.000000
0.000000 0.450980 0.000000
0.003922 0.450980 0.000000
0.074510 0.447059 0.000000
0.101961 0.450980 0.000000
0.125490 0.454902 0.000000
0.168627 0.450980 0.000000
0.200000 0.450980 0.000000
0.235294 0.450980 0.000000
0.266667 0.450980 0.000000
0.294118 0.450980 0.000000
0.325490 0.450980 0.000000
0.360784 0.450980 0.000000
0.384314 0.450980 0.000000
0.419608 0.450980 0.000000
0.454902 0.454902 0.000000
0.478431 0.450980 0.000000
0.509804 0.450980 0.000000
0.541176 0.450980 0.000000
0.576471 0.454902 0.000000
0.607843 0.450980 0.000000
0.635294 0.450980 0.000000
0.670588 0.450980 0.000000
0.701961 0.450980 0.000000
0.729412 0.450980 0.000000
0.764706 0.450980 0.000000
0.792157 0.450980 0.000000
0.823529 0.450980 0.000000
0.858824 0.450980 0.000000
0.890196 0.450980 0.000000
0.917647 0.450980 0.000000
0.949020 0.450980 0.000000
0.980392 0.450980 0.000000
0.000000 0.482353 0.000000
0.000000 0.482353 0.000000
0.015686 0.478431 0.000000
0.066667 0.482353 0.000000
0.090196 0.482353 0.000000
0.137255 0.482353 0.000000
0.168627 0.482353 0.000000
0.200000 0.482353 0.000000
0.235294 0.482353 0.000000
0.262745 0.486275 0.000000
0.294118 0.482353 0.000000
0.325490 0.482353 0.000000
0.356863 0.482353 0.000000
0.388235 0.486275 0.000000
0.415686 0.482353 0.000000
0.450980 0.486275 0.000000
0.478431 0.482353 0.000000
0.513726 0.482353 0.000000
0.545098 0.482353 0.000000
0.572549 0.482353 0.000000
0.603922 0.482353 0.000000
0.639216 0.482353 0.000000
0.670588 0.482353 0.000000
0.698039 0.482353 0.000000
0.733333 0.482353 0.000000
0.760784 0.482353 0.000000
0.796078 0.482353 0.000000
0.819608 0.482353 0.000000
0.850980 0.482353 0.000000
0.886275 0.482353 0.000000
0.917647 0.482353 0.000000
0.949020 0.482353 0.000000
0.980392 0.486275 0.000000
0.000000 0.513726 0.000000
0.000000 0.513726 0.000000
0.000000 0.513726 0.000000
0.000000 0.517647 0.000000
0.101961 0.513726 0.000000
0.133333 0.513726 0.000000
0.168627 0.513726 0.000000
0.200000 0.513726 0.000000
0.227451 0.517647 0.000000
0.262745 0.513726 0.000000
0.294118 0.513726 0.000000
0.325490 0.513726 0.000000
0.356863 0.513726 0.000000
0.388235 0.513726 0.000000
0.419608 0.513726 0.000000
0.450980 0.513726 0.000000
0.478431 0.513726 0.000000
0.513726 0.513726 0.000000
0.541176 0.513726 0.000000
0.576471 0.513726 0.000000
0.607843 0.513726 0.000000
0.635294 0.513726 0.000000
0.666667 0.513726 0.000000
0.698039 0.513726 0.000000
0.729412 0.517647 0.000000
0.760784 0.513726 0.000000
0.792157 0.517647 0.000000
0.823529 0.513726 0.000000
0.854902 0.513726 0.000000
0.886275 0.509804 0.000000
0.917647 0.513726 0.000000
0.949020 0.513726 0.000000
0.980392 0.517647 0.000000
0.000000 0.545098 0.000000
0.000000 0.545098 0.000000
0.000000 0.549020 0.000000
0.007843 0.545098 0.000000
0.058824 0.545098 0.000000
0.094118 0.545098 0.000000
0.164706 0.545098 0.000000
0.196078 0.545098 0.000000
0.227451 0.545098 0.000000
0.266667 0.545098 0.000000
0.290196 0.545098 0.000000
0.325490 0.545098 0.000000
0.352941 0.545098 0.000000
0.392157 0.541176 0.000000
0.419608 0.545098 0.000000
0.447059 0.545098 0.000000
0.486275 0.545098 0.000000
0.509804 0.545098 0.000000
0.545098 0.545098 0.000000
0.576471 0.545098 0.000000
0.607843 0.549020 0.000000
0.635294 0.545098 0.000000
0.674510 0.545098 0.000000
0.698039 0.549020 0.000000
0.733333 0.545098 0.000000
0.764706 0.545098 0.000000
0.796078 0.549020 0.000000
0.827451 0.545098 0.000000
0.854902 0.545098 0.000000
0.886275 0.545098 0.000000
0.921569 0.545098 0.000000
0.949020 0.545098 0.000000
0.980392 0.545098 0.000000
0.000000 0.576471 0.000000
0.000000 0.576471 0.000000
0.000000 0.576471 0.000000
0.000000 0.580392 0.000000
0.070588 0.576471 0.000000
0.105882 0.576471 0.000000
0.137255 0.576471 0.000000
0.192157 0.576471 0.000000
0.227451 0.576471 0.000000
0.254902 0.576471 0.000000
0.294118 0.576471 0.000000
0.325490 0.572549 0.000000
0.360784 0.576471 0.000000
0.392157 0.576471 0.000000
0.419608 0.576471 0.000000
0.447059 0.576471 0.000000
0.486275 0.576471 0.000000
0.509804 0.576471 0.000000
0.545098 0.576471 0.000000
0.568627 0.576471 0.000000
0.603922 0.576471 0.000000
0.639216 0.576471 0.000000
0.666667 0.576471 0.000000
0.698039 0.576471 0.000000
0.733333 0.576471 0.000000
0.760784 0.576471 0.000000
0.796078 0.576471 0.000000
0.823529 0.576471 0.000000
0.854902 0.576471 0.000000
0.886275 0.576471 0.000000
0.913725 0.576471 0.000000
0.952941 0.576471 0.000000
0.976471 0.576471 0.000000
0.000000 0.607843 0.000000
0.000000 0.607843 0.000000
0.000000 0.607843 0.000000
0.000000 0.611765 0.000000
0.050980 0.607843 0.000000
0.090196 0.607843 0.000000
0.149020 0.607843 0.000000
0.168627 0.607843 0.000000
0.211765 0.611765 0.000000
0.262745 0.603922 0.000000
0.290196 0.607843 0.000000
0.317647 0.607843 0.000000
0.352941 0.607843 0.000000
0.384314 0.607843 0.000000
0.423529 0.603922 0.000000
0.447059 0.611765 0.000000
0.482353 0.607843 0.000000
0.509804 0.607843 0.000000
0.545098 0.607843 0.000000
0.572549 0.607843 0.000000
0.607843 0.607843 0.000000
0.635294 0.607843 0.000000
0.670588 0.607843 0.000000
0.705882 0.607843 0.000000
0.733333 0.611765 0.000000
0.764706 0.607843 0.000000
0.792157 0.611765 0.000000
0.827451 0.607843 0.000000
0.854902 0.607843 0.000000
0.886275 0.603922 0.000000
0.917647 0.607843 0.000000
0.949020 0.603922 0.000000
0.980392 0.607843 0.000000
0.000000 0.639216 0.000000
0.000000 0.639216 0.000000
0.000000 0.639216 0.000000
0.000000 0.639216 0.000000
0.062745 0.639216 0.000000
0.101961 0.639216 0.000000
0.129412 0.639216 0.000000
0.180392 0.639216 0.000000
0.200000 0.639216 0.000000
0.250980 0.639216 0.000000
0.294118 0.639216 0.000000
0.321569 0.639216 0.000000
0.352941 0.635294 0.000000
0.388235 0.635294 0.000000
0.415686 0.635294 0.000000
0.450980 0.639216 0.000000
0.478431 0.639216 0.000000
0.509804 0.639216 0.000000
0.545098 0.639216 0.000000
0.572549 0.639216 0.000000
0.607843 0.639216 0.000000
0.635294 0.639216 0.000000
0.670588 0.639216 0.000000
0.705882 0.639216 0.000000
0.729412 0.639216 0.000000
0.764706 0.639216 0.000000
0.792157 0.639216 0.000000
0.827451 0.639216 0.000000
0.854902 0.639216 0.000000
0.886275 0.635294 0.000000
0.917647 0.639216 0.000000
0.945098 0.639216 0.000000
0.980392 0.635294 0.000000
0.000000 0.670588 0.000000
0.000000 0.670588 0.000000
0.000000 0.670588 0.000000
0.003922 0.670588 0.000000
0.003922 0.670588 0.000000
0.078431 0.674510 0.000000
0.113725 0.670588 0.000000
0.176471 0.674510 0.000000
0.211765 0.670588 0.000000
0.250980 0.670588 0.000000
0.278431 0.670588 0.000000
0.321569 0.670588 0.000000
0.356863 0.670588 0.000000
0.384314 0.670588 0.000000
0.415686 0.670588 0.000000
0.447059 0.670588 0.000000
0.478431 0.670588 0.000000
0.513726 0.666667 0.000000
0.545098 0.670588 0.000000
0.572549 0.670588 0.000000
0.607843 0.670588 0.000000
0.635294 0.670588 0.000000
0.670588 0.670588 0.000000
0.701961 0.674510 0.000000
0.729412 0.666667 0.000000
0.760784 0.670588 0.000000
0.792157 0.670588 0.000000
0.823529 0.670588 0.000000
0.854902 0.670588 0.000000
0.882353 0.670588 0.000000
0.921569 0.670588 0.000000
0.949020 0.670588 0.000000
0.980392 0.670588 0.000000
0.000000 0.705882 0.000000
0.000000 0.705882 0.000000
0.000000 0.701961 0.000000
0.000000 0.701961 0.000000
0.023529 0.701961 0.000000
0.082353 0.701961 0.000000
0.125490 0.701961 0.000000
0.180392 0.701961 0.000000
0.207843 0.705882 0.000000
0.243137 0.701961 0.000000
0.274510 0.701961 0.000000
0.309804 0.705882 0.000000
0.356863 0.698039 0.000000
0.380392 0.701961 0.000000
0.415686 0.701961 0.000000
0.450980 0.701961 0.000000
0.482353 0.701961 0.000000
0.513726 0.701961 0.000000
0.541176 0.701961 0.000000
0.572549 0.701961 0.000000
0.611765 0.701961 0.000000
0.635294 0.701961 0.000000
0.674510 0.701961 0.000000
0.698039 0.701961 0.000000
0.733333 0.701961 0.000000
0.760784 0.701961 0.000000
0.796078 0.701961 0.000000
0.823529 0.701961 0.000000
0.854902 0.698039 0.000000
0.882353 0.701961 0.000000
0.921569 0.701961 0.000000
0.949020 0.701961 0.000000
0.980392 0.701961 0.000000
0.000000 0.733333 0.000000
0.000000 0.733333 0.000000
0.000000 0.733333 0.000000
0.000000 0.737255 0.000000
0.043137 0.733333 0.000000
0.094118 0.733333 0.000000
0.137255 0.733333 0.000000
0.168627 0.733333 0.000000
0.211765 0.733333 0.000000
0.235294 0.737255 0.000000
0.270588 0.733333 0.000000
0.305882 0.733333 0.000000
0.349020 0.733333 0.000000
0.376471 0.737255 0.000000
0.419608 0.729412 0.000000
0.450980 0.729412 0.000000
0.482353 0.729412 0.000000
0.509804 0.733333 0.000000
0.549020 0.733333 0.000000
0.576471 0.733333 0.000000
0.603922 0.729412 0.000000
0.635294 0.733333 0.000000
0.670588 0.729412 0.000000
0.698039 0.733333 0.000000
0.733333 0.729412 0.000000
0.760784 0.733333 0.000000
0.796078 0.733333 0.000000
0.823529 0.733333 0.000000
0.858824 0.733333 0.000000
0.890196 0.733333 0.000000
0.917647 0.737255 0.000000
0.952941 0.733333 0.000000
0.980392 0.733333 0.000000
0.000000 0.764706 0.000000
0.000000 0.764706 0.000000
0.000000 0.764706 0.000000
0.000000 0.764706 0.000000
0.000000 0.764706 0.000000
0.058824 0.768627 0.000000
0.117647 0.764706 0.000000
0.176471 0.764706 0.000000
0.203922 0.764706 0.000000
0.243137 0.764706 0.000000
0.282353 0.764706 0.000000
0.298039 0.764706 0.000000
0.345098 0.764706 0.000000
0.376471 0.764706 0.000000
0.411765 0.764706 0.000000
0.447059 0.764706 0.000000
0.482353 0.764706 0.000000
0.513726 0.764706 0.000000
0.545098 0.764706 0.000000
0.572549 0.764706 0.000000
0.603922 0.764706 0.000000
0.643137 0.764706 0.000000
0.670588 0.764706 0.000000
0.701961 0.764706 0.000000
0.733333 0.764706 0.000000
0.764706 0.764706 0.000000
0.796078 0.760784 0.000000
0.823529 0.764706 0.000000
0.854902 0.764706 0.000000
0.890196 0.764706 0.000000
0.917647 0.764706 0.000000
0.952941 0.764706 0.000000
0.980392 0.764706 0.000000
0.000000 0.796078 0.000000
0.000000 0.792157 0.000000
0.000000 0.796078 0.000000
0.000000 0.796078 0.000000
0.000000 0.796078 0.000000
0.062745 0.796078 0.000000
0.117647 0.796078 0.000000
0.160784 0.796078 0.000000
0.211765 0.796078 0.000000
0.235294 0.796078 0.000000
0.274510 0.796078 0.000000
0.309804 0.796078 0.000000
0.341176 0.796078 0.000000
0.368627 0.796078 0.000000
0.411765 0.796078 0.000000
0.435294 0.796078 0.000000
0.482353 0.796078 0.000000
0.517647 0.796078 0.000000
0.549020 0.796078 0.000000
0.576471 0.796078 0.000000
0.607843 0.792157 0.000000
0.639216 0.796078 0.000000
0.666667 0.796078 0.000000
0.694118 0.796078 0.000000
0.733333 0.796078 0.000000
0.760784 0.796078 0.000000
0.796078 0.796078 0.000000
0.827451 0.796078 0.000000
