test_output_lut/葬送のフリーレン イイニオイ - niz的插画_ct.cube
TITLE "Color Transfer LUT - 葬送のフリーレン イイニオイ - niz的插画"
LUT_3D_SIZE 5
0.000000 0.000000 0.007843
0.231373 0.000000 0.000000
0.482353 0.000000 0.000000
0.725490 0.000000 0.000000
0.980392 0.000000 0.000000
0.000000 0.231373 0.000000
0.231373 0.231373 0.000000
0.478431 0.231373 0.000000
0.729412 0.231373 0.000000
0.980392 0.223529 0.000000
0.000000 0.482353 0.000000
0.235294 0.482353 0.000000
0.478431 0.482353 0.000000
0.733333 0.482353 0.000000
0.980392 0.486275 0.000000
0.000000 0.733333 0.000000
0.211765 0.733333 0.000000
0.482353 0.729412 0.000000
0.733333 0.729412 0.000000
0.980392 0.733333 0.000000
0.000000 0.984314 0.000000
0.168627 0.984314 0.000000
0.466667 0.984314 0.000000
0.729412 0.984314 0.000000
0.980392 0.984314 0.000000
0.000000 0.000000 0.235294
0.231373 0.000000 0.235294
0.478431 0.000000 0.235294
0.729412 0.000000 0.235294
0.980392 0.000000 0.235294
0.000000 0.235294 0.239216
0.231373 0.235294 0.239216
0.478431 0.235294 0.239216
0.729412 0.227451 0.231373
0.980392 0.223529 0.235294
0.000000 0.482353 0.235294
0.239216 0.482353 0.227451
0.478431 0.482353 0.227451
0.733333 0.482353 0.235294
0.976471 0.482353 0.227451
0.000000 0.733333 0.223529
0.215686 0.733333 0.227451
0.482353 0.733333 0.227451
0.729412 0.733333 0.227451
0.980392 0.729412 0.235294
0.000000 0.980392 0.227451
0.168627 0.984314 0.227451
0.470588 0.984314 0.227451
0.733333 0.980392 0.223529
0.984314 0.980392 0.231373
0.000000 0.000000 0.486275
0.223529 0.000000 0.490196
0.478431 0.000000 0.486275
0.729412 0.000000 0.494118
0.976471 0.000000 0.486275
0.000000 0.235294 0.490196
0.231373 0.231373 0.486275
0.478431 0.235294 0.486275
0.729412 0.227451 0.486275
0.976471 0.231373 0.486275
0.000000 0.482353 0.486275
0.231373 0.482353 0.490196
0.482353 0.482353 0.490196
0.729412 0.482353 0.490196
0.984314 0.482353 0.486275
0.000000 0.733333 0.482353
0.215686 0.733333 0.486275
0.486275 0.733333 0.482353
0.729412 0.733333 0.486275
0.984314 0.733333 0.482353
0.000000 0.984314 0.482353
0.180392 0.984314 0.478431
0.470588 0.984314 0.482353
0.729412 0.984314 0.486275
0.976471 0.980392 0.482353
0.000000 0.000000 0.745098
0.196078 0.000000 0.745098
0.474510 0.000000 0.737255
0.729412 0.000000 0.741176
0.976471 0.000000 0.741176
0.000000 0.235294 0.741176
0.207843 0.235294 0.741176
0.474510 0.227451 0.737255
0.729412 0.231373 0.741176
0.980392 0.223529 0.741176
0.000000 0.482353 0.741176
0.200000 0.482353 0.741176
0.478431 0.486275 0.737255
0.729412 0.482353 0.733333
0.984314 0.482353 0.745098
0.000000 0.733333 0.737255
0.211765 0.733333 0.737255
0.478431 0.733333 0.745098
0.729412 0.733333 0.737255
0.980392 0.733333 0.741176
0.000000 0.984314 0.729412
0.176471 0.984314 0.737255
0.478431 0.984314 0.733333
0.729412 0.984314 0.733333
0.984314 0.984314 0.729412
0.000000 0.000000 0.996078
0.164706 0.000000 0.996078
0.454902 0.000000 1.000000
0.729412 0.000000 0.984314
0.976471 0.000000 0.992157
0.000000 0.239216 0.992157
0.176471 0.231373 0.992157
0.462745 0.231373 0.996078
0.729412 0.227451 0.992157
0.976471 0.231373 0.992157
0.000000 0.486275 0.988235
0.184314 0.486275 0.992157
0.466667 0.482353 0.988235
0.729412 0.482353 0.992157
0.980392 0.486275 0.988235
0.000000 0.733333 0.992157
0.207843 0.733333 0.988235
0.474510 0.733333 0.992157
0.729412 0.737255 0.988235
0.976471 0.737255 0.996078
0.000000 0.984314 0.992157
0.200000 0.984314 0.988235
0.478431 0.984314 0.992157
0.729412 0.984314 0.988235
0.980392 0.984314 0.988235
