test_output_lut/葬送のフリーレン イイニオイ - niz的插画_ct.cube
TITLE "Color Transfer LUT - 葬送のフリーレン イイニオイ - niz的插画"
LUT_3D_SIZE 9
0.000000 0.000000 0.007843
0.105882 0.000000 0.000000
0.231373 0.000000 0.000000
0.352941 0.000000 0.000000
0.482353 0.000000 0.000000
0.603922 0.000000 0.000000
0.725490 0.000000 0.000000
0.854902 0.000000 0.000000
0.980392 0.000000 0.000000
0.000000 0.113725 0.000000
0.109804 0.105882 0.000000
0.231373 0.109804 0.000000
0.356863 0.105882 0.000000
0.482353 0.105882 0.000000
0.600000 0.101961 0.000000
0.729412 0.090196 0.000000
0.854902 0.086275 0.000000
0.980392 0.090196 0.000000
0.000000 0.231373 0.000000
0.109804 0.231373 0.000000
0.231373 0.231373 0.000000
0.356863 0.231373 0.000000
0.478431 0.231373 0.000000
0.603922 0.235294 0.000000
0.729412 0.231373 0.000000
0.854902 0.227451 0.000000
0.980392 0.223529 0.000000
0.000000 0.356863 0.000000
0.094118 0.356863 0.000000
0.227451 0.356863 0.000000
0.356863 0.356863 0.000000
0.478431 0.360784 0.000000
0.603922 0.356863 0.000000
0.729412 0.356863 0.000000
0.858824 0.356863 0.000000
0.980392 0.356863 0.000000
0.000000 0.482353 0.000000
0.090196 0.482353 0.000000
0.235294 0.482353 0.000000
0.356863 0.482353 0.000000
0.478431 0.482353 0.000000
0.603922 0.482353 0.000000
0.733333 0.482353 0.000000
0.850980 0.482353 0.000000
0.980392 0.486275 0.000000
0.000000 0.607843 0.000000
0.050980 0.607843 0.000000
0.211765 0.611765 0.000000
0.352941 0.607843 0.000000
0.482353 0.607843 0.000000
0.607843 0.607843 0.000000
0.733333 0.611765 0.000000
0.854902 0.607843 0.000000
0.980392 0.607843 0.000000
0.000000 0.733333 0.000000
0.043137 0.733333 0.000000
0.211765 0.733333 0.000000
0.349020 0.733333 0.000000
0.482353 0.729412 0.000000
0.603922 0.729412 0.000000
0.733333 0.729412 0.000000
0.858824 0.733333 0.000000
0.980392 0.733333 0.000000
0.000000 0.858824 0.000000
0.000000 0.858824 0.000000
0.203922 0.858824 0.000000
0.333333 0.858824 0.000000
0.474510 0.858824 0.000000
0.607843 0.858824 0.000000
0.729412 0.858824 0.000000
0.858824 0.854902 0.000000
0.980392 0.858824 0.000000
0.000000 0.984314 0.000000
0.000000 0.984314 0.000000
0.168627 0.984314 0.000000
0.333333 0.984314 0.000000
0.466667 0.984314 0.000000
0.600000 0.984314 0.000000
0.729412 0.984314 0.000000
0.854902 0.984314 0.000000
0.980392 0.984314 0.000000
0.000000 0.000000 0.117647
0.105882 0.000000 0.113725
0.231373 0.000000 0.113725
0.349020 0.000000 0.117647
0.478431 0.000000 0.105882
0.607843 0.000000 0.105882
0.729412 0.000000 0.109804
0.854902 0.000000 0.101961
0.976471 0.000000 0.101961
0.000000 0.113725 0.117647
0.105882 0.109804 0.113725
0.231373 0.113725 0.117647
0.356863 0.105882 0.105882
0.478431 0.101961 0.105882
0.603922 0.098039 0.105882
0.729412 0.101961 0.105882
0.850980 0.090196 0.101961
0.980392 0.094118 0.109804
0.000000 0.231373 0.105882
0.105882 0.235294 0.109804
0.231373 0.235294 0.105882
0.356863 0.235294 0.109804
0.478431 0.231373 0.109804
0.603922 0.231373 0.105882
0.729412 0.227451 0.105882
0.850980 0.227451 0.105882
0.976471 0.223529 0.105882
0.000000 0.356863 0.105882
0.094118 0.360784 0.105882
0.235294 0.356863 0.105882
0.356863 0.356863 0.109804
0.478431 0.356863 0.105882
0.607843 0.360784 0.109804
0.729412 0.352941 0.105882
0.854902 0.356863 0.105882
0.976471 0.356863 0.094118
0.000000 0.482353 0.105882
0.105882 0.486275 0.105882
0.231373 0.482353 0.105882
0.356863 0.482353 0.109804
0.482353 0.482353 0.101961
0.607843 0.482353 0.101961
0.729412 0.482353 0.105882
0.854902 0.482353 0.105882
0.984314 0.482353 0.101961
0.000000 0.607843 0.101961
0.039216 0.607843 0.094118
0.219608 0.607843 0.105882
0.352941 0.607843 0.101961
0.486275 0.607843 0.094118
0.607843 0.607843 0.094118
0.733333 0.607843 0.105882
0.854902 0.607843 0.105882
0.980392 0.607843 0.098039
0.000000 0.729412 0.094118
0.039216 0.733333 0.101961
0.192157 0.733333 0.094118
0.337255 0.733333 0.101961
0.482353 0.733333 0.101961
0.611765 0.733333 0.090196
0.733333 0.733333 0.105882
0.858824 0.733333 0.098039
0.984314 0.733333 0.090196
0.000000 0.858824 0.098039
0.019608 0.858824 0.101961
0.184314 0.858824 0.090196
0.337255 0.858824 0.090196
0.466667 0.858824 0.098039
0.603922 0.858824 0.098039
0.733333 0.854902 0.086275
0.854902 0.858824 0.082353
0.980392 0.858824 0.090196
0.000000 0.984314 0.082353
0.000000 0.980392 0.086275
0.184314 0.980392 0.066667
0.337255 0.984314 0.098039
0.470588 0.980392 0.062745
0.592157 0.984314 0.090196
0.733333 0.980392 0.090196
0.858824 0.980392 0.070588
0.984314 0.984314 0.098039
0.000000 0.000000 0.235294
0.101961 0.000000 0.239216
0.231373 0.000000 0.235294
0.352941 0.000000 0.239216
0.478431 0.000000 0.235294
0.600000 0.000000 0.235294
0.729412 0.000000 0.235294
0.854902 0.000000 0.231373
0.980392 0.000000 0.235294
0.000000 0.105882 0.239216
0.105882 0.105882 0.239216
0.231373 0.109804 0.239216
0.356863 0.101961 0.235294
0.478431 0.105882 0.235294
0.600000 0.105882 0.227451
0.733333 0.090196 0.235294
0.854902 0.090196 0.235294
0.976471 0.082353 0.235294
0.000000 0.235294 0.239216
0.094118 0.235294 0.239216
0.231373 0.235294 0.239216
0.356863 0.231373 0.235294
0.478431 0.235294 0.239216
0.603922 0.231373 0.231373
0.729412 0.227451 0.231373
0.854902 0.231373 0.231373
0.980392 0.223529 0.235294
0.000000 0.356863 0.235294
0.094118 0.356863 0.235294
0.235294 0.360784 0.231373
0.360784 0.356863 0.235294
0.482353 0.356863 0.235294
0.603922 0.356863 0.231373
0.729412 0.356863 0.231373
0.854902 0.356863 0.231373
0.980392 0.356863 0.231373
0.000000 0.482353 0.235294
0.098039 0.482353 0.231373
0.239216 0.482353 0.227451
0.356863 0.482353 0.231373
0.478431 0.482353 0.227451
0.607843 0.482353 0.231373
0.733333 0.482353 0.235294
0.854902 0.482353 0.227451
0.976471 0.482353 0.227451
0.000000 0.607843 0.227451
0.031373 0.611765 0.231373
0.227451 0.607843 0.231373
0.360784 0.607843 0.231373
0.486275 0.607843 0.227451
0.607843 0.607843 0.231373
0.729412 0.607843 0.227451
0.858824 0.607843 0.235294
0.976471 0.607843 0.231373
0.000000 0.733333 0.223529
0.011765 0.733333 0.227451
0.215686 0.733333 0.227451
0.333333 0.733333 0.227451
0.482353 0.733333 0.227451
0.603922 0.733333 0.235294
0.729412 0.733333 0.227451
0.854902 0.733333 0.231373
0.980392 0.729412 0.235294
0.000000 0.858824 0.231373
0.039216 0.854902 0.219608
0.184314 0.854902 0.227451
0.345098 0.858824 0.231373
0.474510 0.858824 0.227451
0.611765 0.858824 0.227451
0.733333 0.858824 0.235294
0.858824 0.858824 0.235294
0.976471 0.858824 0.223529
0.000000 0.980392 0.227451
0.000000 0.984314 0.231373
0.168627 0.984314 0.227451
0.333333 0.984314 0.223529
0.470588 0.984314 0.227451
0.592157 0.984314 0.223529
0.733333 0.980392 0.223529
0.854902 0.980392 0.231373
0.984314 0.980392 0.231373
0.000000 0.000000 0.360784
0.090196 0.000000 0.364706
0.227451 0.000000 0.364706
0.356863 0.000000 0.368627
0.478431 0.000000 0.368627
0.603922 0.000000 0.364706
0.729412 0.000000 0.364706
0.854902 0.000000 0.364706
0.976471 0.000000 0.356863
0.000000 0.109804 0.364706
0.094118 0.109804 0.364706
0.235294 0.105882 0.360784
0.352941 0.105882 0.360784
0.478431 0.101961 0.364706
0.607843 0.094118 0.364706
0.733333 0.094118 0.364706
0.858824 0.086275 0.356863
0.980392 0.098039 0.360784
0.000000 0.231373 0.360784
0.078431 0.235294 0.368627
0.223529 0.235294 0.360784
0.356863 0.231373 0.360784
0.482353 0.231373 0.360784
0.603922 0.231373 0.360784
0.725490 0.231373 0.364706
0.850980 0.227451 0.356863
0.976471 0.227451 0.352941
0.000000 0.356863 0.364706
0.082353 0.356863 0.364706
0.223529 0.360784 0.364706
0.356863 0.356863 0.364706
0.478431 0.356863 0.364706
0.603922 0.356863 0.364706
0.733333 0.352941 0.356863
0.854902 0.356863 0.360784
0.984314 0.352941 0.356863
0.000000 0.482353 0.364706
0.098039 0.482353 0.360784
0.219608 0.482353 0.364706
0.360784 0.482353 0.356863
0.482353 0.486275 0.356863
0.611765 0.482353 0.360784
0.733333 0.486275 0.356863
0.854902 0.482353 0.360784
0.980392 0.482353 0.356863
0.000000 0.607843 0.352941
0.101961 0.607843 0.360784
0.227451 0.607843 0.360784
0.356863 0.607843 0.356863
0.482353 0.607843 0.356863
0.607843 0.607843 0.360784
0.733333 0.607843 0.352941
0.858824 0.607843 0.360784
0.980392 0.607843 0.356863
0.000000 0.733333 0.356863
0.000000 0.733333 0.360784
0.211765 0.733333 0.360784
0.352941 0.733333 0.352941
0.482353 0.733333 0.356863
0.607843 0.733333 0.352941
0.733333 0.733333 0.356863
0.858824 0.733333 0.356863
0.980392 0.733333 0.360784
0.000000 0.858824 0.360784
0.003922 0.858824 0.352941
0.176471 0.858824 0.356863
0.337255 0.858824 0.360784
0.462745 0.858824 0.356863
0.603922 0.858824 0.356863
0.729412 0.858824 0.356863
0.858824 0.858824 0.356863
0.984314 0.858824 0.356863
0.000000 0.984314 0.352941
0.000000 0.984314 0.352941
0.180392 0.984314 0.349020
0.337255 0.984314 0.360784
0.462745 0.984314 0.352941
0.603922 0.984314 0.352941
0.737255 0.984314 0.352941
0.862745 0.984314 0.352941
0.984314 0.984314 0.352941
0.000000 0.000000 0.486275
0.086275 0.000000 0.486275
0.223529 0.000000 0.490196
0.349020 0.000000 0.486275
0.478431 0.000000 0.486275
0.600000 0.000000 0.486275
0.729412 0.000000 0.494118
0.858824 0.000000 0.486275
0.976471 0.000000 0.486275
0.000000 0.109804 0.490196
0.070588 0.109804 0.490196
0.219608 0.113725 0.490196
0.356863 0.105882 0.486275
0.478431 0.098039 0.490196
0.603922 0.101961 0.486275
0.729412 0.086275 0.486275
0.854902 0.094118 0.490196
0.984314 0.078431 0.490196
0.000000 0.235294 0.490196
0.066667 0.235294 0.490196
0.231373 0.231373 0.486275
0.349020 0.235294 0.486275
0.478431 0.235294 0.486275
0.600000 0.231373 0.490196
0.729412 0.227451 0.486275
0.858824 0.227451 0.490196
0.976471 0.231373 0.486275
0.000000 0.356863 0.490196
0.066667 0.360784 0.490196
0.219608 0.356863 0.490196
0.356863 0.356863 0.490196
0.482353 0.360784 0.490196
0.603922 0.356863 0.490196
0.733333 0.360784 0.490196
0.858824 0.356863 0.490196
0.976471 0.352941 0.482353
0.000000 0.482353 0.486275
0.082353 0.482353 0.490196
0.231373 0.482353 0.490196
0.356863 0.482353 0.490196
0.482353 0.482353 0.490196
0.603922 0.482353 0.486275
0.729412 0.482353 0.490196
0.858824 0.486275 0.486275
0.984314 0.482353 0.486275
0.000000 0.607843 0.490196
0.070588 0.607843 0.494118
0.215686 0.607843 0.490196
0.352941 0.607843 0.494118
0.474510 0.607843 0.490196
0.611765 0.603922 0.478431
0.729412 0.607843 0.482353
0.858824 0.607843 0.482353
0.976471 0.607843 0.478431
0.000000 0.733333 0.482353
0.000000 0.737255 0.486275
0.215686 0.733333 0.486275
0.356863 0.733333 0.482353
0.486275 0.733333 0.482353
0.607843 0.733333 0.482353
0.729412 0.733333 0.486275
0.858824 0.733333 0.486275
0.984314 0.733333 0.482353
0.000000 0.858824 0.486275
0.007843 0.858824 0.478431
0.180392 0.858824 0.486275
0.337255 0.858824 0.478431
0.474510 0.858824 0.482353
0.611765 0.854902 0.478431
0.733333 0.858824 0.478431
0.854902 0.858824 0.482353
0.980392 0.858824 0.482353
0.000000 0.984314 0.482353
0.000000 0.984314 0.482353
0.180392 0.984314 0.478431
0.329412 0.984314 0.482353
0.470588 0.984314 0.482353
0.607843 0.980392 0.478431
0.729412 0.984314 0.486275
0.858824 0.984314 0.486275
0.976471 0.980392 0.482353
0.000000 0.000000 0.615686
0.039216 0.000000 0.615686
0.223529 0.000000 0.611765
0.352941 0.000000 0.611765
0.478431 0.000000 0.611765
0.603922 0.000000 0.615686
0.729412 0.000000 0.611765
0.854902 0.000000 0.615686
0.980392 0.000000 0.615686
0.000000 0.109804 0.611765
0.070588 0.105882 0.607843
0.223529 0.105882 0.611765
0.349020 0.109804 0.615686
0.478431 0.101961 0.615686
0.600000 0.098039 0.611765
0.729412 0.090196 0.615686
0.854902 0.098039 0.615686
0.980392 0.086275 0.611765
0.000000 0.235294 0.615686
0.070588 0.231373 0.611765
0.215686 0.235294 0.611765
0.349020 0.231373 0.607843
0.478431 0.231373 0.611765
0.600000 0.235294 0.615686
0.733333 0.231373 0.611765
0.850980 0.227451 0.615686
0.976471 0.227451 0.615686
0.000000 0.360784 0.615686
0.090196 0.356863 0.611765
0.223529 0.356863 0.611765
0.352941 0.356863 0.611765
0.478431 0.356863 0.615686
0.600000 0.356863 0.611765
0.725490 0.356863 0.611765
0.850980 0.360784 0.615686
0.980392 0.356863 0.615686
0.000000 0.482353 0.611765
0.023529 0.482353 0.615686
0.219608 0.486275 0.615686
0.349020 0.486275 0.615686
0.478431 0.482353 0.611765
0.607843 0.482353 0.611765
0.729412 0.486275 0.615686
0.858824 0.482353 0.619608
0.980392 0.478431 0.611765
0.000000 0.607843 0.615686
0.074510 0.607843 0.611765
0.215686 0.607843 0.611765
0.341176 0.611765 0.619608
0.474510 0.607843 0.615686
0.603922 0.607843 0.615686
0.729412 0.607843 0.615686
0.858824 0.607843 0.611765
0.984314 0.607843 0.607843
0.000000 0.733333 0.615686
0.050980 0.729412 0.615686
0.203922 0.733333 0.615686
0.352941 0.733333 0.611765
0.482353 0.733333 0.611765
0.607843 0.733333 0.615686
0.733333 0.729412 0.607843
0.858824 0.729412 0.607843
0.980392 0.733333 0.607843
0.000000 0.858824 0.603922
0.000000 0.862745 0.611765
0.188235 0.862745 0.607843
0.356863 0.858824 0.607843
0.486275 0.858824 0.607843
0.600000 0.854902 0.607843
0.729412 0.858824 0.607843
0.854902 0.858824 0.611765
0.980392 0.858824 0.611765
0.000000 0.984314 0.607843
0.000000 0.980392 0.607843
0.200000 0.984314 0.603922
0.345098 0.984314 0.607843
0.458824 0.984314 0.607843
0.607843 0.984314 0.611765
0.733333 0.984314 0.603922
0.862745 0.984314 0.603922
0.976471 0.980392 0.603922
0.000000 0.000000 0.745098
0.000000 0.000000 0.745098
0.196078 0.000000 0.745098
0.341176 0.000000 0.737255
0.474510 0.000000 0.737255
0.603922 0.000000 0.737255
0.729412 0.000000 0.741176
0.854902 0.000000 0.737255
0.976471 0.000000 0.741176
0.000000 0.113725 0.745098
0.000000 0.113725 0.745098
0.207843 0.109804 0.741176
0.345098 0.105882 0.737255
0.470588 0.105882 0.737255
0.600000 0.105882 0.741176
0.725490 0.094118 0.737255
0.854902 0.098039 0.745098
0.976471 0.090196 0.737255
0.000000 0.235294 0.741176
0.011765 0.235294 0.741176
0.207843 0.235294 0.741176
0.337255 0.235294 0.741176
0.474510 0.227451 0.737255
0.600000 0.227451 0.741176
0.729412 0.231373 0.741176
0.854902 0.231373 0.737255
0.980392 0.223529 0.741176
0.000000 0.356863 0.741176
0.019608 0.360784 0.737255
0.211765 0.356863 0.737255
0.341176 0.360784 0.741176
0.474510 0.356863 0.737255
0.603922 0.356863 0.737255
0.729412 0.356863 0.745098
0.854902 0.356863 0.737255
0.980392 0.352941 0.741176
0.000000 0.482353 0.741176
0.023529 0.482353 0.737255
0.200000 0.482353 0.741176
0.349020 0.482353 0.737255
0.478431 0.486275 0.737255
0.603922 0.482353 0.741176
0.729412 0.482353 0.733333
0.858824 0.478431 0.737255
0.984314 0.482353 0.745098
0.000000 0.607843 0.737255
0.000000 0.607843 0.741176
0.203922 0.607843 0.737255
0.341176 0.607843 0.737255
0.478431 0.607843 0.741176
0.607843 0.607843 0.737255
0.729412 0.611765 0.741176
0.858824 0.607843 0.741176
0.984314 0.607843 0.737255
0.000000 0.733333 0.737255
0.058824 0.733333 0.741176
0.211765 0.733333 0.737255
0.345098 0.729412 0.741176
0.478431 0.733333 0.745098
0.600000 0.737255 0.745098
0.729412 0.733333 0.737255
0.850980 0.733333 0.741176
0.980392 0.733333 0.741176
0.000000 0.858824 0.741176
0.007843 0.854902 0.741176
0.211765 0.854902 0.737255
0.341176 0.854902 0.737255
0.470588 0.858824 0.737255
0.600000 0.858824 0.741176
0.725490 0.858824 0.741176
0.862745 0.858824 0.733333
0.980392 0.858824 0.729412
0.000000 0.984314 0.729412
0.000000 0.984314 0.733333
0.176471 0.984314 0.737255
0.333333 0.980392 0.733333
0.478431 0.984314 0.733333
0.603922 0.984314 0.729412
0.729412 0.984314 0.733333
0.858824 0.984314 0.733333
0.984314 0.984314 0.729412
0.000000 0.000000 0.870588
0.000000 0.000000 0.870588
0.180392 0.000000 0.870588
0.325490 0.000000 0.870588
0.458824 0.000000 0.874510
0.600000 0.000000 0.866667
0.725490 0.000000 0.862745
0.854902 0.000000 0.862745
0.980392 0.000000 0.866667
0.000000 0.109804 0.866667
0.000000 0.113725 0.870588
0.188235 0.105882 0.866667
0.333333 0.101961 0.866667
0.466667 0.105882 0.862745
0.600000 0.105882 0.862745
0.725490 0.094118 0.862745
0.854902 0.078431 0.862745
0.976471 0.090196 0.862745
0.000000 0.235294 0.870588
0.000000 0.235294 0.870588
0.176471 0.235294 0.870588
0.341176 0.231373 0.862745
0.478431 0.231373 0.862745
0.600000 0.235294 0.866667
0.729412 0.223529 0.862745
0.854902 0.231373 0.866667
0.980392 0.223529 0.866667
0.000000 0.356863 0.862745
0.000000 0.356863 0.866667
0.207843 0.356863 0.866667
0.345098 0.356863 0.866667
0.474510 0.356863 0.862745
0.600000 0.360784 0.866667
0.729412 0.356863 0.862745
0.854902 0.356863 0.862745
0.976471 0.352941 0.866667
0.000000 0.486275 0.866667
0.015686 0.486275 0.862745
0.215686 0.482353 0.866667
0.349020 0.482353 0.858824
0.474510 0.486275 0.866667
0.600000 0.486275 0.870588
0.733333 0.482353 0.862745
0.854902 0.482353 0.862745
0.976471 0.482353 0.862745
0.000000 0.611765 0.866667
0.011765 0.607843 0.866667
0.203922 0.607843 0.866667
0.341176 0.607843 0.866667
0.478431 0.607843 0.866667
0.603922 0.611765 0.862745
0.725490 0.607843 0.862745
0.850980 0.607843 0.862745
0.976471 0.607843 0.862745
0.000000 0.733333 0.862745
0.015686 0.729412 0.862745
0.215686 0.733333 0.866667
0.341176 0.733333 0.866667
0.482353 0.733333 0.862745
0.607843 0.733333 0.862745
0.725490 0.733333 0.866667
0.850980 0.729412 0.866667
0.980392 0.733333 0.866667
0.000000 0.854902 0.866667
0.007843 0.858824 0.870588
0.188235 0.858824 0.866667
0.341176 0.858824 0.870588
0.474510 0.854902 0.862745
0.600000 0.858824 0.866667
0.729412 0.858824 0.870588
0.854902 0.858824 0.866667
0.980392 0.858824 0.862745
0.000000 0.984314 0.866667
0.000000 0.988235 0.870588
0.180392 0.984314 0.866667
0.345098 0.980392 0.862745
0.474510 0.984314 0.870588
0.603922 0.984314 0.870588
0.733333 0.984314 0.866667
0.858824 0.984314 0.866667
0.984314 0.980392 0.858824
0.000000 0.000000 0.996078
0.000000 0.000000 0.996078
0.164706 0.000000 0.996078
0.313726 0.000000 1.000000
0.454902 0.000000 1.000000
0.596078 0.000000 0.992157
0.729412 0.000000 0.984314
0.850980 0.000000 0.988235
0.976471 0.000000 0.992157
0.000000 0.105882 0.996078
0.000000 0.105882 0.992157
0.160784 0.109804 0.996078
0.317647 0.101961 0.996078
0.454902 0.109804 0.996078
0.596078 0.098039 0.996078
0.725490 0.086275 0.984314
0.854902 0.074510 0.988235
0.980392 0.062745 0.984314
0.000000 0.239216 0.992157
0.000000 0.235294 0.992157
0.176471 0.231373 0.992157
0.325490 0.235294 0.996078
0.462745 0.231373 0.996078
0.596078 0.235294 0.992157
0.729412 0.227451 0.992157
0.850980 0.227451 0.988235
0.976471 0.231373 0.992157
0.000000 0.360784 0.996078
0.000000 0.360784 0.996078
0.184314 0.356863 0.992157
0.325490 0.360784 1.000000
0.470588 0.356863 0.992157
0.603922 0.356863 0.988235
0.729412 0.352941 0.984314
0.854902 0.356863 0.996078
0.980392 0.352941 0.988235
0.000000 0.486275 0.988235
0.015686 0.482353 0.992157
0.184314 0.486275 0.992157
0.333333 0.482353 0.988235
0.466667 0.482353 0.988235
0.600000 0.482353 0.992157
0.729412 0.482353 0.992157
0.854902 0.482353 0.992157
0.980392 0.486275 0.988235
0.000000 0.607843 0.992157
0.000000 0.607843 0.992157
0.192157 0.607843 0.992157
0.333333 0.611765 0.992157
0.478431 0.607843 0.988235
0.592157 0.607843 0.992157
0.729412 0.607843 0.988235
0.847059 0.607843 0.992157
0.980392 0.607843 0.988235
0.000000 0.733333 0.992157
0.000000 0.737255 0.988235
0.207843 0.733333 0.988235
0.329412 0.733333 0.988235
0.474510 0.733333 0.992157
0.603922 0.733333 0.992157
0.729412 0.737255 0.988235
0.854902 0.733333 0.988235
0.976471 0.737255 0.996078
0.000000 0.858824 0.988235
0.000000 0.858824 0.988235
0.207843 0.854902 0.988235
0.337255 0.858824 0.988235
0.474510 0.858824 0.988235
0.607843 0.858824 0.992157
0.721569 0.858824 0.988235
0.854902 0.858824 0.988235
0.976471 0.858824 0.984314
0.000000 0.984314 0.992157
0.000000 0.984314 0.992157
0.200000 0.984314 0.988235
0.341176 0.980392 0.984314
0.478431 0.984314 0.992157
0.603922 0.984314 0.992157
0.729412 0.984314 0.988235
0.858824 0.984314 0.988235
0.980392 0.984314 0.988235
